( pcb2gcode 1.3.1 )
( Software-independent Gcode )

G94 ( Inches per minute feed rate. )
G20 ( Units == INCHES. )

G90 ( Absolute coordinates. )
S12000 ( RPM spindle speed. )
G64 P0.00200 ( set maximum deviation from commanded toolpath )
F7.87402 ( Feedrate. )

F7.87402 ( Feedrate. )
M3 ( Spindle on clockwise. )
G04 P0 ( dwell for no time -- G64 should not smooth over this point )
G00 Z0.05906 ( retract )

G00 X-1.97224 Y-1.96476 ( rapid move to begin. )
F3.93701
G01 Z-0.00157
G04 P0 ( dwell for no time -- G64 should not smooth over this point )
F7.87402
X-1.97224 Y-1.96476
X-1.97224 Y-8.85876
X-1.97024 Y-8.86076
X8.85976 Y-8.86076
X8.86176 Y-8.85876
X8.86176 Y1.97124
X8.85976 Y1.97324
X-1.97024 Y1.97324
X-1.97224 Y1.97124
X-1.97224 Y-1.96476
G04 P0 ( dwell for no time -- G64 should not smooth over this point )
G00 Z0.05906 ( retract )

G00 X1.97176 Y-1.99076 ( rapid move to begin. )
F3.93701
G01 Z-0.00157
G04 P0 ( dwell for no time -- G64 should not smooth over this point )
F7.87402
X1.97176 Y-1.99076
X1.97176 Y-4.91676
X4.91776 Y-4.91676
X4.91776 Y-1.97076
X1.97176 Y-1.97076
X1.97176 Y-1.99076
G04 P0 ( dwell for no time -- G64 should not smooth over this point )
G00 Z0.05906 ( retract )

G00 X2.49676 Y-2.38276 ( rapid move to begin. )
F3.93701
G01 Z-0.00157
G04 P0 ( dwell for no time -- G64 should not smooth over this point )
F7.87402
X2.49676 Y-2.38276
X2.49276 Y-2.39276
X2.49276 Y-2.40876
X2.49776 Y-2.42176
X2.50576 Y-2.42976
X2.50576 Y-2.53776
X2.50176 Y-2.54176
X2.49576 Y-2.54276
X2.49576 Y-2.55076
X2.49976 Y-2.55576
X2.50376 Y-2.57076
X2.50376 Y-2.62376
X2.49976 Y-2.63876
X2.49576 Y-2.64376
X2.49576 Y-2.66876
X2.50776 Y-2.68076
X2.50976 Y-2.68076
X2.51076 Y-2.67876
X2.54076 Y-2.66976
X2.56276 Y-2.64776
X2.56276 Y-2.64376
X2.55876 Y-2.63876
X2.55476 Y-2.62376
X2.55476 Y-2.57076
X2.55876 Y-2.55576
X2.56276 Y-2.55076
X2.56276 Y-2.54276
X2.55676 Y-2.54176
X2.55276 Y-2.53776
X2.55276 Y-2.42976
X2.56076 Y-2.42176
X2.56376 Y-2.41276
X2.56676 Y-2.40876
X2.56676 Y-2.39276
X2.56376 Y-2.38876
X2.56076 Y-2.37976
X2.55576 Y-2.37576
X2.55576 Y-2.37376
X2.55076 Y-2.36876
X2.53776 Y-2.36376
X2.52176 Y-2.36376
X2.51376 Y-2.36776
X2.51076 Y-2.36776
X2.49776 Y-2.37976
X2.49676 Y-2.38276
G04 P0 ( dwell for no time -- G64 should not smooth over this point )
G00 Z0.05906 ( retract )

G00 X2.44376 Y-2.56076 ( rapid move to begin. )
F3.93701
G01 Z-0.00157
G04 P0 ( dwell for no time -- G64 should not smooth over this point )
F7.87402
X2.44376 Y-2.56076
X2.43976 Y-2.56676
X2.43776 Y-2.57876
X2.43676 Y-2.62276
X2.38476 Y-2.67376
X2.37976 Y-2.68276
X2.37876 Y-2.76176
X2.37676 Y-2.76476
X2.36776 Y-2.76676
X2.36376 Y-2.77076
X2.36176 Y-2.77076
X2.36176 Y-2.77276
X2.35676 Y-2.77876
X2.35576 Y-2.78376
X2.35676 Y-2.81976
X2.36276 Y-2.82776
X2.36976 Y-2.83176
X2.37076 Y-2.83676
X2.47976 Y-2.83676
X2.47976 Y-2.72876
X2.49476 Y-2.72476
X2.50876 Y-2.68276
X2.50876 Y-2.68076
X2.49576 Y-2.66876
X2.49576 Y-2.64376
X2.49976 Y-2.63876
X2.50376 Y-2.62376
X2.50376 Y-2.57076
X2.49976 Y-2.55576
X2.49576 Y-2.55076
X2.49576 Y-2.54276
X2.48076 Y-2.53976
X2.46176 Y-2.54276
X2.45976 Y-2.54576
X2.45076 Y-2.55076
X2.44376 Y-2.56076
G04 P0 ( dwell for no time -- G64 should not smooth over this point )
G00 Z0.05906 ( retract )

G00 X2.55776 Y-2.56076 ( rapid move to begin. )
F3.93701
G01 Z-0.00157
G04 P0 ( dwell for no time -- G64 should not smooth over this point )
F7.87402
X2.55776 Y-2.56076
X2.55476 Y-2.57076
X2.55476 Y-2.62376
X2.55876 Y-2.63876
X2.56276 Y-2.64376
X2.56276 Y-2.64776
X2.54076 Y-2.66976
X2.51076 Y-2.67876
X2.50776 Y-2.68276
X2.49476 Y-2.72476
X2.47976 Y-2.72876
X2.47976 Y-2.83676
X2.63776 Y-2.83676
X2.63776 Y-2.73476
X2.63476 Y-2.73076
X2.61476 Y-2.66676
X2.60376 Y-2.65576
X2.60376 Y-2.54776
X2.59976 Y-2.54676
X2.59576 Y-2.54276
X2.58076 Y-2.53976
X2.56576 Y-2.54176
X2.56276 Y-2.54276
X2.56276 Y-2.55076
X2.55976 Y-2.55376
X2.55776 Y-2.56076
G04 P0 ( dwell for no time -- G64 should not smooth over this point )
G00 Z0.05906 ( retract )

G00 X2.60376 Y-2.56076 ( rapid move to begin. )
F3.93701
G01 Z-0.00157
G04 P0 ( dwell for no time -- G64 should not smooth over this point )
F7.87402
X2.60376 Y-2.56076
X2.60376 Y-2.65576
X2.61476 Y-2.66676
X2.63476 Y-2.73076
X2.63776 Y-2.73476
X2.63776 Y-2.83676
X2.74676 Y-2.83676
X2.74776 Y-2.83176
X2.75676 Y-2.82676
X2.76076 Y-2.81976
X2.76176 Y-2.78376
X2.75676 Y-2.77076
X2.75476 Y-2.77076
X2.75076 Y-2.76676
X2.74176 Y-2.76476
X2.73976 Y-2.76176
X2.73976 Y-2.69876
X2.73776 Y-2.69076
X2.73576 Y-2.68976
X2.73376 Y-2.68476
X2.67076 Y-2.62276
X2.66976 Y-2.57776
X2.66776 Y-2.56576
X2.65676 Y-2.55076
X2.65476 Y-2.55076
X2.65276 Y-2.54776
X2.65076 Y-2.54776
X2.64976 Y-2.54576
X2.64276 Y-2.54176
X2.63076 Y-2.53976
X2.61476 Y-2.54176
X2.61076 Y-2.54376
X2.60876 Y-2.54676
X2.60376 Y-2.54776
X2.60376 Y-2.56076
G04 P0 ( dwell for no time -- G64 should not smooth over this point )
G00 Z0.05906 ( retract )

G00 X2.63776 Y-2.85976 ( rapid move to begin. )
F3.93701
G01 Z-0.00157
G04 P0 ( dwell for no time -- G64 should not smooth over this point )
F7.87402
X2.63776 Y-2.85976
X2.63776 Y-3.03376
X2.59376 Y-3.16576
X2.58076 Y-3.17876
X2.57176 Y-3.18076
X2.55976 Y-3.18876
X2.55976 Y-3.19076
X2.55476 Y-3.19476
X2.55476 Y-3.19776
X2.55276 Y-3.19876
X2.54676 Y-3.21676
X2.54676 Y-3.22976
X2.56276 Y-3.24576
X2.57376 Y-3.25176
X2.58076 Y-3.25276
X2.58576 Y-3.25676
X2.60676 Y-3.26376
X2.61976 Y-3.25876
X2.62976 Y-3.24876
X2.63276 Y-3.23976
X2.63576 Y-3.23576
X2.63676 Y-3.22176
X2.65676 Y-3.20176
X2.66176 Y-3.20076
X2.66276 Y-3.19476
X2.73376 Y-3.12476
X2.73376 Y-3.12276
X2.73876 Y-3.11676
X2.73976 Y-2.91076
X2.74176 Y-2.90776
X2.74876 Y-2.90676
X2.75476 Y-2.90176
X2.75676 Y-2.90176
X2.76176 Y-2.88876
X2.76076 Y-2.85376
X2.75676 Y-2.84576
X2.74976 Y-2.84276
X2.74676 Y-2.83676
X2.63776 Y-2.83676
X2.63776 Y-2.85976
G04 P0 ( dwell for no time -- G64 should not smooth over this point )
G00 Z0.05906 ( retract )

G00 X2.47976 Y-2.85976 ( rapid move to begin. )
F3.93701
G01 Z-0.00157
G04 P0 ( dwell for no time -- G64 should not smooth over this point )
F7.87402
X2.47976 Y-2.85976
X2.47976 Y-3.05876
X2.47276 Y-3.07676
X2.47276 Y-3.16976
X2.48076 Y-3.19076
X2.48076 Y-3.22576
X2.47576 Y-3.22976
X2.47576 Y-3.30276
X2.51176 Y-3.30176
X2.52076 Y-3.29976
X2.52376 Y-3.29276
X2.52476 Y-3.28076
X2.55976 Y-3.28076
X2.56576 Y-3.28276
X2.57576 Y-3.29276
X2.57576 Y-3.29476
X2.60976 Y-3.32776
X2.61776 Y-3.32976
X2.68776 Y-3.33076
X2.69876 Y-3.34076
X2.69876 Y-3.34876
X2.70076 Y-3.35076
X2.73376 Y-3.35076
X2.73476 Y-3.35276
X2.73776 Y-3.35276
X2.73876 Y-3.35076
X2.77176 Y-3.35076
X2.79176 Y-3.33076
X2.79176 Y-3.32876
X2.77476 Y-3.31276
X2.76676 Y-3.28676
X2.75076 Y-3.28176
X2.74676 Y-3.27676
X2.73376 Y-3.27676
X2.71276 Y-3.25576
X2.71276 Y-3.25376
X2.70976 Y-3.25376
X2.70976 Y-3.26976
X2.71476 Y-3.27476
X2.71476 Y-3.27976
X2.71176 Y-3.28376
X2.70676 Y-3.28576
X2.70576 Y-3.28976
X2.70176 Y-3.29276
X2.62776 Y-3.29276
X2.60776 Y-3.27276
X2.60676 Y-3.26276
X2.58576 Y-3.25676
X2.58076 Y-3.25276
X2.56876 Y-3.24976
X2.56476 Y-3.24576
X2.56276 Y-3.24576
X2.54676 Y-3.22976
X2.54676 Y-3.21676
X2.55276 Y-3.19876
X2.55476 Y-3.19776
X2.55476 Y-3.19476
X2.56576 Y-3.18376
X2.58076 Y-3.17876
X2.59376 Y-3.16576
X2.63776 Y-3.03376
X2.63776 Y-2.83676
X2.47976 Y-2.83676
X2.47976 Y-2.85976
G04 P0 ( dwell for no time -- G64 should not smooth over this point )
G00 Z0.05906 ( retract )

G00 X2.35576 Y-2.85976 ( rapid move to begin. )
F3.93701
G01 Z-0.00157
G04 P0 ( dwell for no time -- G64 should not smooth over this point )
F7.87402
X2.35576 Y-2.85976
X2.35676 Y-2.89376
X2.36176 Y-2.89976
X2.36176 Y-2.90176
X2.36376 Y-2.90176
X2.36976 Y-2.90676
X2.37676 Y-2.90776
X2.37876 Y-2.91076
X2.37976 Y-3.15576
X2.38476 Y-3.16476
X2.43076 Y-3.20976
X2.43176 Y-3.21676
X2.42876 Y-3.21976
X2.42876 Y-3.22176
X2.44176 Y-3.22576
X2.44776 Y-3.23176
X2.44776 Y-3.30076
X2.39376 Y-3.35376
X2.39376 Y-3.35676
X2.44776 Y-3.40976
X2.44776 Y-3.47876
X2.40376 Y-3.52176
X2.40376 Y-3.52376
X2.44776 Y-3.56676
X2.44776 Y-3.59576
X2.45676 Y-3.62276
X2.46276 Y-3.62876
X2.46276 Y-3.63176
X2.46876 Y-3.63476
X2.47176 Y-3.64076
X2.47376 Y-3.64076
X2.47976 Y-3.64576
X2.48476 Y-3.64676
X2.52076 Y-3.64576
X2.52476 Y-3.64176
X2.52676 Y-3.64176
X2.52876 Y-3.63776
X2.53276 Y-3.63476
X2.62276 Y-3.63576
X2.62276 Y-3.63376
X2.62776 Y-3.63276
X2.62976 Y-3.63076
X2.64276 Y-3.62876
X2.67176 Y-3.62876
X2.68476 Y-3.63076
X2.68676 Y-3.63276
X2.69176 Y-3.63376
X2.69176 Y-3.63576
X2.70176 Y-3.63476
X2.71176 Y-3.64476
X2.71876 Y-3.64676
X2.75376 Y-3.64676
X2.76076 Y-3.64476
X2.76276 Y-3.64176
X2.76676 Y-3.63976
X2.76676 Y-3.63776
X2.77076 Y-3.63376
X2.77276 Y-3.59876
X2.76876 Y-3.59076
X2.76676 Y-3.58176
X2.75076 Y-3.57676
X2.74676 Y-3.57176
X2.73676 Y-3.57176
X2.72476 Y-3.58476
X2.71276 Y-3.58776
X2.71076 Y-3.59676
X2.52576 Y-3.59676
X2.52376 Y-3.57476
X2.52176 Y-3.56776
X2.50576 Y-3.55176
X2.49476 Y-3.54876
X2.49276 Y-3.54676
X2.48076 Y-3.51076
X2.48076 Y-3.48376
X2.47576 Y-3.47976
X2.47476 Y-3.40376
X2.47576 Y-3.22976
X2.48076 Y-3.22576
X2.48076 Y-3.19076
X2.47276 Y-3.16976
X2.47276 Y-3.07676
X2.47976 Y-3.05876
X2.47976 Y-2.83676
X2.37076 Y-2.83676
X2.36976 Y-2.84076
X2.36276 Y-2.84476
X2.35976 Y-2.85076
X2.35776 Y-2.85176
X2.35576 Y-2.85976
G04 P0 ( dwell for no time -- G64 should not smooth over this point )
G00 Z0.05906 ( retract )

G00 X2.19176 Y-3.11176 ( rapid move to begin. )
F3.93701
G01 Z-0.00157
G04 P0 ( dwell for no time -- G64 should not smooth over this point )
F7.87402
X2.19176 Y-3.11176
X2.18776 Y-3.12076
X2.18776 Y-3.13676
X2.19276 Y-3.14976
X2.20076 Y-3.15876
X2.20076 Y-3.23576
X2.19876 Y-3.23876
X2.19476 Y-3.23976
X2.17876 Y-3.25576
X2.17676 Y-3.25976
X2.17276 Y-3.27276
X2.17076 Y-3.27476
X2.17076 Y-3.29776
X2.17276 Y-3.29976
X2.17876 Y-3.31676
X2.19376 Y-3.33076
X2.19476 Y-3.33576
X2.23976 Y-3.33576
X2.24376 Y-3.33276
X2.24676 Y-3.33276
X2.24776 Y-3.33076
X2.25076 Y-3.33076
X2.25276 Y-3.32676
X2.25676 Y-3.32576
X2.26576 Y-3.31676
X2.26676 Y-3.31276
X2.26976 Y-3.31076
X2.26976 Y-3.30776
X2.27176 Y-3.30676
X2.27876 Y-3.28576
X2.27876 Y-3.27476
X2.27476 Y-3.26876
X2.27476 Y-3.26576
X2.26976 Y-3.25576
X2.25376 Y-3.23976
X2.24976 Y-3.23876
X2.24776 Y-3.23576
X2.24776 Y-3.15876
X2.25576 Y-3.14976
X2.25876 Y-3.14076
X2.26176 Y-3.13676
X2.26176 Y-3.12076
X2.25876 Y-3.11676
X2.25576 Y-3.10776
X2.25276 Y-3.10476
X2.24576 Y-3.09776
X2.23676 Y-3.09476
X2.23276 Y-3.09176
X2.21576 Y-3.09176
X2.21176 Y-3.09476
X2.20876 Y-3.09476
X2.20276 Y-3.09776
X2.19276 Y-3.10776
X2.19176 Y-3.11176
G04 P0 ( dwell for no time -- G64 should not smooth over this point )
G00 Z0.05906 ( retract )

G00 X2.39176 Y-3.24176 ( rapid move to begin. )
F3.93701
G01 Z-0.00157
G04 P0 ( dwell for no time -- G64 should not smooth over this point )
F7.87402
X2.39176 Y-3.24176
X2.38876 Y-3.24376
X2.33476 Y-3.24476
X2.32976 Y-3.24876
X2.32576 Y-3.24976
X2.28976 Y-3.28776
X2.28276 Y-3.28876
X2.27976 Y-3.28576
X2.27776 Y-3.28576
X2.26976 Y-3.31076
X2.25676 Y-3.32576
X2.25176 Y-3.32776
X2.25076 Y-3.33076
X2.24776 Y-3.33076
X2.24676 Y-3.33276
X2.24376 Y-3.33276
X2.23976 Y-3.33576
X2.19476 Y-3.33576
X2.19376 Y-3.33976
X2.17876 Y-3.35376
X2.17076 Y-3.37376
X2.17076 Y-3.39676
X2.17276 Y-3.39876
X2.17876 Y-3.41576
X2.19376 Y-3.42976
X2.19476 Y-3.43476
X2.23976 Y-3.43476
X2.25276 Y-3.42776
X2.26776 Y-3.42476
X2.28176 Y-3.41776
X2.29976 Y-3.39876
X2.35276 Y-3.38176
X2.35676 Y-3.36676
X2.35876 Y-3.36476
X2.38476 Y-3.35576
X2.39376 Y-3.35576
X2.39376 Y-3.35376
X2.44776 Y-3.30076
X2.44776 Y-3.23176
X2.44176 Y-3.22576
X2.43076 Y-3.22276
X2.42876 Y-3.22076
X2.41076 Y-3.22076
X2.39776 Y-3.22676
X2.39576 Y-3.23176
X2.39376 Y-3.23276
X2.39176 Y-3.24176
G04 P0 ( dwell for no time -- G64 should not smooth over this point )
G00 Z0.05906 ( retract )

G00 X2.52376 Y-3.29076 ( rapid move to begin. )
F3.93701
G01 Z-0.00157
G04 P0 ( dwell for no time -- G64 should not smooth over this point )
F7.87402
X2.52376 Y-3.29076
X2.52076 Y-3.29976
X2.51176 Y-3.30176
X2.47576 Y-3.30276
X2.47476 Y-3.30676
X2.47576 Y-3.40876
X2.50576 Y-3.40876
X2.52076 Y-3.41176
X2.52376 Y-3.42076
X2.52376 Y-3.42876
X2.52676 Y-3.43076
X2.67276 Y-3.43076
X2.67876 Y-3.42876
X2.68576 Y-3.42076
X2.73676 Y-3.42076
X2.73676 Y-3.35276
X2.73476 Y-3.35276
X2.73376 Y-3.35076
X2.70076 Y-3.35076
X2.69876 Y-3.34876
X2.69876 Y-3.34076
X2.68976 Y-3.33176
X2.68376 Y-3.32976
X2.61776 Y-3.32976
X2.60976 Y-3.32776
X2.57576 Y-3.29476
X2.57576 Y-3.29276
X2.56576 Y-3.28276
X2.55976 Y-3.28076
X2.52476 Y-3.28076
X2.52376 Y-3.29076
G04 P0 ( dwell for no time -- G64 should not smooth over this point )
G00 Z0.05906 ( retract )

G00 X2.47576 Y-3.41976 ( rapid move to begin. )
F3.93701
G01 Z-0.00157
G04 P0 ( dwell for no time -- G64 should not smooth over this point )
F7.87402
X2.47576 Y-3.41976
X2.47576 Y-3.47976
X2.48076 Y-3.48376
X2.48076 Y-3.51076
X2.49276 Y-3.54676
X2.50376 Y-3.55176
X2.50576 Y-3.55176
X2.51276 Y-3.54376
X2.52076 Y-3.54376
X2.52576 Y-3.54576
X2.57176 Y-3.54676
X2.57576 Y-3.54876
X2.57776 Y-3.55276
X2.58276 Y-3.55476
X2.58376 Y-3.55676
X2.59476 Y-3.55976
X2.60276 Y-3.55976
X2.61076 Y-3.55776
X2.61376 Y-3.55476
X2.61776 Y-3.55376
X2.62476 Y-3.54176
X2.62576 Y-3.52876
X2.62176 Y-3.51576
X2.61876 Y-3.51376
X2.61776 Y-3.51076
X2.60776 Y-3.50576
X2.58876 Y-3.50576
X2.57876 Y-3.51076
X2.57776 Y-3.51376
X2.57176 Y-3.51776
X2.54876 Y-3.51776
X2.54276 Y-3.51576
X2.52076 Y-3.49376
X2.51776 Y-3.48476
X2.51776 Y-3.47976
X2.52176 Y-3.47676
X2.52276 Y-3.47376
X2.52476 Y-3.45876
X2.70576 Y-3.45876
X2.70976 Y-3.46276
X2.71176 Y-3.48876
X2.72076 Y-3.49776
X2.73376 Y-3.49776
X2.73476 Y-3.49976
X2.73776 Y-3.49976
X2.73876 Y-3.49776
X2.77176 Y-3.49776
X2.79576 Y-3.47376
X2.79576 Y-3.47176
X2.76976 Y-3.44676
X2.76576 Y-3.43376
X2.75176 Y-3.42976
X2.74676 Y-3.42576
X2.74676 Y-3.42376
X2.73776 Y-3.42076
X2.68576 Y-3.42076
X2.67876 Y-3.42876
X2.67276 Y-3.43076
X2.52676 Y-3.43076
X2.52376 Y-3.42876
X2.52176 Y-3.41276
X2.50576 Y-3.40876
X2.47576 Y-3.40876
X2.47576 Y-3.41976
G04 P0 ( dwell for no time -- G64 should not smooth over this point )
G00 Z0.05906 ( retract )

G00 X2.52376 Y-3.46876 ( rapid move to begin. )
F3.93701
G01 Z-0.00157
G04 P0 ( dwell for no time -- G64 should not smooth over this point )
F7.87402
X2.52376 Y-3.46876
X2.52176 Y-3.47676
X2.51776 Y-3.47976
X2.51776 Y-3.48476
X2.52076 Y-3.49376
X2.54276 Y-3.51576
X2.54876 Y-3.51776
X2.57176 Y-3.51776
X2.57576 Y-3.51576
X2.57876 Y-3.51076
X2.58276 Y-3.50976
X2.58576 Y-3.50676
X2.60176 Y-3.50476
X2.61076 Y-3.50676
X2.61876 Y-3.51176
X2.62476 Y-3.52276
X2.62576 Y-3.52876
X2.62476 Y-3.54176
X2.62176 Y-3.54876
X2.61876 Y-3.55076
X2.61776 Y-3.55376
X2.61376 Y-3.55476
X2.61276 Y-3.55676
X2.60276 Y-3.55976
X2.59476 Y-3.55976
X2.58376 Y-3.55676
X2.58276 Y-3.55476
X2.57876 Y-3.55376
X2.57576 Y-3.54876
X2.57176 Y-3.54676
X2.52576 Y-3.54576
X2.52076 Y-3.54376
X2.51276 Y-3.54376
X2.50576 Y-3.55076
X2.50576 Y-3.55276
X2.52176 Y-3.56776
X2.52376 Y-3.57476
X2.52576 Y-3.59676
X2.71076 Y-3.59676
X2.71276 Y-3.58776
X2.72476 Y-3.58476
X2.73676 Y-3.57276
X2.73676 Y-3.49976
X2.73476 Y-3.49976
X2.73376 Y-3.49776
X2.72076 Y-3.49776
X2.71176 Y-3.48876
X2.70976 Y-3.46276
X2.70576 Y-3.45876
X2.52476 Y-3.45876
X2.52376 Y-3.46876
G04 P0 ( dwell for no time -- G64 should not smooth over this point )
G00 Z0.05906 ( retract )

G00 X2.62476 Y-3.64276 ( rapid move to begin. )
F3.93701
G01 Z-0.00157
G04 P0 ( dwell for no time -- G64 should not smooth over this point )
F7.87402
X2.62476 Y-3.64276
X2.62076 Y-3.65276
X2.61976 Y-3.66676
X2.57276 Y-3.71376
X2.57076 Y-3.71376
X2.52376 Y-3.76176
X2.52176 Y-3.76176
X2.30076 Y-3.98376
X2.29376 Y-3.98476
X2.28676 Y-3.97976
X2.27976 Y-3.97776
X2.20876 Y-3.97776
X2.19576 Y-3.98276
X2.19576 Y-3.98476
X2.19176 Y-3.98876
X2.19076 Y-3.99376
X2.18776 Y-3.99576
X2.18276 Y-3.99576
X2.17776 Y-3.99176
X2.17576 Y-3.98776
X2.15876 Y-3.98076
X2.15476 Y-3.98176
X2.15476 Y-3.99876
X2.15876 Y-3.99876
X2.16276 Y-4.00276
X2.16776 Y-4.00476
X2.17176 Y-4.00876
X2.17276 Y-4.01276
X2.17676 Y-4.01776
X2.17876 Y-4.02776
X2.17776 Y-4.04076
X2.17476 Y-4.04876
X2.16976 Y-4.05476
X2.16976 Y-4.05776
X2.17976 Y-4.06676
X2.17976 Y-4.06876
X2.18376 Y-4.07276
X2.18576 Y-4.07976
X2.18876 Y-4.08376
X2.18876 Y-4.08676
X2.19676 Y-4.08776
X2.19976 Y-4.08576
X2.21776 Y-4.08176
X2.27076 Y-4.08176
X2.28376 Y-4.08476
X2.28676 Y-4.08176
X2.29276 Y-4.07976
X2.29776 Y-4.06676
X2.29876 Y-4.04976
X2.30276 Y-4.04776
X2.65176 Y-3.69876
X2.66576 Y-3.69776
X2.66976 Y-3.69476
X2.67276 Y-3.69476
X2.67876 Y-3.69176
X2.68876 Y-3.68176
X2.69176 Y-3.67276
X2.69476 Y-3.66876
X2.69476 Y-3.65176
X2.68976 Y-3.64376
X2.69176 Y-3.63376
X2.68676 Y-3.63276
X2.68476 Y-3.63076
X2.67176 Y-3.62876
X2.63476 Y-3.62976
X2.62276 Y-3.63376
X2.62476 Y-3.64276
G04 P0 ( dwell for no time -- G64 should not smooth over this point )
G00 Z0.05906 ( retract )

G00 X2.62876 Y-3.76076 ( rapid move to begin. )
F3.93701
G01 Z-0.00157
G04 P0 ( dwell for no time -- G64 should not smooth over this point )
F7.87402
X2.62876 Y-3.76076
X2.62476 Y-3.76176
X2.31376 Y-4.07276
X2.31276 Y-4.07676
X2.30876 Y-4.08176
X2.30676 Y-4.08976
X2.30676 Y-4.11076
X2.30476 Y-4.11376
X2.30176 Y-4.11476
X2.30176 Y-4.16476
X2.29876 Y-4.17576
X2.29876 Y-4.18676
X2.30176 Y-4.19776
X2.30176 Y-4.23976
X2.29376 Y-4.25976
X2.28176 Y-4.26576
X2.26076 Y-4.27076
X2.22076 Y-4.26976
X2.21776 Y-4.26776
X2.20676 Y-4.26576
X2.19576 Y-4.25976
X2.19276 Y-4.25976
X2.18876 Y-4.26276
X2.18176 Y-4.26476
X2.16976 Y-4.27576
X2.16676 Y-4.27576
X2.16576 Y-4.27776
X2.16276 Y-4.27776
X2.15876 Y-4.28076
X2.11876 Y-4.28076
X2.11776 Y-4.28576
X2.11076 Y-4.28976
X2.10976 Y-4.29176
X2.10776 Y-4.29176
X2.10676 Y-4.29376
X2.10476 Y-4.29376
X2.10476 Y-4.29576
X2.10176 Y-4.29776
X2.10176 Y-4.29976
X2.09376 Y-4.30976
X2.08976 Y-4.32976
X2.09276 Y-4.35076
X2.09976 Y-4.35976
X2.09976 Y-4.36176
X2.10176 Y-4.36276
X2.10176 Y-4.36476
X2.10476 Y-4.36676
X2.10476 Y-4.36876
X2.10676 Y-4.36876
X2.10776 Y-4.37076
X2.10976 Y-4.37076
X2.11076 Y-4.37276
X2.11276 Y-4.37276
X2.11376 Y-4.37476
X2.11576 Y-4.37476
X2.12376 Y-4.38076
X2.13776 Y-4.38276
X2.14176 Y-4.38476
X2.16476 Y-4.38076
X2.17676 Y-4.37176
X2.17876 Y-4.37176
X2.18076 Y-4.36876
X2.18376 Y-4.36776
X2.18376 Y-4.36576
X2.18776 Y-4.36276
X2.18976 Y-4.35876
X2.19476 Y-4.35776
X2.19476 Y-4.31676
X2.19776 Y-4.31276
X2.19776 Y-4.30976
X2.19976 Y-4.30876
X2.19976 Y-4.30576
X2.20476 Y-4.30176
X2.20576 Y-4.29776
X2.20976 Y-4.29576
X2.22776 Y-4.29176
X2.26076 Y-4.29176
X2.28176 Y-4.29676
X2.28576 Y-4.29976
X2.29276 Y-4.30176
X2.29776 Y-4.30676
X2.32476 Y-4.30676
X2.32876 Y-4.30276
X2.33176 Y-4.30276
X2.33276 Y-4.29976
X2.33576 Y-4.29876
X2.33876 Y-4.29476
X2.34176 Y-4.29476
X2.34076 Y-4.28676
X2.34776 Y-4.27876
X2.34976 Y-4.27376
X2.35376 Y-4.27076
X2.35876 Y-4.27076
X2.36776 Y-4.27576
X2.38976 Y-4.27476
X2.39076 Y-4.25576
X2.37176 Y-4.25576
X2.37176 Y-4.20676
X2.39076 Y-4.20676
X2.39076 Y-4.18976
X2.38876 Y-4.18776
X2.36676 Y-4.18776
X2.36376 Y-4.18976
X2.35776 Y-4.18976
X2.35376 Y-4.18576
X2.35376 Y-4.16676
X2.35576 Y-4.16376
X2.36376 Y-4.16276
X2.36676 Y-4.16476
X2.38876 Y-4.16476
X2.39076 Y-4.16276
X2.39076 Y-4.14576
X2.37176 Y-4.14576
X2.37176 Y-4.09676
X2.39076 Y-4.09676
X2.39076 Y-4.07976
X2.38576 Y-4.07576
X2.38476 Y-4.06876
X2.64176 Y-3.81076
X2.64876 Y-3.80976
X2.66076 Y-3.81576
X2.67676 Y-3.81576
X2.69076 Y-3.80876
X2.69976 Y-3.79976
X2.70276 Y-3.79076
X2.70576 Y-3.78676
X2.70576 Y-3.77076
X2.70276 Y-3.76676
X2.69976 Y-3.75776
X2.69476 Y-3.75376
X2.69476 Y-3.75176
X2.68976 Y-3.74676
X2.68476 Y-3.74576
X2.68276 Y-3.74376
X2.67676 Y-3.74176
X2.66076 Y-3.74176
X2.64776 Y-3.74676
X2.63976 Y-3.75576
X2.63376 Y-3.75676
X2.62876 Y-3.76076
G04 P0 ( dwell for no time -- G64 should not smooth over this point )
G00 Z0.05906 ( retract )

G00 X2.60476 Y-4.00876 ( rapid move to begin. )
F3.93701
G01 Z-0.00157
G04 P0 ( dwell for no time -- G64 should not smooth over this point )
F7.87402
X2.60476 Y-4.00876
X2.60076 Y-4.01776
X2.59976 Y-4.03176
X2.54776 Y-4.08276
X2.54276 Y-4.08276
X2.53576 Y-4.07776
X2.53076 Y-4.07676
X2.46876 Y-4.07676
X2.46176 Y-4.07876
X2.45976 Y-4.08176
X2.45276 Y-4.08576
X2.44576 Y-4.08476
X2.44276 Y-4.07976
X2.43576 Y-4.07676
X2.41476 Y-4.07676
X2.41176 Y-4.07976
X2.41176 Y-4.09676
X2.43076 Y-4.09676
X2.43076 Y-4.14576
X2.41176 Y-4.14576
X2.41176 Y-4.16276
X2.41476 Y-4.16476
X2.43576 Y-4.16476
X2.44276 Y-4.16176
X2.44576 Y-4.15676
X2.45276 Y-4.15576
X2.46176 Y-4.16376
X2.47276 Y-4.16576
X2.47676 Y-4.16976
X2.47576 Y-4.18476
X2.46876 Y-4.18776
X2.46376 Y-4.18776
X2.45276 Y-4.19576
X2.44576 Y-4.19476
X2.44276 Y-4.18976
X2.43676 Y-4.18776
X2.41476 Y-4.18776
X2.41176 Y-4.18976
X2.41176 Y-4.20676
X2.43076 Y-4.20676
X2.43076 Y-4.25576
X2.41176 Y-4.25576
X2.41176 Y-4.27276
X2.41476 Y-4.27576
X2.43576 Y-4.27576
X2.43976 Y-4.27276
X2.44476 Y-4.27276
X2.44876 Y-4.27676
X2.44776 Y-4.28376
X2.42576 Y-4.30576
X2.39176 Y-4.30676
X2.38576 Y-4.30176
X2.38376 Y-4.29776
X2.37076 Y-4.29276
X2.35376 Y-4.29276
X2.34976 Y-4.29576
X2.33876 Y-4.29476
X2.33576 Y-4.29876
X2.33276 Y-4.29976
X2.33176 Y-4.30276
X2.32876 Y-4.30276
X2.32476 Y-4.30676
X2.29776 Y-4.30676
X2.29276 Y-4.30176
X2.28576 Y-4.29976
X2.28176 Y-4.29676
X2.26076 Y-4.29176
X2.22076 Y-4.29276
X2.21776 Y-4.29476
X2.20676 Y-4.29676
X2.20476 Y-4.30176
X2.19976 Y-4.30576
X2.19776 Y-4.31276
X2.19576 Y-4.31376
X2.19476 Y-4.35776
X2.20076 Y-4.36076
X2.20476 Y-4.36876
X2.20676 Y-4.36876
X2.21976 Y-4.37876
X2.22376 Y-4.38076
X2.24676 Y-4.38476
X2.26676 Y-4.37976
X2.27076 Y-4.37576
X2.27876 Y-4.37176
X2.28076 Y-4.36876
X2.28276 Y-4.36876
X2.28676 Y-4.36176
X2.28976 Y-4.35976
X2.28976 Y-4.35776
X2.29376 Y-4.35476
X2.33476 Y-4.35476
X2.34076 Y-4.36076
X2.34976 Y-4.36376
X2.35376 Y-4.36676
X2.37076 Y-4.36676
X2.37476 Y-4.36376
X2.38376 Y-4.36076
X2.39176 Y-4.35276
X2.44176 Y-4.35176
X2.45076 Y-4.34676
X2.51676 Y-4.28076
X2.51876 Y-4.27676
X2.52876 Y-4.27576
X2.53276 Y-4.27976
X2.53176 Y-4.28676
X2.44676 Y-4.37176
X2.43676 Y-4.37576
X2.43276 Y-4.38076
X2.43076 Y-4.38076
X2.42576 Y-4.38576
X2.42076 Y-4.39876
X2.42076 Y-4.41476
X2.42476 Y-4.42276
X2.42476 Y-4.42576
X2.43676 Y-4.43876
X2.44976 Y-4.44376
X2.46576 Y-4.44376
X2.47376 Y-4.43976
X2.47676 Y-4.43976
X2.48876 Y-4.42776
X2.49276 Y-4.41776
X2.51876 Y-4.39176
X2.52576 Y-4.39076
X2.52976 Y-4.39276
X2.53176 Y-4.38476
X2.53576 Y-4.37976
X2.53576 Y-4.37676
X2.54176 Y-4.37076
X2.54376 Y-4.37076
X2.54676 Y-4.36776
X2.54976 Y-4.36776
X2.55076 Y-4.36576
X2.55976 Y-4.36376
X2.55776 Y-4.35976
X2.55876 Y-4.35276
X2.66176 Y-4.24976
X2.66176 Y-4.24776
X2.66776 Y-4.24076
X2.67076 Y-4.22876
X2.67076 Y-4.10776
X2.67276 Y-4.10476
X2.67476 Y-4.10376
X2.78876 Y-4.10476
X2.79676 Y-4.10876
X2.81276 Y-4.10876
X2.82676 Y-4.10176
X2.83576 Y-4.09276
X2.83876 Y-4.08376
X2.84176 Y-4.07976
X2.84176 Y-4.06276
X2.83876 Y-4.05876
X2.83576 Y-4.04976
X2.82576 Y-4.03976
X2.81676 Y-4.03676
X2.81276 Y-4.03376
X2.79676 Y-4.03376
X2.78876 Y-4.03776
X2.69676 Y-4.03776
X2.67276 Y-4.01476
X2.66876 Y-4.00476
X2.65876 Y-3.99476
X2.64976 Y-3.99176
X2.64576 Y-3.98876
X2.62976 Y-3.98876
X2.62576 Y-3.99176
X2.62276 Y-3.99176
X2.61676 Y-3.99476
X2.61276 Y-3.99976
X2.61076 Y-3.99976
X2.60576 Y-4.00476
X2.60476 Y-4.00876
G04 P0 ( dwell for no time -- G64 should not smooth over this point )
G00 Z0.05906 ( retract )

G00 X2.60776 Y-4.36376 ( rapid move to begin. )
F3.93701
G01 Z-0.00157
G04 P0 ( dwell for no time -- G64 should not smooth over this point )
F7.87402
X2.60776 Y-4.36376
X2.60476 Y-4.36576
X2.57776 Y-4.36576
X2.57476 Y-4.36376
X2.55976 Y-4.36276
X2.54476 Y-4.36876
X2.53576 Y-4.37676
X2.53376 Y-4.38376
X2.53176 Y-4.38476
X2.53076 Y-4.39076
X2.52876 Y-4.39276
X2.52976 Y-4.40876
X2.53476 Y-4.42176
X2.53976 Y-4.42676
X2.54176 Y-4.42676
X2.54576 Y-4.43176
X2.55176 Y-4.43476
X2.55476 Y-4.43476
X2.55876 Y-4.43776
X2.57476 Y-4.43776
X2.58676 Y-4.43176
X2.60476 Y-4.43176
X2.60776 Y-4.43376
X2.60976 Y-4.44276
X2.61176 Y-4.44376
X2.61376 Y-4.44876
X2.61976 Y-4.45076
X2.62076 Y-4.45276
X2.62576 Y-4.45376
X2.62776 Y-4.45676
X2.62776 Y-4.57276
X2.62476 Y-4.57676
X2.61776 Y-4.57976
X2.61776 Y-4.58176
X2.61576 Y-4.58276
X2.61276 Y-4.58976
X2.61076 Y-4.59076
X2.61076 Y-4.59276
X2.60876 Y-4.59376
X2.60476 Y-4.60076
X2.60376 Y-4.61176
X2.60076 Y-4.62176
X2.60076 Y-4.68776
X2.60476 Y-4.70776
X2.60876 Y-4.71476
X2.61076 Y-4.71576
X2.61076 Y-4.71776
X2.61276 Y-4.71876
X2.61576 Y-4.72576
X2.61776 Y-4.72676
X2.61776 Y-4.72876
X2.61976 Y-4.72876
X2.62176 Y-4.73176
X2.62376 Y-4.73176
X2.62476 Y-4.73376
X2.62676 Y-4.73376
X2.63876 Y-4.74276
X2.66276 Y-4.74676
X2.67276 Y-4.74376
X2.68376 Y-4.74276
X2.68676 Y-4.73976
X2.68876 Y-4.73976
X2.69076 Y-4.73676
X2.69276 Y-4.73676
X2.69776 Y-4.73176
X2.70376 Y-4.72876
X2.70376 Y-4.72676
X2.70676 Y-4.72476
X2.70676 Y-4.72276
X2.70876 Y-4.72176
X2.70876 Y-4.71976
X2.71776 Y-4.70776
X2.72176 Y-4.68776
X2.72176 Y-4.62176
X2.71676 Y-4.59876
X2.71076 Y-4.59176
X2.70676 Y-4.58376
X2.70376 Y-4.58176
X2.70376 Y-4.57976
X2.69676 Y-4.57676
X2.69376 Y-4.57276
X2.69376 Y-4.45776
X2.69776 Y-4.45376
X2.73276 Y-4.45276
X2.74076 Y-4.44876
X2.74076 Y-4.44676
X2.74476 Y-4.44276
X2.74676 Y-4.43576
X2.74676 Y-4.36176
X2.74576 Y-4.35676
X2.74076 Y-4.35076
X2.74076 Y-4.34876
X2.72776 Y-4.34376
X2.62676 Y-4.34376
X2.61376 Y-4.34876
X2.61176 Y-4.35376
X2.60976 Y-4.35476
X2.60776 Y-4.36376
G04 P0 ( dwell for no time -- G64 should not smooth over this point )
G00 Z0.05906 ( retract )

G00 X2.19376 Y-4.19776 ( rapid move to begin. )
F3.93701
G01 Z-0.00157
G04 P0 ( dwell for no time -- G64 should not smooth over this point )
F7.87402
X2.19376 Y-4.19776
X2.19376 Y-4.25976
X2.20976 Y-4.26676
X2.22776 Y-4.27076
X2.26776 Y-4.26976
X2.27076 Y-4.26776
X2.28176 Y-4.26576
X2.29376 Y-4.25976
X2.30176 Y-4.23976
X2.30176 Y-4.19776
X2.29876 Y-4.18176
X2.19376 Y-4.18176
X2.19376 Y-4.19776
G04 P0 ( dwell for no time -- G64 should not smooth over this point )
G00 Z0.05906 ( retract )

G00 X2.10276 Y-4.19776 ( rapid move to begin. )
F3.93701
G01 Z-0.00157
G04 P0 ( dwell for no time -- G64 should not smooth over this point )
F7.87402
X2.10276 Y-4.19776
X2.09276 Y-4.21176
X2.08976 Y-4.22976
X2.09276 Y-4.25076
X2.10176 Y-4.26276
X2.10176 Y-4.26476
X2.10476 Y-4.26676
X2.10476 Y-4.26876
X2.11576 Y-4.27476
X2.11876 Y-4.28076
X2.15876 Y-4.28076
X2.16276 Y-4.27776
X2.16576 Y-4.27776
X2.16676 Y-4.27576
X2.16976 Y-4.27576
X2.18176 Y-4.26476
X2.19376 Y-4.25976
X2.19376 Y-4.18176
X2.11876 Y-4.18176
X2.11776 Y-4.18576
X2.11076 Y-4.18976
X2.10976 Y-4.19176
X2.10776 Y-4.19176
X2.10676 Y-4.19376
X2.10476 Y-4.19376
X2.10276 Y-4.19776
G04 P0 ( dwell for no time -- G64 should not smooth over this point )
G00 Z0.05906 ( retract )

G00 X2.10276 Y-4.09776 ( rapid move to begin. )
F3.93701
G01 Z-0.00157
G04 P0 ( dwell for no time -- G64 should not smooth over this point )
F7.87402
X2.10276 Y-4.09776
X2.09276 Y-4.11176
X2.08976 Y-4.12976
X2.09276 Y-4.15076
X2.10176 Y-4.16276
X2.10176 Y-4.16476
X2.10476 Y-4.16676
X2.10476 Y-4.16876
X2.10676 Y-4.16876
X2.10776 Y-4.17076
X2.10976 Y-4.17076
X2.11076 Y-4.17276
X2.11776 Y-4.17676
X2.11876 Y-4.18176
X2.19376 Y-4.18176
X2.19376 Y-4.08776
X2.18876 Y-4.08676
X2.18876 Y-4.08376
X2.18576 Y-4.07976
X2.18376 Y-4.07276
X2.16976 Y-4.05676
X2.16576 Y-4.05776
X2.15876 Y-4.06376
X2.14976 Y-4.06576
X2.13876 Y-4.06576
X2.12976 Y-4.06376
X2.12576 Y-4.05976
X2.12076 Y-4.05776
X2.11376 Y-4.04876
X2.11176 Y-4.04176
X2.09476 Y-4.04176
X2.09376 Y-4.04876
X2.09676 Y-4.05276
X2.09876 Y-4.05976
X2.10576 Y-4.06576
X2.10576 Y-4.06776
X2.11276 Y-4.07476
X2.11676 Y-4.07576
X2.11876 Y-4.07876
X2.11776 Y-4.08576
X2.10976 Y-4.09176
X2.10776 Y-4.09176
X2.10676 Y-4.09376
X2.10476 Y-4.09376
X2.10276 Y-4.09776
G04 P0 ( dwell for no time -- G64 should not smooth over this point )
G00 Z0.05906 ( retract )

G00 X2.19376 Y-4.09776 ( rapid move to begin. )
F3.93701
G01 Z-0.00157
G04 P0 ( dwell for no time -- G64 should not smooth over this point )
F7.87402
X2.19376 Y-4.09776
X2.19376 Y-4.18176
X2.29876 Y-4.18176
X2.29876 Y-4.17576
X2.30176 Y-4.16476
X2.30176 Y-4.11476
X2.29776 Y-4.11476
X2.29376 Y-4.11176
X2.29276 Y-4.10776
X2.29076 Y-4.10676
X2.29076 Y-4.10476
X2.28876 Y-4.10376
X2.28776 Y-4.09976
X2.28576 Y-4.09876
X2.28176 Y-4.09176
X2.28276 Y-4.08476
X2.27076 Y-4.08176
X2.21076 Y-4.08276
X2.20776 Y-4.08476
X2.19376 Y-4.08776
X2.19376 Y-4.09776
G04 P0 ( dwell for no time -- G64 should not smooth over this point )
G00 Z0.05906 ( retract )

G00 X2.16976 Y-3.54776 ( rapid move to begin. )
F3.93701
G01 Z-0.00157
G04 P0 ( dwell for no time -- G64 should not smooth over this point )
F7.87402
X2.16976 Y-3.54776
X2.16976 Y-3.61776
X2.17076 Y-3.62276
X2.17576 Y-3.62876
X2.17576 Y-3.63076
X2.18376 Y-3.63476
X2.26576 Y-3.63476
X2.27276 Y-3.63076
X2.27276 Y-3.62876
X2.27676 Y-3.62476
X2.27876 Y-3.61776
X2.27876 Y-3.60876
X2.28276 Y-3.60476
X2.38776 Y-3.60476
X2.39176 Y-3.60876
X2.39176 Y-3.62876
X2.39376 Y-3.63576
X2.40276 Y-3.64476
X2.40976 Y-3.64676
X2.44576 Y-3.64576
X2.45376 Y-3.63976
X2.45776 Y-3.63276
X2.46276 Y-3.63176
X2.46276 Y-3.62876
X2.45676 Y-3.62276
X2.44776 Y-3.59576
X2.44776 Y-3.56676
X2.40376 Y-3.52276
X2.35576 Y-3.52276
X2.34676 Y-3.51276
X2.32976 Y-3.51276
X2.31876 Y-3.51676
X2.31476 Y-3.52176
X2.28176 Y-3.52176
X2.26776 Y-3.52876
X2.24576 Y-3.53276
X2.20276 Y-3.53276
X2.18276 Y-3.52876
X2.17576 Y-3.53276
X2.17576 Y-3.53476
X2.17076 Y-3.54076
X2.16976 Y-3.54776
G04 P0 ( dwell for no time -- G64 should not smooth over this point )
G00 Z0.05906 ( retract )

G00 X2.27776 Y-3.41976 ( rapid move to begin. )
F3.93701
G01 Z-0.00157
G04 P0 ( dwell for no time -- G64 should not smooth over this point )
F7.87402
X2.27776 Y-3.41976
X2.26176 Y-3.42676
X2.25276 Y-3.42776
X2.23976 Y-3.43476
X2.19476 Y-3.43476
X2.19376 Y-3.43876
X2.17876 Y-3.45276
X2.17276 Y-3.46976
X2.17076 Y-3.47176
X2.17076 Y-3.49476
X2.17276 Y-3.49676
X2.17876 Y-3.51376
X2.18576 Y-3.52076
X2.18476 Y-3.52976
X2.20276 Y-3.53276
X2.25476 Y-3.53176
X2.27376 Y-3.52676
X2.28176 Y-3.52176
X2.31476 Y-3.52176
X2.31876 Y-3.51676
X2.32976 Y-3.51276
X2.34676 Y-3.51276
X2.35576 Y-3.52276
X2.40376 Y-3.52276
X2.44776 Y-3.47876
X2.44776 Y-3.40976
X2.39376 Y-3.35576
X2.38476 Y-3.35576
X2.35876 Y-3.36476
X2.35676 Y-3.36676
X2.35276 Y-3.38176
X2.29976 Y-3.39876
X2.28176 Y-3.41776
X2.27776 Y-3.41976
G04 P0 ( dwell for no time -- G64 should not smooth over this point )
G00 Z0.05906 ( retract )

G00 X2.73676 Y-3.36976 ( rapid move to begin. )
F3.93701
G01 Z-0.00157
G04 P0 ( dwell for no time -- G64 should not smooth over this point )
F7.87402
X2.73676 Y-3.36976
X2.73676 Y-3.42076
X2.74676 Y-3.42376
X2.74676 Y-3.42576
X2.75176 Y-3.42976
X2.76576 Y-3.43376
X2.76976 Y-3.44676
X2.79576 Y-3.47276
X2.81676 Y-3.47276
X2.82476 Y-3.48076
X2.82476 Y-3.48576
X2.84176 Y-3.50276
X2.91176 Y-3.50276
X2.91176 Y-3.35576
X2.83276 Y-3.35576
X2.82476 Y-3.34776
X2.82476 Y-3.33376
X2.82076 Y-3.32976
X2.79176 Y-3.32976
X2.77176 Y-3.35076
X2.73876 Y-3.35076
X2.73676 Y-3.35276
X2.73676 Y-3.36976
G04 P0 ( dwell for no time -- G64 should not smooth over this point )
G00 Z0.05906 ( retract )

G00 X2.73676 Y-3.51676 ( rapid move to begin. )
F3.93701
G01 Z-0.00157
G04 P0 ( dwell for no time -- G64 should not smooth over this point )
F7.87402
X2.73676 Y-3.51676
X2.73676 Y-3.57176
X2.74676 Y-3.57176
X2.75076 Y-3.57676
X2.76576 Y-3.58076
X2.77176 Y-3.59876
X2.77576 Y-3.59676
X2.78076 Y-3.59676
X2.79176 Y-3.60376
X2.79776 Y-3.60476
X2.83676 Y-3.60476
X2.83976 Y-3.60676
X2.84176 Y-3.61476
X2.84376 Y-3.61576
X2.84576 Y-3.62176
X2.85876 Y-3.62676
X2.89476 Y-3.62576
X2.90176 Y-3.62176
X2.90676 Y-3.61276
X2.91176 Y-3.61176
X2.91176 Y-3.50276
X2.84176 Y-3.50276
X2.82476 Y-3.48576
X2.82476 Y-3.48076
X2.81676 Y-3.47276
X2.79576 Y-3.47276
X2.77176 Y-3.49776
X2.73876 Y-3.49776
X2.73676 Y-3.49976
X2.73676 Y-3.51676
G04 P0 ( dwell for no time -- G64 should not smooth over this point )
G00 Z0.05906 ( retract )

G00 X2.71576 Y-3.22176 ( rapid move to begin. )
F3.93701
G01 Z-0.00157
G04 P0 ( dwell for no time -- G64 should not smooth over this point )
F7.87402
X2.71576 Y-3.22176
X2.71576 Y-3.25376
X2.71276 Y-3.25376
X2.71276 Y-3.25576
X2.73376 Y-3.27676
X2.74676 Y-3.27676
X2.75076 Y-3.28176
X2.76576 Y-3.28576
X2.77476 Y-3.31276
X2.79176 Y-3.32976
X2.82076 Y-3.32976
X2.82476 Y-3.33376
X2.82476 Y-3.34776
X2.83276 Y-3.35576
X2.91176 Y-3.35576
X2.91176 Y-3.25576
X2.90676 Y-3.25476
X2.90276 Y-3.24776
X2.89876 Y-3.24576
X2.89676 Y-3.24276
X2.88976 Y-3.24076
X2.85376 Y-3.24176
X2.84776 Y-3.24676
X2.84576 Y-3.24676
X2.83876 Y-3.26176
X2.81276 Y-3.26276
X2.80876 Y-3.25876
X2.80976 Y-3.25376
X2.80876 Y-3.21476
X2.80376 Y-3.20776
X2.80176 Y-3.20776
X2.79576 Y-3.20276
X2.75676 Y-3.20176
X2.75176 Y-3.20276
X2.74576 Y-3.20776
X2.74376 Y-3.20776
X2.74076 Y-3.21276
X2.73376 Y-3.21376
X2.72776 Y-3.20876
X2.72576 Y-3.20476
X2.71976 Y-3.20176
X2.71176 Y-3.20176
X2.70976 Y-3.20476
X2.70976 Y-3.22076
X2.71576 Y-3.22176
G04 P0 ( dwell for no time -- G64 should not smooth over this point )
G00 Z0.05906 ( retract )

G00 X2.97776 Y-2.68676 ( rapid move to begin. )
F3.93701
G01 Z-0.00157
G04 P0 ( dwell for no time -- G64 should not smooth over this point )
F7.87402
X2.97776 Y-2.68676
X2.97276 Y-2.69576
X2.97176 Y-2.70976
X2.81876 Y-2.86276
X2.80476 Y-2.86376
X2.79676 Y-2.86776
X2.79376 Y-2.86776
X2.78176 Y-2.87976
X2.77876 Y-2.88876
X2.77576 Y-2.89276
X2.77576 Y-2.90876
X2.77876 Y-2.91276
X2.78176 Y-2.92176
X2.79176 Y-2.93176
X2.80076 Y-2.93476
X2.80476 Y-2.93776
X2.82076 Y-2.93776
X2.82276 Y-2.93576
X2.83476 Y-2.93176
X2.84476 Y-2.92176
X2.84976 Y-2.90876
X2.84976 Y-2.89676
X2.85676 Y-2.88876
X3.00376 Y-2.74176
X3.01776 Y-2.74076
X3.02176 Y-2.73776
X3.02476 Y-2.73776
X3.03076 Y-2.73476
X3.03476 Y-2.72976
X3.03676 Y-2.72976
X3.04176 Y-2.72476
X3.04676 Y-2.71176
X3.04676 Y-2.69576
X3.04176 Y-2.68276
X3.03676 Y-2.67776
X3.03476 Y-2.67776
X3.03076 Y-2.67276
X3.02176 Y-2.66976
X3.01776 Y-2.66676
X3.00176 Y-2.66676
X2.99776 Y-2.66976
X2.98876 Y-2.67276
X2.97876 Y-2.68276
X2.97776 Y-2.68676
G04 P0 ( dwell for no time -- G64 should not smooth over this point )
G00 Z0.05906 ( retract )

G00 X3.32976 Y-2.68176 ( rapid move to begin. )
F3.93701
G01 Z-0.00157
G04 P0 ( dwell for no time -- G64 should not smooth over this point )
F7.87402
X3.32976 Y-2.68176
X3.32776 Y-2.68176
X2.91976 Y-3.09076
X2.90476 Y-3.09176
X2.90076 Y-3.09476
X2.89776 Y-3.09476
X2.89176 Y-3.09776
X2.88176 Y-3.10776
X2.87676 Y-3.12076
X2.87676 Y-3.13676
X2.88176 Y-3.14976
X2.88676 Y-3.15376
X2.88676 Y-3.15576
X2.89176 Y-3.16076
X2.90576 Y-3.16576
X2.92176 Y-3.16576
X2.93176 Y-3.16076
X2.93876 Y-3.15976
X2.93976 Y-3.12476
X2.94176 Y-3.12376
X2.94176 Y-3.12076
X2.94676 Y-3.11576
X2.94676 Y-3.11376
X2.95176 Y-3.11176
X2.95376 Y-3.10876
X2.95676 Y-3.10876
X2.95776 Y-3.10676
X2.96676 Y-3.10476
X3.34976 Y-2.72076
X3.35876 Y-2.71776
X3.78376 Y-2.71776
X3.78676 Y-2.72076
X3.79976 Y-2.72476
X3.83076 Y-2.72476
X3.84376 Y-2.72076
X3.85376 Y-2.71276
X3.85176 Y-2.70876
X3.85176 Y-2.69076
X3.84676 Y-2.67776
X3.84176 Y-2.67276
X3.83976 Y-2.67276
X3.83576 Y-2.66776
X3.82676 Y-2.66476
X3.82276 Y-2.66176
X3.80676 Y-2.66176
X3.80276 Y-2.66476
X3.79376 Y-2.66776
X3.78576 Y-2.67576
X3.34176 Y-2.67576
X3.33276 Y-2.67776
X3.32976 Y-2.68176
G04 P0 ( dwell for no time -- G64 should not smooth over this point )
G00 Z0.05906 ( retract )

G00 X3.31176 Y-2.80876 ( rapid move to begin. )
F3.93701
G01 Z-0.00157
G04 P0 ( dwell for no time -- G64 should not smooth over this point )
F7.87402
X3.31176 Y-2.80876
X3.25576 Y-2.86376
X3.24576 Y-2.89676
X3.24376 Y-2.89876
X3.24476 Y-2.99276
X3.24576 Y-2.99876
X3.25076 Y-3.00776
X3.31076 Y-3.06776
X3.31276 Y-3.06776
X3.31876 Y-3.07276
X4.08676 Y-3.07476
X4.21876 Y-3.20776
X4.21876 Y-3.56376
X4.21076 Y-3.57176
X4.20476 Y-3.58476
X4.20476 Y-3.60076
X4.21276 Y-3.61576
X4.22076 Y-3.62376
X4.22976 Y-3.62676
X4.23376 Y-3.62976
X4.25076 Y-3.62976
X4.25476 Y-3.62676
X4.26376 Y-3.62376
X4.27376 Y-3.61376
X4.27676 Y-3.60476
X4.27976 Y-3.60076
X4.27876 Y-3.57976
X4.28076 Y-3.57576
X4.27676 Y-3.57376
X4.27476 Y-3.57076
X4.26576 Y-3.56676
X4.26476 Y-3.56476
X4.25876 Y-3.56276
X4.25676 Y-3.55476
X4.25676 Y-3.52176
X4.25876 Y-3.51276
X4.26176 Y-3.50876
X4.26176 Y-3.50576
X4.26376 Y-3.50476
X4.26376 Y-3.18376
X4.26276 Y-3.18076
X4.21376 Y-3.13176
X4.21176 Y-3.13176
X4.11176 Y-3.03076
X3.34376 Y-3.03076
X3.33276 Y-3.02676
X3.30676 Y-3.00076
X3.30676 Y-2.99876
X3.30376 Y-2.99576
X3.30176 Y-2.99576
X3.29076 Y-2.98476
X3.28776 Y-2.97576
X3.28776 Y-2.88876
X3.29076 Y-2.87976
X3.33376 Y-2.83676
X3.34576 Y-2.83276
X3.37276 Y-2.83276
X3.38176 Y-2.82776
X3.39476 Y-2.82576
X3.41576 Y-2.82576
X3.42376 Y-2.82776
X3.43176 Y-2.82776
X3.43576 Y-2.82576
X3.45276 Y-2.82576
X3.46276 Y-2.82976
X3.47476 Y-2.84376
X3.47776 Y-2.85476
X3.47776 Y-2.86076
X3.47976 Y-2.86276
X3.48076 Y-2.86876
X3.48976 Y-2.87776
X3.49476 Y-2.87776
X3.49676 Y-2.87976
X3.50276 Y-2.88076
X3.51776 Y-2.87776
X3.52776 Y-2.86876
X3.52876 Y-2.86176
X3.53076 Y-2.85976
X3.53076 Y-2.84676
X3.52876 Y-2.84476
X3.52776 Y-2.83776
X3.51776 Y-2.82876
X3.50076 Y-2.82576
X3.49076 Y-2.82176
X3.47176 Y-2.80176
X3.46476 Y-2.79976
X3.34576 Y-2.79876
X3.33676 Y-2.79476
X3.31876 Y-2.80076
X3.31176 Y-2.80876
G04 P0 ( dwell for no time -- G64 should not smooth over this point )
G00 Z0.05906 ( retract )

G00 X3.33976 Y-2.83576 ( rapid move to begin. )
F3.93701
G01 Z-0.00157
G04 P0 ( dwell for no time -- G64 should not smooth over this point )
F7.87402
X3.33976 Y-2.83576
X3.33376 Y-2.83676
X3.29076 Y-2.87976
X3.28776 Y-2.88876
X3.28776 Y-2.97576
X3.29076 Y-2.98476
X3.30176 Y-2.99576
X3.30376 Y-2.99576
X3.30676 Y-2.99876
X3.30676 Y-3.00076
X3.33276 Y-3.02676
X3.34376 Y-3.03076
X4.11176 Y-3.03076
X4.21176 Y-3.13176
X4.21376 Y-3.13176
X4.26276 Y-3.18076
X4.26376 Y-3.50476
X4.26176 Y-3.50576
X4.26176 Y-3.50876
X4.25876 Y-3.51276
X4.25676 Y-3.52176
X4.25676 Y-3.55476
X4.25876 Y-3.56276
X4.27476 Y-3.57076
X4.28076 Y-3.57676
X4.29276 Y-3.57576
X4.29676 Y-3.57276
X4.29976 Y-3.57276
X4.30576 Y-3.56976
X4.31576 Y-3.55976
X4.32076 Y-3.54676
X4.32076 Y-3.52976
X4.31576 Y-3.51676
X4.31176 Y-3.51476
X4.30676 Y-3.50876
X4.30576 Y-3.15876
X4.30076 Y-3.14976
X4.25676 Y-3.10676
X4.25576 Y-3.09976
X4.25776 Y-3.09576
X4.24276 Y-3.09076
X4.23376 Y-3.08176
X4.22976 Y-3.07376
X4.22776 Y-3.06276
X4.21376 Y-3.02276
X4.21176 Y-3.00876
X4.21176 Y-3.00076
X4.21376 Y-2.99376
X4.16276 Y-2.97676
X3.45576 Y-2.97676
X3.45076 Y-2.98076
X3.44076 Y-2.98376
X3.41276 Y-2.98476
X3.40276 Y-2.99576
X3.39676 Y-2.99776
X3.35676 Y-2.99776
X3.34776 Y-2.99376
X3.32476 Y-2.97076
X3.32276 Y-2.96676
X3.32076 Y-2.96076
X3.32076 Y-2.90276
X3.32276 Y-2.89676
X3.34776 Y-2.87076
X3.35676 Y-2.86676
X3.37876 Y-2.86676
X3.39176 Y-2.87776
X3.39676 Y-2.87776
X3.39876 Y-2.87976
X3.40676 Y-2.88076
X3.41276 Y-2.87976
X3.41476 Y-2.87776
X3.41976 Y-2.87776
X3.42976 Y-2.86676
X3.43276 Y-2.85476
X3.43276 Y-2.84276
X3.42976 Y-2.82776
X3.41576 Y-2.82576
X3.38676 Y-2.82676
X3.37676 Y-2.82976
X3.37276 Y-2.83276
X3.34576 Y-2.83276
X3.33976 Y-2.83576
G04 P0 ( dwell for no time -- G64 should not smooth over this point )
G00 Z0.05906 ( retract )

G00 X3.69776 Y-3.14076 ( rapid move to begin. )
F3.93701
G01 Z-0.00157
G04 P0 ( dwell for no time -- G64 should not smooth over this point )
F7.87402
X3.69776 Y-3.14076
X3.69276 Y-3.15076
X3.69176 Y-3.16476
X3.59276 Y-3.26276
X2.98576 Y-3.26276
X2.98276 Y-3.26076
X2.98176 Y-3.25376
X2.97776 Y-3.24976
X2.97776 Y-3.24776
X2.96876 Y-3.24176
X2.92876 Y-3.24176
X2.91976 Y-3.24776
X2.91576 Y-3.25476
X2.91176 Y-3.25576
X2.91176 Y-3.35576
X2.98876 Y-3.35576
X3.00276 Y-3.35076
X3.00676 Y-3.33676
X3.00976 Y-3.33376
X3.09076 Y-3.30676
X3.59576 Y-3.30676
X3.61376 Y-3.30076
X3.64176 Y-3.27276
X3.64176 Y-3.27076
X3.70376 Y-3.20976
X3.70576 Y-3.20076
X3.70776 Y-3.19976
X3.70776 Y-3.19676
X3.71376 Y-3.18876
X3.71776 Y-3.18776
X3.71976 Y-3.18476
X3.72276 Y-3.18476
X3.72376 Y-3.18276
X3.76076 Y-3.18276
X3.76476 Y-3.17076
X3.76776 Y-3.16676
X3.76776 Y-3.15076
X3.76576 Y-3.14876
X3.76176 Y-3.13676
X3.75176 Y-3.12676
X3.73876 Y-3.12176
X3.72176 Y-3.12176
X3.70876 Y-3.12676
X3.70376 Y-3.13176
X3.70376 Y-3.13376
X3.69876 Y-3.13776
X3.69776 Y-3.14076
G04 P0 ( dwell for no time -- G64 should not smooth over this point )
G00 Z0.05906 ( retract )

G00 X3.71376 Y-3.18976 ( rapid move to begin. )
F3.93701
G01 Z-0.00157
G04 P0 ( dwell for no time -- G64 should not smooth over this point )
F7.87402
X3.71376 Y-3.18976
X3.70776 Y-3.19676
X3.70776 Y-3.19976
X3.70576 Y-3.20076
X3.70376 Y-3.20976
X3.64176 Y-3.27076
X3.64176 Y-3.27276
X3.61376 Y-3.30076
X3.59576 Y-3.30676
X3.09076 Y-3.30676
X3.00976 Y-3.33376
X3.00676 Y-3.33676
X3.00276 Y-3.35076
X2.98876 Y-3.35576
X2.91176 Y-3.35576
X2.91176 Y-3.50276
X2.98076 Y-3.50276
X3.00776 Y-3.49376
X3.01176 Y-3.47876
X3.01376 Y-3.47676
X3.04976 Y-3.46576
X3.14776 Y-3.36676
X3.20476 Y-3.34776
X3.60076 Y-3.34776
X3.62176 Y-3.34076
X3.70276 Y-3.26076
X3.70776 Y-3.24576
X3.71876 Y-3.23476
X3.72176 Y-3.23476
X3.72276 Y-3.23276
X3.76076 Y-3.23276
X3.76176 Y-3.22676
X3.76776 Y-3.21576
X3.76776 Y-3.19976
X3.76176 Y-3.18876
X3.76076 Y-3.18276
X3.72376 Y-3.18276
X3.72276 Y-3.18476
X3.71976 Y-3.18476
X3.71776 Y-3.18776
X3.71376 Y-3.18976
G04 P0 ( dwell for no time -- G64 should not smooth over this point )
G00 Z0.05906 ( retract )

G00 X3.71376 Y-3.23976 ( rapid move to begin. )
F3.93701
G01 Z-0.00157
G04 P0 ( dwell for no time -- G64 should not smooth over this point )
F7.87402
X3.71376 Y-3.23976
X3.70776 Y-3.24576
X3.70276 Y-3.26076
X3.62376 Y-3.33976
X3.60076 Y-3.34776
X3.20476 Y-3.34776
X3.14776 Y-3.36676
X3.04976 Y-3.46576
X3.01376 Y-3.47676
X3.01176 Y-3.47876
X3.00776 Y-3.49376
X2.98076 Y-3.50276
X2.91176 Y-3.50276
X2.91176 Y-3.61176
X2.91776 Y-3.61476
X2.92076 Y-3.62176
X2.92876 Y-3.62576
X2.96376 Y-3.62676
X2.97676 Y-3.62176
X2.97676 Y-3.61976
X2.98176 Y-3.61376
X2.98276 Y-3.60676
X2.98576 Y-3.60476
X3.01376 Y-3.60476
X3.01976 Y-3.60376
X3.02876 Y-3.59876
X3.13576 Y-3.49176
X3.13576 Y-3.48976
X3.23476 Y-3.39176
X3.62676 Y-3.39076
X3.63276 Y-3.38576
X3.63476 Y-3.38576
X3.72476 Y-3.29476
X3.73876 Y-3.29376
X3.74676 Y-3.28976
X3.74976 Y-3.28976
X3.76176 Y-3.27776
X3.76476 Y-3.26876
X3.76776 Y-3.26476
X3.76776 Y-3.24876
X3.76476 Y-3.24476
X3.76076 Y-3.23276
X3.72276 Y-3.23276
X3.71376 Y-3.23976
G04 P0 ( dwell for no time -- G64 should not smooth over this point )
G00 Z0.05906 ( retract )

G00 X3.83976 Y-3.41576 ( rapid move to begin. )
F3.93701
G01 Z-0.00157
G04 P0 ( dwell for no time -- G64 should not smooth over this point )
F7.87402
X3.83976 Y-3.41576
X3.83476 Y-3.42076
X3.81776 Y-3.42076
X3.80876 Y-3.42276
X3.77576 Y-3.45576
X3.77376 Y-3.45576
X3.74576 Y-3.48476
X3.73176 Y-3.48576
X3.71876 Y-3.49076
X3.71376 Y-3.49576
X3.71376 Y-3.49776
X3.70876 Y-3.50176
X3.70576 Y-3.51076
X3.70276 Y-3.51476
X3.70276 Y-3.53076
X3.70576 Y-3.53476
X3.70876 Y-3.54376
X3.71876 Y-3.55376
X3.72776 Y-3.55676
X3.73176 Y-3.55976
X3.74876 Y-3.55976
X3.75276 Y-3.55676
X3.76176 Y-3.55376
X3.77176 Y-3.54376
X3.77476 Y-3.53476
X3.77776 Y-3.53076
X3.77876 Y-3.51676
X3.79476 Y-3.50076
X3.80176 Y-3.49976
X3.80476 Y-3.50176
X3.80576 Y-3.55276
X3.80176 Y-3.55676
X3.79276 Y-3.55776
X3.78676 Y-3.56276
X3.78476 Y-3.56276
X3.78076 Y-3.56976
X3.77976 Y-3.57576
X3.78076 Y-3.63276
X3.78476 Y-3.63976
X3.78676 Y-3.63976
X3.79276 Y-3.64476
X3.79776 Y-3.64576
X3.85976 Y-3.64576
X3.86676 Y-3.64376
X3.87576 Y-3.63676
X3.87876 Y-3.63676
X3.87876 Y-3.56576
X3.87376 Y-3.56476
X3.86476 Y-3.55776
X3.85576 Y-3.55676
X3.85176 Y-3.55276
X3.85176 Y-3.50576
X3.85776 Y-3.49976
X3.85776 Y-3.49776
X3.86476 Y-3.49176
X3.89076 Y-3.49276
X3.90876 Y-3.48576
X3.91476 Y-3.47976
X3.91476 Y-3.47776
X3.92176 Y-3.47176
X3.92676 Y-3.46176
X3.92676 Y-3.45876
X3.92976 Y-3.45476
X3.92976 Y-3.43376
X3.92776 Y-3.43176
X3.92776 Y-3.42876
X3.92476 Y-3.42476
X3.92176 Y-3.41576
X3.91576 Y-3.40976
X3.91376 Y-3.40976
X3.90776 Y-3.40276
X3.89976 Y-3.39876
X3.89676 Y-3.39876
X3.89076 Y-3.39476
X3.86976 Y-3.39476
X3.86376 Y-3.39876
X3.86076 Y-3.39876
X3.85276 Y-3.40276
X3.83976 Y-3.41576
G04 P0 ( dwell for no time -- G64 should not smooth over this point )
G00 Z0.05906 ( retract )

G00 X3.87876 Y-3.57776 ( rapid move to begin. )
F3.93701
G01 Z-0.00157
G04 P0 ( dwell for no time -- G64 should not smooth over this point )
F7.87402
X3.87876 Y-3.57776
X3.87876 Y-3.63676
X3.88276 Y-3.63776
X3.88876 Y-3.64376
X3.89576 Y-3.64576
X3.94676 Y-3.64676
X3.94876 Y-3.64976
X3.94876 Y-3.65476
X3.94476 Y-3.65876
X3.93976 Y-3.67176
X3.93976 Y-3.68876
X3.94476 Y-3.70176
X3.95476 Y-3.71176
X3.96676 Y-3.71576
X3.96876 Y-3.71776
X3.98476 Y-3.71676
X3.99276 Y-3.71276
X3.99576 Y-3.71276
X4.00776 Y-3.70176
X4.01076 Y-3.69276
X4.01376 Y-3.68876
X4.01376 Y-3.67176
X4.01076 Y-3.66776
X4.00776 Y-3.65876
X4.00376 Y-3.65476
X4.00376 Y-3.64976
X4.00576 Y-3.64676
X4.05676 Y-3.64576
X4.06376 Y-3.64376
X4.07076 Y-3.63776
X4.07476 Y-3.63676
X4.07476 Y-3.56576
X4.07076 Y-3.56476
X4.06176 Y-3.55776
X3.99476 Y-3.55676
X3.98776 Y-3.55876
X3.97876 Y-3.56576
X3.97376 Y-3.56576
X3.96576 Y-3.55876
X3.95776 Y-3.55676
X3.89576 Y-3.55676
X3.88876 Y-3.55876
X3.88276 Y-3.56476
X3.87876 Y-3.56576
X3.87876 Y-3.57776
G04 P0 ( dwell for no time -- G64 should not smooth over this point )
G00 Z0.05906 ( retract )

G00 X4.02276 Y-3.30876 ( rapid move to begin. )
F3.93701
G01 Z-0.00157
G04 P0 ( dwell for no time -- G64 should not smooth over this point )
F7.87402
X4.02276 Y-3.30876
X4.01776 Y-3.31776
X4.01776 Y-3.33376
X4.02076 Y-3.33776
X4.02076 Y-3.34076
X4.02376 Y-3.34676
X4.02876 Y-3.35076
X4.02876 Y-3.35276
X4.03376 Y-3.35776
X4.04676 Y-3.36276
X4.04876 Y-3.36576
X4.04876 Y-3.39876
X4.02976 Y-3.41776
X4.02976 Y-3.42076
X4.02376 Y-3.43376
X4.02476 Y-3.45776
X4.02676 Y-3.45976
X4.03076 Y-3.47176
X4.04476 Y-3.48576
X4.06176 Y-3.49276
X4.08776 Y-3.49176
X4.09476 Y-3.49776
X4.09476 Y-3.49976
X4.10076 Y-3.50576
X4.10076 Y-3.55276
X4.09876 Y-3.55576
X4.08776 Y-3.55776
X4.07976 Y-3.56476
X4.07476 Y-3.56576
X4.07476 Y-3.63676
X4.07976 Y-3.63776
X4.08776 Y-3.64476
X4.09276 Y-3.64576
X4.15976 Y-3.64476
X4.16876 Y-3.63876
X4.16876 Y-3.63676
X4.17276 Y-3.63276
X4.17376 Y-3.62776
X4.17276 Y-3.56976
X4.16776 Y-3.56276
X4.16576 Y-3.56276
X4.15976 Y-3.55776
X4.15176 Y-3.55676
X4.14776 Y-3.55276
X4.14776 Y-3.49476
X4.14576 Y-3.48776
X4.14076 Y-3.47876
X4.12176 Y-3.46076
X4.12076 Y-3.45876
X4.12176 Y-3.43376
X4.11976 Y-3.43176
X4.11976 Y-3.42876
X4.11676 Y-3.42476
X4.11376 Y-3.41576
X4.09576 Y-3.39876
X4.09576 Y-3.34076
X4.09476 Y-3.33476
X4.09276 Y-3.33276
X4.09276 Y-3.31776
X4.08576 Y-3.30376
X4.07676 Y-3.29476
X4.06776 Y-3.29176
X4.06376 Y-3.28876
X4.04676 Y-3.28876
X4.04276 Y-3.29176
X4.03976 Y-3.29176
X4.03376 Y-3.29476
X4.02376 Y-3.30476
X4.02276 Y-3.30876
G04 P0 ( dwell for no time -- G64 should not smooth over this point )
G00 Z0.05906 ( retract )

G00 X4.21876 Y-3.03576 ( rapid move to begin. )
F3.93701
G01 Z-0.00157
G04 P0 ( dwell for no time -- G64 should not smooth over this point )
F7.87402
X4.21876 Y-3.03576
X4.22776 Y-3.06276
X4.22776 Y-3.06776
X4.23376 Y-3.08176
X4.24276 Y-3.09076
X4.25576 Y-3.09476
X4.25776 Y-3.09676
X4.27276 Y-3.09576
X4.28576 Y-3.09076
X4.28676 Y-3.08776
X4.29076 Y-3.08476
X4.29576 Y-3.08476
X4.29876 Y-3.08676
X4.29976 Y-3.09276
X4.30376 Y-3.09676
X4.30376 Y-3.09876
X4.31276 Y-3.10476
X4.34776 Y-3.10576
X4.35276 Y-3.10476
X4.35876 Y-3.09976
X4.36076 Y-3.09976
X4.36376 Y-3.09376
X4.36876 Y-3.09076
X4.36876 Y-3.01176
X4.35976 Y-3.00376
X4.35976 Y-3.00176
X4.28476 Y-3.00176
X4.28276 Y-3.00476
X4.27976 Y-3.00476
X4.27076 Y-2.99476
X4.21376 Y-2.99476
X4.21176 Y-3.00076
X4.21276 Y-3.01776
X4.21876 Y-3.03576
G04 P0 ( dwell for no time -- G64 should not smooth over this point )
G00 Z0.05906 ( retract )

G00 X4.29776 Y-2.91776 ( rapid move to begin. )
F3.93701
G01 Z-0.00157
G04 P0 ( dwell for no time -- G64 should not smooth over this point )
F7.87402
X4.29776 Y-2.91776
X4.26876 Y-2.91876
X4.26576 Y-2.91676
X4.26576 Y-2.91476
X4.26076 Y-2.91476
X4.26076 Y-2.91676
X4.25076 Y-2.92676
X4.24476 Y-2.92876
X3.43476 Y-2.92876
X3.43376 Y-2.92676
X3.43076 Y-2.92676
X3.42776 Y-2.92376
X3.42576 Y-2.92376
X3.42276 Y-2.91976
X3.40776 Y-2.91676
X3.40176 Y-2.91776
X3.39976 Y-2.91976
X3.39476 Y-2.91976
X3.38576 Y-2.92876
X3.38476 Y-2.93476
X3.38276 Y-2.93676
X3.38176 Y-2.94576
X3.38576 Y-2.95976
X3.39476 Y-2.96876
X3.39976 Y-2.96976
X3.39976 Y-2.97176
X3.41276 Y-2.98476
X3.44076 Y-2.98376
X3.45076 Y-2.98076
X3.45576 Y-2.97676
X4.16276 Y-2.97676
X4.21376 Y-2.99476
X4.27076 Y-2.99476
X4.27976 Y-3.00476
X4.28276 Y-3.00476
X4.28476 Y-3.00176
X4.36976 Y-3.00176
X4.36976 Y-2.91176
X4.36376 Y-2.90876
X4.36076 Y-2.90176
X4.35276 Y-2.89776
X4.31776 Y-2.89676
X4.30476 Y-2.90176
X4.30476 Y-2.90376
X4.30076 Y-2.90776
X4.29976 Y-2.91476
X4.29776 Y-2.91776
G04 P0 ( dwell for no time -- G64 should not smooth over this point )
G00 Z0.05906 ( retract )

G00 X4.36976 Y-2.91776 ( rapid move to begin. )
F3.93701
G01 Z-0.00157
G04 P0 ( dwell for no time -- G64 should not smooth over this point )
F7.87402
X4.36976 Y-2.91776
X4.36976 Y-3.00176
X4.41676 Y-3.00176
X4.44376 Y-3.01076
X4.44576 Y-3.01276
X4.44976 Y-3.02776
X4.45276 Y-3.02876
X4.56376 Y-3.02876
X4.56776 Y-3.02376
X4.56976 Y-3.02376
X4.57476 Y-3.01876
X4.58476 Y-3.01376
X4.60276 Y-3.00876
X4.63576 Y-3.00776
X4.65776 Y-3.01176
X4.66276 Y-3.01476
X4.66376 Y-3.01876
X4.66876 Y-3.02276
X4.66876 Y-3.02576
X4.67076 Y-3.02676
X4.67076 Y-3.02976
X4.67276 Y-3.03076
X4.67376 Y-3.03376
X4.67376 Y-3.13776
X4.69176 Y-3.13776
X4.69376 Y-3.13076
X4.70076 Y-3.12176
X4.70276 Y-3.12176
X4.70976 Y-3.11576
X4.71876 Y-3.11376
X4.72976 Y-3.11376
X4.74076 Y-3.11676
X4.74276 Y-3.11976
X4.74476 Y-3.11976
X4.75176 Y-3.12576
X4.75276 Y-3.12976
X4.75676 Y-3.13476
X4.75676 Y-3.13776
X4.77476 Y-3.13676
X4.77476 Y-3.13176
X4.76976 Y-3.12076
X4.76276 Y-3.11476
X4.76276 Y-3.11276
X4.75476 Y-3.10476
X4.75076 Y-3.10276
X4.74976 Y-3.09576
X4.75476 Y-3.09076
X4.76376 Y-3.08676
X4.76376 Y-3.08476
X4.76576 Y-3.08376
X4.76576 Y-3.08176
X4.76776 Y-3.08076
X4.76776 Y-3.07876
X4.76976 Y-3.07776
X4.76976 Y-3.07576
X4.77176 Y-3.07476
X4.77576 Y-3.06776
X4.77876 Y-3.04976
X4.77576 Y-3.02876
X4.76876 Y-3.01976
X4.76876 Y-3.01776
X4.76676 Y-3.01676
X4.76676 Y-3.01476
X4.76376 Y-3.01276
X4.76376 Y-3.01076
X4.75276 Y-3.00476
X4.74976 Y-2.99876
X4.71076 Y-2.99876
X4.69576 Y-2.99176
X4.68676 Y-2.98176
X4.67976 Y-2.97976
X4.67576 Y-2.97676
X4.67276 Y-2.97676
X4.66176 Y-2.98276
X4.65076 Y-2.98476
X4.64776 Y-2.98676
X4.60776 Y-2.98776
X4.58676 Y-2.98276
X4.58276 Y-2.97976
X4.57576 Y-2.97776
X4.57476 Y-2.97576
X4.57176 Y-2.97476
X4.57176 Y-2.97276
X4.49476 Y-2.97376
X4.46976 Y-2.94876
X4.46776 Y-2.94876
X4.44576 Y-2.92576
X4.44176 Y-2.92376
X4.43976 Y-2.90976
X4.43576 Y-2.90176
X4.42776 Y-2.89776
X4.38676 Y-2.89776
X4.37976 Y-2.90176
X4.37476 Y-2.91076
X4.36976 Y-2.91176
X4.36976 Y-2.91776
G04 P0 ( dwell for no time -- G64 should not smooth over this point )
G00 Z0.05906 ( retract )

G00 X4.58376 Y-2.91476 ( rapid move to begin. )
F3.93701
G01 Z-0.00157
G04 P0 ( dwell for no time -- G64 should not smooth over this point )
F7.87402
X4.58376 Y-2.91476
X4.57376 Y-2.92876
X4.57376 Y-2.93376
X4.56976 Y-2.94676
X4.57376 Y-2.96376
X4.57376 Y-2.96976
X4.57176 Y-2.97176
X4.57276 Y-2.97576
X4.58676 Y-2.98276
X4.60776 Y-2.98776
X4.64776 Y-2.98676
X4.65076 Y-2.98476
X4.66176 Y-2.98276
X4.67376 Y-2.97676
X4.67376 Y-2.92276
X4.66876 Y-2.92076
X4.66376 Y-2.91076
X4.66176 Y-2.91076
X4.66076 Y-2.90876
X4.65876 Y-2.90876
X4.65776 Y-2.90676
X4.65576 Y-2.90676
X4.65476 Y-2.90476
X4.65276 Y-2.90476
X4.65176 Y-2.90276
X4.64476 Y-2.89876
X4.62176 Y-2.89476
X4.60176 Y-2.89976
X4.59776 Y-2.90376
X4.58976 Y-2.90776
X4.58776 Y-2.91076
X4.58576 Y-2.91076
X4.58376 Y-2.91476
G04 P0 ( dwell for no time -- G64 should not smooth over this point )
G00 Z0.05906 ( retract )

G00 X4.58476 Y-3.01476 ( rapid move to begin. )
F3.93701
G01 Z-0.00157
G04 P0 ( dwell for no time -- G64 should not smooth over this point )
F7.87402
X4.58476 Y-3.01476
X4.57476 Y-3.01876
X4.56976 Y-3.02376
X4.56776 Y-3.02376
X4.56376 Y-3.02876
X4.45276 Y-3.02876
X4.44976 Y-3.02776
X4.44576 Y-3.01276
X4.44376 Y-3.01076
X4.41676 Y-3.00176
X4.35976 Y-3.00176
X4.35976 Y-3.00376
X4.36876 Y-3.01176
X4.36876 Y-3.09076
X4.37476 Y-3.09176
X4.37876 Y-3.09876
X4.38676 Y-3.10476
X4.42276 Y-3.10576
X4.42776 Y-3.10476
X4.43376 Y-3.09976
X4.43576 Y-3.09976
X4.44076 Y-3.09076
X4.44176 Y-3.08576
X4.44476 Y-3.08376
X4.58276 Y-3.08376
X4.58676 Y-3.08776
X4.58676 Y-3.09276
X4.57376 Y-3.10376
X4.57076 Y-3.10976
X4.57176 Y-3.13676
X4.58976 Y-3.13776
X4.58976 Y-3.11376
X4.65876 Y-3.11376
X4.65876 Y-3.13776
X4.67376 Y-3.13776
X4.67376 Y-3.03376
X4.67276 Y-3.03076
X4.67076 Y-3.02976
X4.67076 Y-3.02676
X4.66876 Y-3.02576
X4.66876 Y-3.02276
X4.66376 Y-3.01876
X4.66076 Y-3.01276
X4.63576 Y-3.00776
X4.60276 Y-3.00876
X4.58476 Y-3.01476
G04 P0 ( dwell for no time -- G64 should not smooth over this point )
G00 Z0.05906 ( retract )

G00 X4.68376 Y-2.91476 ( rapid move to begin. )
F3.93701
G01 Z-0.00157
G04 P0 ( dwell for no time -- G64 should not smooth over this point )
F7.87402
X4.68376 Y-2.91476
X4.67876 Y-2.92176
X4.67376 Y-2.92276
X4.67376 Y-2.97676
X4.68676 Y-2.98176
X4.69576 Y-2.99176
X4.71076 Y-2.99876
X4.74976 Y-2.99876
X4.75176 Y-2.99276
X4.76376 Y-2.98676
X4.76376 Y-2.98476
X4.76576 Y-2.98376
X4.76576 Y-2.98176
X4.76776 Y-2.98076
X4.76776 Y-2.97876
X4.76976 Y-2.97776
X4.76976 Y-2.97576
X4.77176 Y-2.97476
X4.77576 Y-2.96776
X4.77876 Y-2.94976
X4.77576 Y-2.92876
X4.76876 Y-2.91976
X4.76876 Y-2.91776
X4.76676 Y-2.91676
X4.76676 Y-2.91476
X4.76376 Y-2.91276
X4.76376 Y-2.91076
X4.76176 Y-2.91076
X4.76076 Y-2.90876
X4.75876 Y-2.90876
X4.75776 Y-2.90676
X4.75576 Y-2.90676
X4.75476 Y-2.90476
X4.75276 Y-2.90476
X4.75176 Y-2.90276
X4.74476 Y-2.89876
X4.72176 Y-2.89476
X4.70176 Y-2.89976
X4.69476 Y-2.90576
X4.68976 Y-2.90776
X4.68776 Y-2.91076
X4.68576 Y-2.91076
X4.68376 Y-2.91476
G04 P0 ( dwell for no time -- G64 should not smooth over this point )
G00 Z0.05906 ( retract )

G00 X4.43576 Y-3.44676 ( rapid move to begin. )
F3.93701
G01 Z-0.00157
G04 P0 ( dwell for no time -- G64 should not smooth over this point )
F7.87402
X4.43576 Y-3.44676
X4.43176 Y-3.45576
X4.43176 Y-3.47176
X4.43676 Y-3.48476
X4.44476 Y-3.49276
X4.44476 Y-3.61976
X4.33576 Y-3.72976
X4.09176 Y-3.73076
X4.08376 Y-3.72276
X4.07876 Y-3.72176
X4.07676 Y-3.71976
X4.07076 Y-3.71776
X4.05376 Y-3.71776
X4.03976 Y-3.72376
X4.03576 Y-3.72776
X4.03576 Y-3.72976
X4.03076 Y-3.73376
X4.02776 Y-3.74276
X4.02476 Y-3.74676
X4.02476 Y-3.76276
X4.02776 Y-3.76676
X4.03076 Y-3.77576
X4.04076 Y-3.78576
X4.04976 Y-3.78876
X4.05376 Y-3.79176
X4.07076 Y-3.79176
X4.07476 Y-3.78876
X4.08376 Y-3.78576
X4.09176 Y-3.77776
X4.34476 Y-3.77776
X4.35076 Y-3.77676
X4.35676 Y-3.77176
X4.35876 Y-3.77176
X4.48576 Y-3.64476
X4.48576 Y-3.64276
X4.49076 Y-3.63676
X4.49176 Y-3.49276
X4.49976 Y-3.48476
X4.50276 Y-3.47576
X4.50576 Y-3.47176
X4.50576 Y-3.45576
X4.50276 Y-3.45176
X4.49976 Y-3.44276
X4.49276 Y-3.43576
X4.48976 Y-3.43276
X4.48076 Y-3.42976
X4.47676 Y-3.42676
X4.46076 Y-3.42676
X4.45676 Y-3.42976
X4.45376 Y-3.42976
X4.44776 Y-3.43276
X4.44376 Y-3.43776
X4.44176 Y-3.43776
X4.43676 Y-3.44276
X4.43576 Y-3.44676
G04 P0 ( dwell for no time -- G64 should not smooth over this point )
G00 Z0.05906 ( retract )

G00 X4.33076 Y-4.27876 ( rapid move to begin. )
F3.93701
G01 Z-0.00157
G04 P0 ( dwell for no time -- G64 should not smooth over this point )
F7.87402
X4.33076 Y-4.27876
X4.32776 Y-4.28076
X4.32576 Y-4.28476
X4.32176 Y-4.28576
X4.32176 Y-4.34976
X4.32576 Y-4.35076
X4.33276 Y-4.35976
X4.33276 Y-4.36176
X4.33576 Y-4.36276
X4.33876 Y-4.36676
X4.33776 Y-4.40676
X4.31376 Y-4.42976
X4.19176 Y-4.42976
X4.18676 Y-4.43076
X4.18076 Y-4.43576
X4.17876 Y-4.43576
X4.17376 Y-4.44276
X4.17276 Y-4.54276
X4.17076 Y-4.54576
X4.16676 Y-4.54676
X4.16676 Y-4.61376
X4.17576 Y-4.62276
X4.21776 Y-4.63676
X4.34676 Y-4.63676
X4.37276 Y-4.61076
X4.37276 Y-4.50976
X4.37076 Y-4.50776
X4.37076 Y-4.46676
X4.39576 Y-4.44176
X4.39576 Y-4.43976
X4.40276 Y-4.43076
X4.40276 Y-4.42476
X4.40476 Y-4.41976
X4.40476 Y-4.36676
X4.40776 Y-4.36276
X4.40976 Y-4.36276
X4.40976 Y-4.36076
X4.41276 Y-4.35876
X4.41276 Y-4.35676
X4.42176 Y-4.34476
X4.42476 Y-4.32676
X4.42476 Y-4.30876
X4.42176 Y-4.29076
X4.41276 Y-4.27876
X4.41276 Y-4.27676
X4.40976 Y-4.27476
X4.40976 Y-4.27276
X4.40776 Y-4.27276
X4.40676 Y-4.27076
X4.40476 Y-4.27076
X4.40376 Y-4.26876
X4.40176 Y-4.26876
X4.40076 Y-4.26676
X4.39876 Y-4.26676
X4.39776 Y-4.26476
X4.39076 Y-4.26076
X4.37676 Y-4.25876
X4.37276 Y-4.25676
X4.35276 Y-4.26076
X4.34476 Y-4.26676
X4.34276 Y-4.26676
X4.34176 Y-4.26876
X4.33976 Y-4.26876
X4.33876 Y-4.27076
X4.33676 Y-4.27076
X4.33576 Y-4.27276
X4.33376 Y-4.27276
X4.33076 Y-4.27876
G04 P0 ( dwell for no time -- G64 should not smooth over this point )
G00 Z0.05906 ( retract )

G00 X4.53476 Y-4.35176 ( rapid move to begin. )
F3.93701
G01 Z-0.00157
G04 P0 ( dwell for no time -- G64 should not smooth over this point )
F7.87402
X4.53476 Y-4.35176
X4.53176 Y-4.35876
X4.38576 Y-4.50276
X4.38176 Y-4.51076
X4.37976 Y-4.51176
X4.37276 Y-4.51076
X4.37276 Y-4.61076
X4.34676 Y-4.63676
X4.21776 Y-4.63676
X4.17576 Y-4.62276
X4.16676 Y-4.61376
X4.16676 Y-4.54676
X4.16076 Y-4.54476
X4.15976 Y-4.53976
X4.15276 Y-4.53176
X4.14376 Y-4.52876
X4.02176 Y-4.52876
X4.01676 Y-4.52976
X4.00976 Y-4.53376
X4.00976 Y-4.53576
X4.00476 Y-4.54176
X4.00376 Y-4.57976
X4.00176 Y-4.58276
X3.94376 Y-4.58376
X3.93876 Y-4.58576
X3.93276 Y-4.58576
X3.92476 Y-4.59276
X3.92276 Y-4.59276
X3.88676 Y-4.62876
X3.87676 Y-4.63276
X3.87276 Y-4.63776
X3.87076 Y-4.63776
X3.86576 Y-4.64276
X3.86076 Y-4.65576
X3.86076 Y-4.67276
X3.86476 Y-4.68076
X3.86476 Y-4.68376
X3.87076 Y-4.69076
X3.87276 Y-4.69076
X3.87676 Y-4.69576
X3.88276 Y-4.69876
X3.88576 Y-4.69876
X3.88976 Y-4.70176
X3.90576 Y-4.70176
X3.90976 Y-4.69876
X3.91876 Y-4.69576
X3.92876 Y-4.68576
X3.93276 Y-4.67476
X3.94376 Y-4.66376
X3.94576 Y-4.66376
X3.95676 Y-4.65176
X3.99976 Y-4.65076
X4.00376 Y-4.65476
X4.00476 Y-4.69276
X4.01076 Y-4.70076
X4.01276 Y-4.70076
X4.01676 Y-4.70476
X4.12676 Y-4.70676
X4.18276 Y-4.76476
X4.18276 Y-4.82576
X4.18476 Y-4.83276
X4.19376 Y-4.84176
X4.20176 Y-4.84376
X4.34676 Y-4.84276
X4.35276 Y-4.83776
X4.35476 Y-4.83776
X4.35976 Y-4.83076
X4.36176 Y-4.78976
X4.36476 Y-4.78776
X4.37976 Y-4.78576
X4.38476 Y-4.78176
X4.38876 Y-4.78076
X4.38976 Y-4.77876
X4.39176 Y-4.77876
X4.41276 Y-4.75776
X4.41276 Y-4.75576
X4.43376 Y-4.73576
X4.43376 Y-4.73376
X4.44076 Y-4.72576
X4.44076 Y-4.71976
X4.44276 Y-4.71476
X4.44376 Y-4.53876
X4.57776 Y-4.40476
X4.58776 Y-4.40076
X4.59976 Y-4.38876
X4.60376 Y-4.37676
X4.60376 Y-4.36076
X4.59876 Y-4.34776
X4.59376 Y-4.34276
X4.59176 Y-4.34276
X4.58776 Y-4.33776
X4.57876 Y-4.33476
X4.57476 Y-4.33176
X4.55876 Y-4.33176
X4.55476 Y-4.33476
X4.54576 Y-4.33776
X4.53576 Y-4.34776
X4.53476 Y-4.35176
G04 P0 ( dwell for no time -- G64 should not smooth over this point )
G00 Z0.05906 ( retract )

G00 X4.11776 Y-4.27876 ( rapid move to begin. )
F3.93701
G01 Z-0.00157
G04 P0 ( dwell for no time -- G64 should not smooth over this point )
F7.87402
X4.11776 Y-4.27876
X4.11776 Y-4.28776
X4.11576 Y-4.29076
X4.10976 Y-4.29176
X4.10276 Y-4.29576
X4.10176 Y-4.29776
X4.09976 Y-4.29776
X3.78176 Y-4.61676
X3.76676 Y-4.62276
X3.75576 Y-4.63376
X3.75576 Y-4.63676
X3.75076 Y-4.64576
X3.75076 Y-4.66276
X3.75376 Y-4.66676
X3.75676 Y-4.67576
X3.76676 Y-4.68576
X3.77976 Y-4.69076
X3.79676 Y-4.69076
X3.80976 Y-4.68576
X3.82076 Y-4.67276
X3.82076 Y-4.66976
X3.82476 Y-4.66176
X3.82576 Y-4.65076
X4.11076 Y-4.36576
X4.11776 Y-4.36476
X4.12876 Y-4.37576
X4.13576 Y-4.37776
X4.20676 Y-4.37776
X4.21276 Y-4.37676
X4.22076 Y-4.37076
X4.22076 Y-4.36876
X4.22376 Y-4.36676
X4.22076 Y-4.34576
X4.22076 Y-4.29076
X4.22376 Y-4.26976
X4.22176 Y-4.26876
X4.21876 Y-4.26276
X4.21676 Y-4.26276
X4.21276 Y-4.25876
X4.20676 Y-4.25776
X4.13576 Y-4.25776
X4.12876 Y-4.25976
X4.12676 Y-4.26276
X4.12376 Y-4.26376
X4.12376 Y-4.26576
X4.11876 Y-4.27176
X4.11776 Y-4.27876
G04 P0 ( dwell for no time -- G64 should not smooth over this point )
G00 Z0.05906 ( retract )

G00 X3.94676 Y-4.17876 ( rapid move to begin. )
F3.93701
G01 Z-0.00157
G04 P0 ( dwell for no time -- G64 should not smooth over this point )
F7.87402
X3.94676 Y-4.17876
X3.85676 Y-4.26676
X3.84976 Y-4.26576
X3.84776 Y-4.26176
X3.84476 Y-4.26076
X3.84276 Y-4.25776
X3.83476 Y-4.25576
X3.76376 Y-4.25576
X3.75776 Y-4.25676
X3.75376 Y-4.26076
X3.75176 Y-4.26076
X3.74676 Y-4.26876
X3.74976 Y-4.28276
X3.74976 Y-4.33776
X3.74676 Y-4.35176
X3.75076 Y-4.35876
X3.75776 Y-4.36376
X3.76376 Y-4.36476
X3.83476 Y-4.36476
X3.84276 Y-4.36276
X3.84476 Y-4.35976
X3.84776 Y-4.35876
X3.84976 Y-4.35376
X3.85176 Y-4.35276
X3.85476 Y-4.34376
X3.87276 Y-4.34076
X3.88176 Y-4.33576
X3.88276 Y-4.33376
X3.88476 Y-4.33376
X3.99376 Y-4.22476
X4.19976 Y-4.22476
X4.23876 Y-4.26376
X4.23876 Y-4.26876
X4.23676 Y-4.27176
X4.23276 Y-4.27476
X4.22776 Y-4.27476
X4.22376 Y-4.27276
X4.22176 Y-4.28076
X4.22076 Y-4.34576
X4.22376 Y-4.36376
X4.22776 Y-4.36176
X4.23276 Y-4.36176
X4.25276 Y-4.37476
X4.27276 Y-4.37876
X4.29476 Y-4.37276
X4.29576 Y-4.37076
X4.30976 Y-4.36276
X4.30976 Y-4.36076
X4.31176 Y-4.35976
X4.31676 Y-4.35076
X4.32176 Y-4.34976
X4.32176 Y-4.28576
X4.31676 Y-4.28476
X4.31176 Y-4.27576
X4.30976 Y-4.27476
X4.30976 Y-4.27276
X4.30776 Y-4.27276
X4.30476 Y-4.26876
X4.30476 Y-4.24876
X4.30176 Y-4.23676
X4.29976 Y-4.23576
X4.29576 Y-4.22776
X4.23576 Y-4.16776
X4.23376 Y-4.16776
X4.22476 Y-4.16076
X4.21476 Y-4.15876
X3.97776 Y-4.15876
X3.96576 Y-4.16176
X3.96476 Y-4.16376
X3.95676 Y-4.16776
X3.94676 Y-4.17876
G04 P0 ( dwell for no time -- G64 should not smooth over this point )
G00 Z0.05906 ( retract )

G00 X3.65776 Y-4.27676 ( rapid move to begin. )
F3.93701
G01 Z-0.00157
G04 P0 ( dwell for no time -- G64 should not smooth over this point )
F7.87402
X3.65776 Y-4.27676
X3.55476 Y-4.27676
X3.54776 Y-4.27276
X3.53076 Y-4.27276
X3.52676 Y-4.27576
X3.51776 Y-4.27876
X3.50776 Y-4.28876
X3.50376 Y-4.29976
X3.45876 Y-4.34376
X3.38476 Y-4.34376
X3.37476 Y-4.34676
X3.36776 Y-4.35476
X3.36576 Y-4.36176
X3.36576 Y-4.43576
X3.36776 Y-4.44276
X3.37476 Y-4.45076
X3.38476 Y-4.45376
X3.48576 Y-4.45376
X3.49876 Y-4.44876
X3.50376 Y-4.43576
X3.50476 Y-4.39076
X3.55076 Y-4.34476
X3.55476 Y-4.34276
X3.65776 Y-4.34276
X3.66576 Y-4.34976
X3.66576 Y-4.35176
X3.66976 Y-4.35576
X3.68976 Y-4.36376
X3.71276 Y-4.36376
X3.71476 Y-4.36176
X3.73176 Y-4.35576
X3.73876 Y-4.34876
X3.74676 Y-4.34976
X3.74976 Y-4.33776
X3.74976 Y-4.28276
X3.74676 Y-4.27076
X3.73876 Y-4.27176
X3.73176 Y-4.26476
X3.72176 Y-4.25976
X3.71876 Y-4.25976
X3.71276 Y-4.25576
X3.68976 Y-4.25576
X3.68576 Y-4.25876
X3.68276 Y-4.25876
X3.67876 Y-4.26176
X3.66976 Y-4.26476
X3.65776 Y-4.27676
G04 P0 ( dwell for no time -- G64 should not smooth over this point )
G00 Z0.05906 ( retract )

G00 X3.20876 Y-4.36376 ( rapid move to begin. )
F3.93701
G01 Z-0.00157
G04 P0 ( dwell for no time -- G64 should not smooth over this point )
F7.87402
X3.20876 Y-4.36376
X3.20576 Y-4.36576
X2.90676 Y-4.36576
X2.90376 Y-4.36376
X2.90276 Y-4.35676
X2.89776 Y-4.35076
X2.89776 Y-4.34876
X2.89076 Y-4.34476
X2.88576 Y-4.34376
X2.78376 Y-4.34376
X2.77876 Y-4.34476
X2.77176 Y-4.34876
X2.77176 Y-4.35076
X2.76676 Y-4.35676
X2.76576 Y-4.36176
X2.76576 Y-4.43576
X2.76776 Y-4.44276
X2.76976 Y-4.44376
X2.77176 Y-4.44876
X2.77876 Y-4.45276
X2.82376 Y-4.45376
X2.82776 Y-4.45776
X2.82776 Y-4.57276
X2.82476 Y-4.57676
X2.81776 Y-4.57976
X2.81276 Y-4.58976
X2.80676 Y-4.59676
X2.80476 Y-4.60076
X2.80376 Y-4.61176
X2.80076 Y-4.62176
X2.80076 Y-4.68776
X2.80476 Y-4.70776
X2.80876 Y-4.71476
X2.81076 Y-4.71576
X2.81076 Y-4.71776
X2.81276 Y-4.71876
X2.81576 Y-4.72576
X2.81776 Y-4.72676
X2.81776 Y-4.72876
X2.81976 Y-4.72876
X2.82176 Y-4.73176
X2.82376 Y-4.73176
X2.82476 Y-4.73376
X2.82676 Y-4.73376
X2.83876 Y-4.74276
X2.84976 Y-4.74376
X2.85976 Y-4.74676
X2.88376 Y-4.74276
X2.90376 Y-4.72876
X2.90376 Y-4.72676
X2.90676 Y-4.72476
X2.90676 Y-4.72276
X2.90876 Y-4.72176
X2.90876 Y-4.71976
X2.91776 Y-4.70776
X2.92176 Y-4.68776
X2.92176 Y-4.62176
X2.91676 Y-4.59876
X2.91476 Y-4.59776
X2.90676 Y-4.58376
X2.90376 Y-4.58176
X2.90376 Y-4.57976
X2.89676 Y-4.57676
X2.89376 Y-4.57276
X2.89376 Y-4.45176
X2.90176 Y-4.44276
X2.90276 Y-4.43576
X2.90476 Y-4.43276
X3.20576 Y-4.43176
X3.20876 Y-4.43376
X3.21076 Y-4.44276
X3.21276 Y-4.44376
X3.21476 Y-4.44876
X3.22176 Y-4.45276
X3.22676 Y-4.45376
X3.32876 Y-4.45376
X3.34076 Y-4.44876
X3.34276 Y-4.44376
X3.34476 Y-4.44276
X3.34676 Y-4.43576
X3.34676 Y-4.36176
X3.34476 Y-4.35476
X3.33776 Y-4.34676
X3.32876 Y-4.34376
X3.22676 Y-4.34376
X3.22176 Y-4.34476
X3.21476 Y-4.34876
X3.21476 Y-4.35076
X3.21076 Y-4.35476
X3.20876 Y-4.36376
G04 P0 ( dwell for no time -- G64 should not smooth over this point )
G00 Z0.05906 ( retract )

G00 X3.12076 Y-4.54276 ( rapid move to begin. )
F3.93701
G01 Z-0.00157
G04 P0 ( dwell for no time -- G64 should not smooth over this point )
F7.87402
X3.12076 Y-4.54276
X3.09276 Y-4.56976
X3.08776 Y-4.56976
X3.08376 Y-4.56676
X3.07276 Y-4.56576
X3.06276 Y-4.56276
X3.03876 Y-4.56676
X3.03476 Y-4.56876
X3.02776 Y-4.57476
X3.01776 Y-4.57976
X3.01776 Y-4.58176
X3.01576 Y-4.58276
X3.01276 Y-4.58976
X3.01076 Y-4.59076
X3.01076 Y-4.59276
X3.00876 Y-4.59376
X3.00476 Y-4.60076
X3.00376 Y-4.61176
X3.00076 Y-4.62176
X3.00076 Y-4.68776
X3.00476 Y-4.70776
X3.00876 Y-4.71476
X3.01076 Y-4.71576
X3.01076 Y-4.71776
X3.01276 Y-4.71876
X3.01576 Y-4.72576
X3.01776 Y-4.72676
X3.01776 Y-4.72876
X3.01976 Y-4.72876
X3.02176 Y-4.73176
X3.02376 Y-4.73176
X3.02476 Y-4.73376
X3.02676 Y-4.73376
X3.03876 Y-4.74276
X3.04976 Y-4.74376
X3.05976 Y-4.74676
X3.08376 Y-4.74276
X3.09076 Y-4.73676
X3.09576 Y-4.73476
X3.09776 Y-4.73176
X3.10276 Y-4.72976
X3.10376 Y-4.72676
X3.10676 Y-4.72476
X3.10676 Y-4.72276
X3.10876 Y-4.72176
X3.10876 Y-4.71976
X3.11076 Y-4.71876
X3.11076 Y-4.71676
X3.11776 Y-4.70776
X3.12176 Y-4.68776
X3.12176 Y-4.62176
X3.11976 Y-4.60976
X3.15976 Y-4.56976
X3.20076 Y-4.57076
X3.20376 Y-4.56676
X3.31876 Y-4.56676
X3.35176 Y-4.59976
X3.36376 Y-4.63576
X3.41676 Y-4.65276
X3.42576 Y-4.66176
X3.49176 Y-4.66176
X3.49376 Y-4.65576
X3.49976 Y-4.65376
X3.50976 Y-4.64376
X3.51276 Y-4.63476
X3.51576 Y-4.63076
X3.51576 Y-4.61376
X3.51276 Y-4.60976
X3.50976 Y-4.60076
X3.49976 Y-4.59076
X3.49376 Y-4.58776
X3.49076 Y-4.58776
X3.48676 Y-4.58476
X3.47276 Y-4.58376
X3.41876 Y-4.52876
X3.41676 Y-4.52876
X3.41076 Y-4.52376
X3.14776 Y-4.52276
X3.14176 Y-4.52376
X3.13576 Y-4.52876
X3.13376 Y-4.52876
X3.12076 Y-4.54276
G04 P0 ( dwell for no time -- G64 should not smooth over this point )
G00 Z0.05906 ( retract )

G00 X3.19976 Y-4.58376 ( rapid move to begin. )
F3.93701
G01 Z-0.00157
G04 P0 ( dwell for no time -- G64 should not smooth over this point )
F7.87402
X3.19976 Y-4.58376
X3.19976 Y-4.72676
X3.20076 Y-4.73176
X3.20576 Y-4.73776
X3.20576 Y-4.73976
X3.21276 Y-4.74476
X3.30376 Y-4.74576
X3.30876 Y-4.74476
X3.31476 Y-4.73976
X3.31676 Y-4.73976
X3.31676 Y-4.73776
X3.32176 Y-4.73176
X3.32276 Y-4.72576
X3.32576 Y-4.72376
X3.44976 Y-4.72376
X3.45776 Y-4.73176
X3.46676 Y-4.73476
X3.47076 Y-4.73776
X3.48676 Y-4.73776
X3.49076 Y-4.73476
X3.49976 Y-4.73176
X3.50476 Y-4.72676
X3.50976 Y-4.72176
X3.51276 Y-4.71276
X3.51576 Y-4.70876
X3.51576 Y-4.69176
X3.51276 Y-4.68776
X3.50976 Y-4.67876
X3.49976 Y-4.66876
X3.49376 Y-4.66676
X3.49176 Y-4.66176
X3.42576 Y-4.66176
X3.41676 Y-4.65276
X3.36376 Y-4.63576
X3.35176 Y-4.59976
X3.31876 Y-4.56676
X3.20376 Y-4.56676
X3.20076 Y-4.56976
X3.20176 Y-4.57976
X3.19976 Y-4.58376
G04 P0 ( dwell for no time -- G64 should not smooth over this point )
G00 Z0.05906 ( retract )

G00 X3.62976 Y-4.74976 ( rapid move to begin. )
F3.93701
G01 Z-0.00157
G04 P0 ( dwell for no time -- G64 should not smooth over this point )
F7.87402
X3.62976 Y-4.74976
X3.62676 Y-4.75676
X3.62676 Y-4.77276
X3.62976 Y-4.77776
X3.62976 Y-4.78076
X3.63176 Y-4.78476
X3.64176 Y-4.79476
X3.64876 Y-4.79676
X3.65076 Y-4.79876
X3.66976 Y-4.79976
X3.68176 Y-4.79476
X3.68576 Y-4.79076
X3.68576 Y-4.78876
X3.69076 Y-4.78476
X3.69676 Y-4.77276
X3.69676 Y-4.75676
X3.69076 Y-4.74476
X3.68576 Y-4.74076
X3.68576 Y-4.73876
X3.68176 Y-4.73476
X3.67676 Y-4.73376
X3.67476 Y-4.73176
X3.66876 Y-4.72976
X3.65376 Y-4.72976
X3.64876 Y-4.73276
X3.64576 Y-4.73276
X3.64176 Y-4.73476
X3.63176 Y-4.74476
X3.62976 Y-4.74976
G04 P0 ( dwell for no time -- G64 should not smooth over this point )
G00 Z0.05906 ( retract )

G00 X3.77876 Y-4.74976 ( rapid move to begin. )
F3.93701
G01 Z-0.00157
G04 P0 ( dwell for no time -- G64 should not smooth over this point )
F7.87402
X3.77876 Y-4.74976
X3.77576 Y-4.75676
X3.77576 Y-4.77276
X3.78076 Y-4.78476
X3.79076 Y-4.79476
X3.80276 Y-4.79976
X3.81876 Y-4.79976
X3.83076 Y-4.79476
X3.84076 Y-4.78476
X3.84576 Y-4.77276
X3.84576 Y-4.75676
X3.84076 Y-4.74476
X3.83076 Y-4.73476
X3.81876 Y-4.72976
X3.80276 Y-4.72976
X3.79076 Y-4.73476
X3.78076 Y-4.74476
X3.77876 Y-4.74976
G04 P0 ( dwell for no time -- G64 should not smooth over this point )
G00 Z0.05906 ( retract )

G00 X3.84676 Y-2.71876 ( rapid move to begin. )
F3.93701
G01 Z-0.00157
G04 P0 ( dwell for no time -- G64 should not smooth over this point )
F7.87402
X3.84676 Y-2.71876
X3.83076 Y-2.72476
X3.79976 Y-2.72476
X3.78676 Y-2.72076
X3.78376 Y-2.71776
X3.35876 Y-2.71776
X3.34976 Y-2.72076
X2.96676 Y-3.10476
X2.95776 Y-3.10676
X2.95676 Y-3.10876
X2.95376 Y-3.10876
X2.95176 Y-3.11176
X2.94676 Y-3.11376
X2.94676 Y-3.11576
X2.94176 Y-3.12076
X2.94176 Y-3.12376
X2.93976 Y-3.12476
X2.93876 Y-3.15976
X2.94176 Y-3.16076
X2.94476 Y-3.16476
X2.95776 Y-3.16976
X2.97476 Y-3.16976
X2.98776 Y-3.16476
X2.99276 Y-3.15976
X2.99276 Y-3.15776
X2.99776 Y-3.15376
X3.00076 Y-3.14776
X3.00076 Y-3.14476
X3.00376 Y-3.14076
X3.00476 Y-3.12676
X3.23376 Y-2.89776
X3.24076 Y-2.89676
X3.24476 Y-2.89876
X3.25576 Y-2.86376
X3.31876 Y-2.80076
X3.33876 Y-2.79476
X3.33876 Y-2.79076
X3.34476 Y-2.77276
X3.36376 Y-2.75376
X3.36776 Y-2.75176
X3.37376 Y-2.74976
X3.86376 Y-2.74976
X3.86776 Y-2.75376
X3.86976 Y-2.75376
X3.87576 Y-2.76076
X3.88176 Y-2.76076
X3.88376 Y-2.76276
X3.89676 Y-2.76276
X3.89876 Y-2.76076
X3.90476 Y-2.76076
X3.91376 Y-2.75176
X3.91376 Y-2.74976
X3.92076 Y-2.74576
X3.92076 Y-2.71676
X3.91576 Y-2.70076
X3.90576 Y-2.70276
X3.89876 Y-2.69876
X3.88176 Y-2.69876
X3.87776 Y-2.70176
X3.86876 Y-2.70476
X3.86076 Y-2.71276
X3.85376 Y-2.71176
X3.84676 Y-2.71876
G04 P0 ( dwell for no time -- G64 should not smooth over this point )
G00 Z0.05906 ( retract )

G00 X3.95576 Y-2.23676 ( rapid move to begin. )
F3.93701
G01 Z-0.00157
G04 P0 ( dwell for no time -- G64 should not smooth over this point )
F7.87402
X3.95576 Y-2.23676
X3.95276 Y-2.24476
X3.95276 Y-2.72676
X3.95476 Y-2.73276
X3.98576 Y-2.76376
X3.99476 Y-2.76676
X4.00876 Y-2.76876
X4.01176 Y-2.77176
X4.01576 Y-2.77276
X4.01676 Y-2.77576
X4.01976 Y-2.77776
X4.02276 Y-2.78476
X4.02376 Y-2.79776
X4.02176 Y-2.80676
X4.01976 Y-2.81076
X4.01676 Y-2.81276
X4.01676 Y-2.81476
X4.00876 Y-2.81976
X4.00076 Y-2.82176
X3.98676 Y-2.82076
X3.97676 Y-2.81576
X3.97076 Y-2.80676
X3.96576 Y-2.78376
X3.93276 Y-2.75076
X3.92376 Y-2.74876
X3.92176 Y-2.74576
X3.91376 Y-2.74976
X3.91376 Y-2.75176
X3.90476 Y-2.76076
X3.89876 Y-2.76076
X3.89676 Y-2.76276
X3.88376 Y-2.76276
X3.88176 Y-2.76076
X3.87576 Y-2.76076
X3.86976 Y-2.75376
X3.86776 Y-2.75376
X3.86376 Y-2.74976
X3.37376 Y-2.74976
X3.36376 Y-2.75376
X3.34476 Y-2.77276
X3.33876 Y-2.79076
X3.33976 Y-2.79676
X3.34576 Y-2.79876
X3.45876 Y-2.79876
X3.46976 Y-2.80076
X3.49076 Y-2.82176
X3.50076 Y-2.82576
X3.51776 Y-2.82876
X3.52076 Y-2.83276
X3.52276 Y-2.83276
X3.52876 Y-2.83976
X3.52876 Y-2.84476
X3.53076 Y-2.84676
X3.53076 Y-2.85976
X3.52876 Y-2.86176
X3.52776 Y-2.86876
X3.51776 Y-2.87776
X3.51276 Y-2.87776
X3.51076 Y-2.87976
X3.50476 Y-2.88076
X3.48976 Y-2.87776
X3.47976 Y-2.86676
X3.47476 Y-2.84376
X3.46276 Y-2.82976
X3.45276 Y-2.82576
X3.43576 Y-2.82576
X3.42976 Y-2.82776
X3.43276 Y-2.84276
X3.43176 Y-2.86076
X3.42976 Y-2.86276
X3.42876 Y-2.86876
X3.41976 Y-2.87776
X3.41476 Y-2.87776
X3.41276 Y-2.87976
X3.40676 Y-2.88076
X3.39876 Y-2.87976
X3.39676 Y-2.87776
X3.39176 Y-2.87776
X3.37876 Y-2.86676
X3.35676 Y-2.86676
X3.34776 Y-2.87076
X3.32476 Y-2.89376
X3.32076 Y-2.90276
X3.32076 Y-2.96076
X3.32476 Y-2.97076
X3.34776 Y-2.99376
X3.35676 Y-2.99776
X3.39676 Y-2.99776
X3.40276 Y-2.99576
X3.41276 Y-2.98576
X3.41276 Y-2.98376
X3.39976 Y-2.97176
X3.39976 Y-2.96976
X3.39476 Y-2.96876
X3.38576 Y-2.95976
X3.38176 Y-2.94576
X3.38276 Y-2.93676
X3.38476 Y-2.93476
X3.38576 Y-2.92876
X3.39476 Y-2.91976
X3.39976 Y-2.91976
X3.40176 Y-2.91776
X3.40776 Y-2.91676
X3.42276 Y-2.91976
X3.42576 Y-2.92376
X3.42776 Y-2.92376
X3.43076 Y-2.92676
X3.43376 Y-2.92676
X3.43476 Y-2.92876
X4.24476 Y-2.92876
X4.25076 Y-2.92676
X4.26076 Y-2.91676
X4.26076 Y-2.91376
X4.24776 Y-2.90076
X4.23776 Y-2.89776
X4.23676 Y-2.89576
X4.23276 Y-2.89476
X4.23176 Y-2.89176
X4.22876 Y-2.88976
X4.22576 Y-2.88276
X4.22176 Y-2.86276
X4.00876 Y-2.64976
X4.00576 Y-2.63276
X4.00576 Y-2.25276
X3.98976 Y-2.24376
X3.98076 Y-2.23176
X3.98076 Y-2.22976
X3.97176 Y-2.22176
X3.96876 Y-2.22176
X3.96576 Y-2.22576
X3.96376 Y-2.22576
X3.95576 Y-2.23676
G04 P0 ( dwell for no time -- G64 should not smooth over this point )
G00 Z0.05906 ( retract )

G00 X3.97976 Y-2.16476 ( rapid move to begin. )
F3.93701
G01 Z-0.00157
G04 P0 ( dwell for no time -- G64 should not smooth over this point )
F7.87402
X3.97976 Y-2.16476
X3.97676 Y-2.16676
X3.97476 Y-2.17076
X3.96976 Y-2.17176
X3.96976 Y-2.22176
X3.97176 Y-2.22176
X3.98076 Y-2.22976
X3.98076 Y-2.23176
X3.98976 Y-2.24376
X4.00576 Y-2.25276
X4.00576 Y-2.63276
X4.00876 Y-2.64976
X4.22176 Y-2.86276
X4.22576 Y-2.88276
X4.23176 Y-2.89376
X4.23976 Y-2.89876
X4.24776 Y-2.90076
X4.26076 Y-2.91476
X4.26476 Y-2.91476
X4.26576 Y-2.90776
X4.27276 Y-2.90476
X4.28376 Y-2.89376
X4.28876 Y-2.88076
X4.28876 Y-2.86476
X4.28376 Y-2.85176
X4.27876 Y-2.84676
X4.27676 Y-2.84676
X4.27276 Y-2.84176
X4.26676 Y-2.83876
X4.26376 Y-2.83876
X4.25976 Y-2.83576
X4.24576 Y-2.83476
X4.04376 Y-2.63176
X4.04376 Y-2.25976
X4.04676 Y-2.25576
X4.05776 Y-2.24976
X4.06076 Y-2.24376
X4.06276 Y-2.24276
X4.06376 Y-2.23876
X4.06976 Y-2.23576
X4.06976 Y-2.17176
X4.06376 Y-2.16876
X4.05876 Y-2.15876
X4.05676 Y-2.15876
X4.04376 Y-2.14876
X4.02176 Y-2.14276
X3.99876 Y-2.14776
X3.99776 Y-2.14976
X3.98676 Y-2.15576
X3.98476 Y-2.15876
X3.98276 Y-2.15876
X3.97976 Y-2.16476
G04 P0 ( dwell for no time -- G64 should not smooth over this point )
G00 Z0.05906 ( retract )

G00 X4.07976 Y-2.16476 ( rapid move to begin. )
F3.93701
G01 Z-0.00157
G04 P0 ( dwell for no time -- G64 should not smooth over this point )
F7.87402
X4.07976 Y-2.16476
X4.07676 Y-2.16676
X4.07476 Y-2.17076
X4.06976 Y-2.17176
X4.06976 Y-2.23576
X4.07476 Y-2.23676
X4.08176 Y-2.24576
X4.08176 Y-2.24776
X4.08576 Y-2.24976
X4.08776 Y-2.25276
X4.08976 Y-2.25276
X4.09176 Y-2.25576
X4.09376 Y-2.25576
X4.09676 Y-2.25976
X4.09676 Y-2.28576
X4.09376 Y-2.28876
X4.08976 Y-2.29676
X4.08976 Y-2.29976
X4.08676 Y-2.30376
X4.08676 Y-2.31976
X4.08876 Y-2.32176
X4.09276 Y-2.33376
X4.10276 Y-2.34376
X4.11576 Y-2.34876
X4.13276 Y-2.34876
X4.14576 Y-2.34376
X4.15076 Y-2.33876
X4.15076 Y-2.33676
X4.15576 Y-2.33276
X4.16076 Y-2.31976
X4.16076 Y-2.30376
X4.15676 Y-2.29576
X4.15676 Y-2.29276
X4.14376 Y-2.27876
X4.14376 Y-2.25976
X4.14676 Y-2.25576
X4.14876 Y-2.25576
X4.14976 Y-2.25376
X4.15876 Y-2.24876
X4.15876 Y-2.24676
X4.16176 Y-2.24476
X4.16176 Y-2.24276
X4.16376 Y-2.24176
X4.16376 Y-2.23976
X4.17076 Y-2.23076
X4.17376 Y-2.21276
X4.17376 Y-2.19476
X4.17076 Y-2.17676
X4.16376 Y-2.16776
X4.16376 Y-2.16576
X4.16176 Y-2.16476
X4.16176 Y-2.16276
X4.15876 Y-2.16076
X4.15876 Y-2.15876
X4.15676 Y-2.15876
X4.15576 Y-2.15676
X4.15376 Y-2.15676
X4.15276 Y-2.15476
X4.15076 Y-2.15476
X4.14976 Y-2.15276
X4.14776 Y-2.15276
X4.14676 Y-2.15076
X4.13976 Y-2.14676
X4.13476 Y-2.14676
X4.12176 Y-2.14276
X4.09876 Y-2.14776
X4.09176 Y-2.15376
X4.08676 Y-2.15576
X4.08476 Y-2.15876
X4.08276 Y-2.15876
X4.07976 Y-2.16476
G04 P0 ( dwell for no time -- G64 should not smooth over this point )
G00 Z0.05906 ( retract )

G00 X3.85476 Y-2.16476 ( rapid move to begin. )
F3.93701
G01 Z-0.00157
G04 P0 ( dwell for no time -- G64 should not smooth over this point )
F7.87402
X3.85476 Y-2.16476
X3.85476 Y-2.24476
X3.83076 Y-2.24476
X3.83076 Y-2.26076
X3.83376 Y-2.26276
X3.85876 Y-2.26276
X3.86576 Y-2.25976
X3.87076 Y-2.25476
X3.87376 Y-2.24776
X3.88076 Y-2.24676
X3.89276 Y-2.25576
X3.89476 Y-2.25576
X3.89576 Y-2.25776
X3.89776 Y-2.25776
X3.89876 Y-2.25976
X3.91076 Y-2.26176
X3.91476 Y-2.26576
X3.91376 Y-2.70076
X3.91576 Y-2.70076
X3.92076 Y-2.71676
X3.92076 Y-2.74576
X3.92376 Y-2.74876
X3.93276 Y-2.75076
X3.96576 Y-2.78376
X3.97076 Y-2.80676
X3.97676 Y-2.81576
X3.98076 Y-2.81676
X3.98376 Y-2.81976
X3.99176 Y-2.82176
X4.00576 Y-2.82076
X4.01576 Y-2.81576
X4.02276 Y-2.80376
X4.02376 Y-2.79076
X4.01976 Y-2.77776
X4.01676 Y-2.77576
X4.01576 Y-2.77276
X4.01176 Y-2.77176
X4.00876 Y-2.76876
X3.99476 Y-2.76676
X3.98576 Y-2.76376
X3.95476 Y-2.73276
X3.95276 Y-2.72676
X3.95276 Y-2.24476
X3.95476 Y-2.24176
X3.95476 Y-2.23776
X3.95976 Y-2.23176
X3.95976 Y-2.22976
X3.96976 Y-2.22176
X3.96976 Y-2.17176
X3.96376 Y-2.16876
X3.95876 Y-2.15876
X3.95676 Y-2.15876
X3.94376 Y-2.14876
X3.92176 Y-2.14276
X3.90076 Y-2.14676
X3.88076 Y-2.16076
X3.87376 Y-2.15976
X3.86976 Y-2.15176
X3.86576 Y-2.14776
X3.85876 Y-2.14476
X3.83376 Y-2.14476
X3.83076 Y-2.14676
X3.83076 Y-2.16376
X3.85476 Y-2.16476
G04 P0 ( dwell for no time -- G64 should not smooth over this point )
G00 Z0.05906 ( retract )

G00 X3.36276 Y-2.18976 ( rapid move to begin. )
F3.93701
G01 Z-0.00157
G04 P0 ( dwell for no time -- G64 should not smooth over this point )
F7.87402
X3.36276 Y-2.18976
X3.36076 Y-2.19876
X3.36076 Y-2.24776
X3.36376 Y-2.26376
X3.36776 Y-2.26176
X3.37276 Y-2.26176
X3.38676 Y-2.27376
X3.38676 Y-2.38576
X3.37276 Y-2.40076
X3.37276 Y-2.40376
X3.36876 Y-2.41176
X3.36876 Y-2.42876
X3.37376 Y-2.44176
X3.37876 Y-2.44676
X3.38076 Y-2.44676
X3.38476 Y-2.45176
X3.39376 Y-2.45476
X3.39776 Y-2.45776
X3.41376 Y-2.45776
X3.41776 Y-2.45476
X3.42676 Y-2.45176
X3.43676 Y-2.44176
X3.43976 Y-2.43276
X3.44276 Y-2.42876
X3.44276 Y-2.41176
X3.43976 Y-2.40776
X3.43676 Y-2.39876
X3.43376 Y-2.39576
X3.43376 Y-2.27376
X3.44876 Y-2.26076
X3.45776 Y-2.24976
X3.45776 Y-2.24676
X3.46376 Y-2.23476
X3.46376 Y-2.21176
X3.46176 Y-2.20976
X3.46176 Y-2.20676
X3.45476 Y-2.19176
X3.44076 Y-2.17776
X3.42376 Y-2.17176
X3.42176 Y-2.16976
X3.39876 Y-2.16976
X3.39676 Y-2.17176
X3.37976 Y-2.17776
X3.37276 Y-2.18476
X3.36776 Y-2.18476
X3.36376 Y-2.18276
X3.36276 Y-2.18976
G04 P0 ( dwell for no time -- G64 should not smooth over this point )
G00 Z0.05906 ( retract )

G00 X3.25776 Y-2.18976 ( rapid move to begin. )
F3.93701
G01 Z-0.00157
G04 P0 ( dwell for no time -- G64 should not smooth over this point )
F7.87402
X3.25776 Y-2.18976
X3.25876 Y-2.26476
X3.26276 Y-2.27176
X3.26476 Y-2.27176
X3.26876 Y-2.27576
X3.27576 Y-2.27776
X3.28476 Y-2.27776
X3.28876 Y-2.28176
X3.28876 Y-2.58276
X3.21476 Y-2.65776
X3.20076 Y-2.65876
X3.19676 Y-2.66176
X3.19376 Y-2.66176
X3.18776 Y-2.66476
X3.18376 Y-2.66976
X3.18176 Y-2.66976
X3.17676 Y-2.67476
X3.17176 Y-2.68776
X3.17176 Y-2.70376
X3.17576 Y-2.71176
X3.17576 Y-2.71476
X3.18776 Y-2.72776
X3.20076 Y-2.73276
X3.21676 Y-2.73276
X3.22976 Y-2.72776
X3.23476 Y-2.72276
X3.23476 Y-2.72076
X3.23976 Y-2.71676
X3.24276 Y-2.70776
X3.24576 Y-2.70376
X3.24676 Y-2.68976
X3.32876 Y-2.60976
X3.33376 Y-2.60076
X3.33476 Y-2.59476
X3.33476 Y-2.28176
X3.33876 Y-2.27776
X3.34776 Y-2.27776
X3.35476 Y-2.27576
X3.35876 Y-2.27176
X3.36076 Y-2.27176
X3.36076 Y-2.26976
X3.36376 Y-2.26676
X3.36376 Y-2.25976
X3.36076 Y-2.24776
X3.36076 Y-2.19876
X3.36376 Y-2.18676
X3.36376 Y-2.17976
X3.36076 Y-2.17676
X3.36076 Y-2.17476
X3.35876 Y-2.17476
X3.35276 Y-2.16976
X3.34776 Y-2.16876
X3.27576 Y-2.16876
X3.27076 Y-2.16976
X3.26476 Y-2.17476
X3.26276 Y-2.17476
X3.25876 Y-2.18276
X3.25776 Y-2.18976
G04 P0 ( dwell for no time -- G64 should not smooth over this point )
G00 Z0.05906 ( retract )

G00 X2.94876 Y-2.18976 ( rapid move to begin. )
F3.93701
G01 Z-0.00157
G04 P0 ( dwell for no time -- G64 should not smooth over this point )
F7.87402
X2.94876 Y-2.18976
X2.94776 Y-2.25176
X2.94976 Y-2.26176
X2.95076 Y-2.26376
X2.95476 Y-2.26176
X2.95976 Y-2.26176
X2.96476 Y-2.26576
X2.96576 Y-2.26876
X2.97176 Y-2.27076
X2.97376 Y-2.27376
X2.97376 Y-2.38576
X2.96076 Y-2.39876
X2.95776 Y-2.40476
X2.95776 Y-2.40776
X2.95476 Y-2.41176
X2.95476 Y-2.42876
X2.95776 Y-2.43276
X2.96076 Y-2.44176
X2.97076 Y-2.45176
X2.97976 Y-2.45476
X2.98376 Y-2.45776
X3.00076 Y-2.45776
X3.00476 Y-2.45476
X3.01376 Y-2.45176
X3.02376 Y-2.44176
X3.02676 Y-2.43276
X3.02976 Y-2.42876
X3.02976 Y-2.41176
X3.02676 Y-2.40776
X3.02476 Y-2.40076
X3.01976 Y-2.39576
X3.01976 Y-2.27376
X3.02176 Y-2.27076
X3.02776 Y-2.26876
X3.04276 Y-2.25376
X3.04876 Y-2.23676
X3.05076 Y-2.23476
X3.05076 Y-2.21176
X3.04876 Y-2.20976
X3.04276 Y-2.19276
X3.03376 Y-2.18376
X3.02776 Y-2.17776
X3.01076 Y-2.17176
X3.00876 Y-2.16976
X2.98276 Y-2.17076
X2.98076 Y-2.17276
X2.96576 Y-2.17776
X2.96476 Y-2.18076
X2.95976 Y-2.18476
X2.95476 Y-2.18476
X2.95076 Y-2.18276
X2.94876 Y-2.18976
G04 P0 ( dwell for no time -- G64 should not smooth over this point )
G00 Z0.05906 ( retract )

G00 X2.84376 Y-2.18976 ( rapid move to begin. )
F3.93701
G01 Z-0.00157
G04 P0 ( dwell for no time -- G64 should not smooth over this point )
F7.87402
X2.84376 Y-2.18976
X2.84476 Y-2.26476
X2.84876 Y-2.26876
X2.84876 Y-2.27076
X2.85476 Y-2.27376
X2.85576 Y-2.27576
X2.86276 Y-2.27776
X2.87076 Y-2.27776
X2.87476 Y-2.28176
X2.87476 Y-2.66376
X2.86276 Y-2.67676
X2.86276 Y-2.67976
X2.85876 Y-2.68776
X2.85876 Y-2.70376
X2.86376 Y-2.71676
X2.87476 Y-2.72776
X2.88776 Y-2.73276
X2.90376 Y-2.73276
X2.91676 Y-2.72776
X2.92176 Y-2.72276
X2.92176 Y-2.72076
X2.92676 Y-2.71676
X2.92976 Y-2.70776
X2.93276 Y-2.70376
X2.93276 Y-2.68776
X2.92976 Y-2.68376
X2.92676 Y-2.67476
X2.92176 Y-2.66976
X2.92176 Y-2.28176
X2.92576 Y-2.27776
X2.93476 Y-2.27776
X2.94176 Y-2.27576
X2.95076 Y-2.26676
X2.94776 Y-2.25176
X2.94776 Y-2.19476
X2.95076 Y-2.17976
X2.94176 Y-2.17076
X2.93476 Y-2.16876
X2.86276 Y-2.16876
X2.85776 Y-2.16976
X2.85176 Y-2.17476
X2.84976 Y-2.17476
X2.84976 Y-2.17676
X2.84476 Y-2.18276
X2.84376 Y-2.18976

G04 P0 ( dwell for no time -- G64 should not smooth over this point )
G00 Z0.787 ( retract )

M5 ( Spindle off. )
M9 ( Coolant off. )
M2 ( Program end. )

