( pcb2gcode 1.3.2 )
( Software-independent Gcode )

( This file uses 10 drill bit sizes. )
( Bit sizes: [0.4mm] [0.8mm] [0.8mm] [0.9mm] [1mm] [1.001mm] [1.016mm] [1.4mm] [1.501mm] [3.1mm] )

G94       (Millimeters per minute feed rate.)
G21       (Units == Millimeters.)
G91.1     (Incremental arc distance mode.)
G90       (Absolute coordinates.)
S12000     (RPM spindle speed.)

G00 Z20.00000 (Retract)
T1
M5      (Spindle stop.)
(MSG, Change tool bit to drill size 0.40000 mm)
M6      (Tool change.)
M0      (Temporary machine stop.)
M3      (Spindle on clockwise.)

G81 R1.50000 Z-2.70000 F200.00000 X9.77900 Y21.08200
X11.81100 Y22.86000
X14.16300 Y24.59100
X15.82900 Y27.33400
X22.21200 Y26.77100
X27.60100 Y27.92100
X29.87700 Y30.82500
X26.52300 Y34.42700
X24.55200 Y37.16100
X22.41300 Y37.33400
X21.46100 Y36.53300
X20.17500 Y34.00300
X16.15400 Y33.76100
X13.84300 Y34.29000
X17.02500 Y43.70600
X14.09700 Y44.45000
X26.16300 Y47.17300
X27.05400 Y48.15300
X29.44800 Y49.11700
X28.76300 Y51.00700
X31.11500 Y52.57800
X28.82900 Y54.86400
X35.05300 Y59.18600
X37.97300 Y62.23000
X34.16300 Y63.50000
X40.76700 Y56.89600
X43.05300 Y56.38800
X48.66600 Y51.54900
X52.05700 Y48.84400
X55.11800 Y50.16500
X54.73700 Y51.56200
X58.92800 Y50.80000
X53.54100 Y55.32600
X52.50900 Y56.46900
X51.19500 Y57.48800
X51.68900 Y61.46800
X50.71800 Y46.20600
X52.65300 Y45.13600
X54.87700 Y39.09100
X46.55100 Y39.09900
X41.54100 Y39.61100
X40.36900 Y39.52300
X37.85200 Y40.86100
X38.05300 Y42.85400
X40.50400 Y45.35200
X38.00800 Y46.55600
X34.79800 Y49.53000
X34.14100 Y39.95700
X34.10600 Y37.68000
X35.08200 Y37.10000
X34.77900 Y34.65900
X33.03700 Y35.17100
X32.78200 Y36.36700
X31.52700 Y38.63200
X30.74900 Y39.41000
X27.93800 Y41.77800
X37.25500 Y33.55200
X38.48100 Y34.56700
X39.41300 Y35.90400
X36.22600 Y30.79600
X37.16200 Y28.20100
X40.46300 Y28.81700
X42.58900 Y26.00000
X39.24300 Y22.22500
X38.60800 Y19.21500
X36.89300 Y19.15200
X41.40200 Y19.21500
X44.67400 Y19.64000
X50.41900 Y23.36800
X51.87600 Y19.96400
X32.89300 Y24.76500
X18.81500 Y18.84700
X15.74800 Y60.32500
X14.47800 Y65.40500

G00 Z20.00000 (Retract)
T2
M5      (Spindle stop.)
(MSG, Change tool bit to drill size 0.80000 mm)
M6      (Tool change.)
M0      (Temporary machine stop.)
M3      (Spindle on clockwise.)

G81 R1.50000 Z-2.70000 F200.00000 X43.33300 Y64.52000
X49.23300 Y66.92000
X49.48300 Y60.92000

G00 Z20.00000 (Retract)
T3
M5      (Spindle stop.)
(MSG, Change tool bit to drill size 0.80000 mm)
M6      (Tool change.)
M0      (Temporary machine stop.)
M3      (Spindle on clockwise.)

G81 R1.50000 Z-2.70000 F200.00000 X30.60700 Y26.67000
X35.48900 Y26.67000

G00 Z20.00000 (Retract)
T4
M5      (Spindle stop.)
(MSG, Change tool bit to drill size 0.90000 mm)
M6      (Tool change.)
M0      (Temporary machine stop.)
M3      (Spindle on clockwise.)

G81 R1.50000 Z-2.70000 F200.00000 X25.26300 Y16.54000
X27.76300 Y16.54000
X30.26300 Y16.54000
X32.76300 Y16.54000
X35.26300 Y16.54000
X37.76300 Y16.54000
X40.26300 Y16.54000
X42.76300 Y16.54000
X10.03300 Y48.38000
X10.03300 Y50.88000
X10.03300 Y53.38000
X10.03300 Y55.88000

G00 Z20.00000 (Retract)
T5
M5      (Spindle stop.)
(MSG, Change tool bit to drill size 1.00000 mm)
M6      (Tool change.)
M0      (Temporary machine stop.)
M3      (Spindle on clockwise.)

G81 R1.50000 Z-2.70000 F200.00000 X10.03300 Y25.44000
X10.03300 Y27.94000
X57.02300 Y44.49000
X57.02300 Y46.99000
X57.02300 Y53.34000
X57.02300 Y55.84000

G00 Z20.00000 (Retract)
T6
M5      (Spindle stop.)
(MSG, Change tool bit to drill size 1.00100 mm)
M6      (Tool change.)
M0      (Temporary machine stop.)
M3      (Spindle on clockwise.)

G81 R1.50000 Z-2.70000 F200.00000 X17.65300 Y24.44800
X17.65300 Y28.94800
X24.15500 Y28.94800
X24.15500 Y24.44800

G00 Z20.00000 (Retract)
T7
M5      (Spindle stop.)
(MSG, Change tool bit to drill size 1.01600 mm)
M6      (Tool change.)
M0      (Temporary machine stop.)
M3      (Spindle on clockwise.)

G81 R1.50000 Z-2.70000 F200.00000 X10.03300 Y34.29000
X10.03300 Y36.83000
X10.03300 Y39.37000
X10.03300 Y41.91000
X15.11300 Y40.64000
X17.65300 Y40.64000
X17.65300 Y38.10000
X17.65300 Y35.56000
X15.11300 Y35.56000
X15.11300 Y38.10000
X44.83100 Y34.03600
X47.37100 Y34.03600
X47.37100 Y31.49600
X47.37100 Y28.95600
X47.37100 Y26.41600
X44.83100 Y26.41600
X44.83100 Y28.95600
X44.83100 Y31.49600
X57.02300 Y30.48000
X59.56300 Y30.48000
X59.56300 Y27.94000
X59.56300 Y25.40000
X57.02300 Y25.40000
X57.02300 Y27.94000
X57.02300 Y33.02000
X59.56300 Y33.02000
X59.56300 Y35.56000
X57.02300 Y35.56000

G00 Z20.00000 (Retract)
T8
M5      (Spindle stop.)
(MSG, Change tool bit to drill size 1.40000 mm)
M6      (Tool change.)
M0      (Temporary machine stop.)
M3      (Spindle on clockwise.)

G81 R1.50000 Z-2.70000 F200.00000 X21.46300 Y66.04000
X26.54300 Y66.04000
X31.62300 Y66.04000
X36.70300 Y66.04000

G00 Z20.00000 (Retract)
T9
M5      (Spindle stop.)
(MSG, Change tool bit to drill size 1.50100 mm)
M6      (Tool change.)
M0      (Temporary machine stop.)
M3      (Spindle on clockwise.)

G81 R1.50000 Z-2.70000 F200.00000 X26.54300 Y59.43600
X41.78300 Y59.43600

G00 Z20.00000 (Retract)
T10
M5      (Spindle stop.)
(MSG, Change tool bit to drill size 3.10000 mm)
M6      (Tool change.)
M0      (Temporary machine stop.)
M3      (Spindle on clockwise.)

G81 R1.50000 Z-2.70000 F200.00000 X11.30300 Y17.78000
X57.02300 Y17.78000
X57.02300 Y63.50000
X11.30300 Y63.50000

G00 Z20.000 ( All done -- retract )

M5      (Spindle off.)
M9      (Coolant off.)
M2      (Program end.)

