( pcb2gcode 1.3.1 )
( Software-independent Gcode )

( This file uses 10 drill bit sizes. )
( Bit sizes: [0.5mm] [0.6mm] [0.698mm] [0.762mm] [0.8mm] [0.8mm] [0.9mm] [1mm] [1.016mm] [1.4mm] )

G94       (Millimeters per minute feed rate.)
G21       (Units == Millimeters.)
G91.1     (Incremental arc distance mode.)
G90       (Absolute coordinates.)
S12000     (RPM spindle speed.)

G00 Z20.00000 (Retract)
T1
M5      (Spindle stop.)
(MSG, Change tool bit to drill size 0.50000 mm)
M6      (Tool change.)
M0      (Temporary machine stop.)
M3      (Spindle on clockwise.)

G81 R1.50000 Z-2.70000 F200.00000 X9.00000 Y14.00000
X26.00000 Y6.50000
X36.64100 Y5.58800
X36.64100 Y7.57200
X48.65000 Y22.15000
X53.76100 Y21.56500
X58.00400 Y22.71900
X57.21500 Y29.00000
X57.50000 Y32.00000
X59.00000 Y35.25000
X56.90100 Y36.37700
X59.11000 Y39.14600
X57.50000 Y41.85000
X59.00000 Y43.00000
X51.00000 Y45.50000
X49.66000 Y45.40000
X44.61200 Y48.35300
X43.00000 Y43.50000
X38.41500 Y50.19500
X38.50000 Y52.50000
X36.00000 Y52.50000
X29.00000 Y52.50000
X28.09900 Y56.41300
X26.18600 Y55.47900
X23.50000 Y54.00000
X19.00000 Y52.25000
X17.00000 Y52.00000
X16.67800 Y47.27600
X19.00000 Y40.50000
X22.00000 Y40.50000
X16.18500 Y35.10400
X17.24800 Y33.72000
X21.81900 Y29.61100
X24.00000 Y31.50000
X30.00000 Y35.50000
X35.00000 Y36.00000
X30.25000 Y42.25000
X30.25000 Y43.50000
X30.25000 Y44.75000
X31.06100 Y58.73800
X38.50000 Y63.50000
X43.50000 Y56.50000
X48.55000 Y56.30000
X51.45000 Y56.50000
X53.55000 Y51.30000
X49.00000 Y63.50000
X60.75000 Y64.00000
X68.50000 Y45.50000
X65.00000 Y15.00000
X62.57700 Y13.03800
X11.50000 Y36.99300
X20.25000 Y66.25000

G00 Z20.00000 (Retract)
T2
M5      (Spindle stop.)
(MSG, Change tool bit to drill size 0.60000 mm)
M6      (Tool change.)
M0      (Temporary machine stop.)
M3      (Spindle on clockwise.)

G81 R1.50000 Z-2.70000 F200.00000 X28.78300 Y6.76300
X35.10100 Y15.50000
X59.80800 Y13.20300

G00 Z20.00000 (Retract)
T3
M5      (Spindle stop.)
(MSG, Change tool bit to drill size 0.69800 mm)
M6      (Tool change.)
M0      (Temporary machine stop.)
M3      (Spindle on clockwise.)

G81 R1.50000 Z-2.70000 F200.00000 X28.20300 Y3.94900
X32.00000 Y3.94600

G00 Z20.00000 (Retract)
T4
M5      (Spindle stop.)
(MSG, Change tool bit to drill size 0.76200 mm)
M6      (Tool change.)
M0      (Temporary machine stop.)
M3      (Spindle on clockwise.)

G81 R1.50000 Z-2.70000 F200.00000 X58.23000 Y59.00000
X59.50000 Y59.00000
X60.77000 Y59.00000
X62.04000 Y59.00000

G00 Z20.00000 (Retract)
T5
M5      (Spindle stop.)
(MSG, Change tool bit to drill size 0.80000 mm)
M6      (Tool change.)
M0      (Temporary machine stop.)
M3      (Spindle on clockwise.)

G81 R1.50000 Z-2.70000 F200.00000 X15.40000 Y4.20000
X15.15000 Y10.20000
X21.30000 Y6.60000

G00 Z20.00000 (Retract)
T6
M5      (Spindle stop.)
(MSG, Change tool bit to drill size 0.80000 mm)
M6      (Tool change.)
M0      (Temporary machine stop.)
M3      (Spindle on clockwise.)

G81 R1.50000 Z-2.70000 F200.00000 X21.55900 Y37.50000
X26.44100 Y37.50000

G00 Z20.00000 (Retract)
T7
M5      (Spindle stop.)
(MSG, Change tool bit to drill size 0.90000 mm)
M6      (Tool change.)
M0      (Temporary machine stop.)
M3      (Spindle on clockwise.)

G81 R1.50000 Z-2.70000 F200.00000 X68.50000 Y34.00000
X68.50000 Y36.50000
X68.50000 Y39.00000
X68.50000 Y41.50000

G00 Z20.00000 (Retract)
T8
M5      (Spindle stop.)
(MSG, Change tool bit to drill size 1.00000 mm)
M6      (Tool change.)
M0      (Temporary machine stop.)
M3      (Spindle on clockwise.)

G81 R1.50000 Z-2.70000 F200.00000 X28.50000 Y15.50000
X31.00000 Y15.50000
X38.38000 Y68.50000
X40.88000 Y68.50000
X48.88000 Y68.50000
X51.38000 Y68.50000

G00 Z20.00000 (Retract)

g0 x15.15 y10.2
g1 z-2.7
g1 x17.85
g1 z1.5

g0 x15.4 y4.2
g1 z-2.7
g1 x17.6
g1 z1.5

g0 x21.3 y6.6
g1 z-2.7
g1 y8.8

T9
M5      (Spindle stop.)
(MSG, Change tool bit to drill size 1.01600 mm)
M6      (Tool change.)
M0      (Temporary machine stop.)
M3      (Spindle on clockwise.)

G81 R1.50000 Z-2.70000 F200.00000 X13.96000 Y15.30000
X16.50000 Y15.30000
X19.04000 Y15.30000
X7.54000 Y45.00000
X7.54000 Y47.54000
X7.54000 Y50.08000
X5.00000 Y50.08000
X5.00000 Y47.54000
X5.00000 Y45.00000
X20.34000 Y69.00000
X22.88000 Y69.00000
X25.42000 Y69.00000
X27.96000 Y69.00000
X68.00000 Y22.58000
X70.54000 Y22.58000
X70.54000 Y20.04000
X70.54000 Y17.50000
X70.54000 Y14.96000
X68.00000 Y14.96000
X68.00000 Y17.50000
X68.00000 Y20.04000

G00 Z20.00000 (Retract)
T10
M5      (Spindle stop.)
(MSG, Change tool bit to drill size 1.40000 mm)
M6      (Tool change.)
M0      (Temporary machine stop.)
M3      (Spindle on clockwise.)

G81 R1.50000 Z-2.70000 F200.00000 X42.17000 Y6.75000
X47.25000 Y6.75000
X52.33000 Y6.75000
X57.41000 Y6.75000

G00 Z20.000 ( All done -- retract )

M5      (Spindle off.)
M9      (Coolant off.)
M2      (Program end.)

