( pcb2gcode 1.3.2 )
( Software-independent Gcode )

( This file uses 10 drill bit sizes. )
( Bit sizes: [0.4mm] [0.8mm] [0.8mm] [0.9mm] [1mm] [1.001mm] [1.016mm] [1.4mm] [1.501mm] [3.1mm] )

G94       (Millimeters per minute feed rate.)
G21       (Units == Millimeters.)
G91.1     (Incremental arc distance mode.)
G90       (Absolute coordinates.)
S12000     (RPM spindle speed.)

G00 Z20.00000 (Retract)
T1
M5      (Spindle stop.)
(MSG, Change tool bit to drill size 0.40000 mm)
M6      (Tool change.)
M0      (Temporary machine stop.)
M3      (Spindle on clockwise.)

G81 R1.50000 Z-2.70000 F200.00000 X4.06400 Y9.01700
X6.09600 Y10.79500
X8.44800 Y12.52600
X10.11400 Y15.26900
X16.49700 Y14.70700
X21.88600 Y15.85600
X24.16200 Y18.76000
X28.44800 Y18.92300
X30.22600 Y18.66900
X31.54000 Y21.48700
X32.76700 Y22.50200
X33.69800 Y23.83900
X34.65400 Y27.45800
X35.82600 Y27.54600
X32.13700 Y28.79600
X32.33800 Y30.78900
X34.78900 Y33.28700
X32.29300 Y34.49100
X29.08300 Y37.46500
X25.40000 Y40.51300
X23.11400 Y42.79900
X23.04800 Y38.94200
X23.73300 Y37.05200
X21.33900 Y36.08800
X20.44800 Y35.10800
X22.22300 Y29.71300
X25.03400 Y27.34500
X25.81200 Y26.56700
X28.42600 Y27.89200
X28.39100 Y25.61500
X29.36700 Y25.03500
X29.06400 Y22.59400
X27.32200 Y23.10600
X27.06600 Y24.30200
X20.80800 Y22.36200
X18.83700 Y25.09600
X16.69800 Y25.26900
X15.74600 Y24.46800
X14.46000 Y21.93800
X10.43900 Y21.69600
X8.12800 Y22.22500
X11.31000 Y31.64100
X8.38200 Y32.38500
X10.03300 Y48.26000
X8.76300 Y53.34000
X28.44800 Y51.43500
X32.25800 Y50.16500
X29.33800 Y47.12100
X35.05200 Y44.83100
X37.33800 Y44.32300
X42.95100 Y39.48400
X46.34200 Y36.77900
X49.40300 Y38.10000
X49.02200 Y39.49700
X53.21300 Y38.73500
X47.82600 Y43.26100
X45.97400 Y49.40300
X45.00300 Y34.14100
X46.93800 Y33.07100
X49.16200 Y27.02600
X40.83600 Y27.03400
X34.74800 Y16.75200
X36.87400 Y13.93500
X33.52800 Y10.16000
X32.89300 Y7.15000
X31.17800 Y7.08700
X35.68700 Y7.15000
X38.95900 Y7.57500
X44.70400 Y11.30300
X46.16100 Y7.89900
X31.44700 Y16.13600
X27.17800 Y12.70000
X13.10000 Y6.78200

G00 Z20.00000 (Retract)
T2
M5      (Spindle stop.)
(MSG, Change tool bit to drill size 0.80000 mm)
M6      (Tool change.)
M0      (Temporary machine stop.)
M3      (Spindle on clockwise.)

G81 R1.50000 Z-2.70000 F200.00000 X37.61800 Y52.45500
X43.51800 Y54.85500
X43.76800 Y48.85500

G00 Z20.00000 (Retract)
T3
M5      (Spindle stop.)
(MSG, Change tool bit to drill size 0.80000 mm)
M6      (Tool change.)
M0      (Temporary machine stop.)
M3      (Spindle on clockwise.)

G81 R1.50000 Z-2.70000 F200.00000 X24.89200 Y14.60500
X29.77400 Y14.60500

G00 Z20.00000 (Retract)
T4
M5      (Spindle stop.)
(MSG, Change tool bit to drill size 0.90000 mm)
M6      (Tool change.)
M0      (Temporary machine stop.)
M3      (Spindle on clockwise.)

G81 R1.50000 Z-2.70000 F200.00000 X19.54800 Y4.47500
X22.04800 Y4.47500
X24.54800 Y4.47500
X27.04800 Y4.47500
X29.54800 Y4.47500
X32.04800 Y4.47500
X34.54800 Y4.47500
X37.04800 Y4.47500
X4.31800 Y36.31500
X4.31800 Y38.81500
X4.31800 Y41.31500
X4.31800 Y43.81500

G00 Z20.00000 (Retract)
T5
M5      (Spindle stop.)
(MSG, Change tool bit to drill size 1.00000 mm)
M6      (Tool change.)
M0      (Temporary machine stop.)
M3      (Spindle on clockwise.)

G81 R1.50000 Z-2.70000 F200.00000 X4.31800 Y13.37500
X4.31800 Y15.87500
X51.30800 Y32.42500
X51.30800 Y34.92500
X51.30800 Y41.27500
X51.30800 Y43.77500

G00 Z20.00000 (Retract)
T6
M5      (Spindle stop.)
(MSG, Change tool bit to drill size 1.00100 mm)
M6      (Tool change.)
M0      (Temporary machine stop.)
M3      (Spindle on clockwise.)

G81 R1.50000 Z-2.70000 F200.00000 X11.93800 Y12.38300
X11.93800 Y16.88300
X18.44000 Y16.88300
X18.44000 Y12.38300

G00 Z20.00000 (Retract)
T7
M5      (Spindle stop.)
(MSG, Change tool bit to drill size 1.01600 mm)
M6      (Tool change.)
M0      (Temporary machine stop.)
M3      (Spindle on clockwise.)

G81 R1.50000 Z-2.70000 F200.00000 X4.31800 Y22.22500
X4.31800 Y24.76500
X4.31800 Y27.30500
X4.31800 Y29.84500
X9.39800 Y28.57500
X11.93800 Y28.57500
X11.93800 Y26.03500
X11.93800 Y23.49500
X9.39800 Y23.49500
X9.39800 Y26.03500
X39.11600 Y21.97100
X41.65600 Y21.97100
X41.65600 Y19.43100
X41.65600 Y16.89100
X41.65600 Y14.35100
X39.11600 Y14.35100
X39.11600 Y16.89100
X39.11600 Y19.43100
X51.30800 Y18.41500
X53.84800 Y18.41500
X53.84800 Y15.87500
X53.84800 Y13.33500
X51.30800 Y13.33500
X51.30800 Y15.87500
X51.30800 Y20.95500
X53.84800 Y20.95500
X53.84800 Y23.49500
X51.30800 Y23.49500

G00 Z20.00000 (Retract)
T8
M5      (Spindle stop.)
(MSG, Change tool bit to drill size 1.40000 mm)
M6      (Tool change.)
M0      (Temporary machine stop.)
M3      (Spindle on clockwise.)

G81 R1.50000 Z-2.70000 F200.00000 X15.74800 Y53.97500
X20.82800 Y53.97500
X25.90800 Y53.97500
X30.98800 Y53.97500

G00 Z20.00000 (Retract)
T9
M5      (Spindle stop.)
(MSG, Change tool bit to drill size 1.50100 mm)
M6      (Tool change.)
M0      (Temporary machine stop.)
M3      (Spindle on clockwise.)

G81 R1.50000 Z-2.70000 F200.00000 X20.82800 Y47.37100
X36.06800 Y47.37100

G00 Z20.00000 (Retract)
T10
M5      (Spindle stop.)
(MSG, Change tool bit to drill size 3.10000 mm)
M6      (Tool change.)
M0      (Temporary machine stop.)
M3      (Spindle on clockwise.)

G81 R1.50000 Z-2.70000 F200.00000 X5.58800 Y5.71500
X51.30800 Y5.71500
X51.30800 Y51.43500
X5.58800 Y51.43500

G00 Z20.000 ( All done -- retract )

M5      (Spindle off.)
M9      (Coolant off.)
M2      (Program end.)

