( pcb2gcode 1.3.1 )
( Software-independent Gcode )

G94 ( Inches per minute feed rate. )
G20 ( Units == INCHES. )

G90 ( Absolute coordinates. )
S12000 ( RPM spindle speed. )
G64 P0.00200 ( set maximum deviation from commanded toolpath )
F7.87402 ( Feedrate. )

F7.87402 ( Feedrate. )
M3 ( Spindle on clockwise. )
G04 P0 ( dwell for no time -- G64 should not smooth over this point )
G00 Z0.05906 ( retract )

G00 X2.50700 Y-2.13276 ( rapid move to begin. )
F3.93701
G01 Z-0.00157
G04 P0 ( dwell for no time -- G64 should not smooth over this point )
F7.87402
X2.50700 Y-2.13276
X2.50700 Y-2.45876
X2.50300 Y-2.48276
X2.49400 Y-2.51076
X2.48600 Y-2.52676
X2.47600 Y-2.53876
X2.47600 Y-2.54776
X2.46300 Y-2.56076
X2.42900 Y-2.56076
X2.42500 Y-2.56576
X2.34500 Y-2.56576
X2.34100 Y-2.57076
X2.33300 Y-2.57176
X2.33100 Y-2.57376
X2.32100 Y-2.57376
X2.29800 Y-2.59776
X1.96700 Y-2.59776
X1.96700 Y-1.96876
X1.96900 Y-1.96676
X2.50700 Y-1.96676
X2.50700 Y-2.13276
G04 P0 ( dwell for no time -- G64 should not smooth over this point )
G00 Z0.05906 ( retract )

G00 X2.81800 Y-2.17576 ( rapid move to begin. )
F3.93701
G01 Z-0.00157
G04 P0 ( dwell for no time -- G64 should not smooth over this point )
F7.87402
X2.81800 Y-2.17576
X2.81900 Y-2.26776
X2.80900 Y-2.26576
X2.80700 Y-2.26876
X2.80000 Y-2.26876
X2.79600 Y-2.26376
X2.73500 Y-2.26376
X2.73200 Y-2.25976
X2.72700 Y-2.25976
X2.72300 Y-2.26476
X2.70800 Y-2.26576
X2.69900 Y-2.26176
X2.69800 Y-2.25976
X2.69200 Y-2.25976
X2.50900 Y-2.44376
X2.50700 Y-2.44376
X2.50700 Y-1.96676
X2.81800 Y-1.96676
X2.81800 Y-2.17576
G04 P0 ( dwell for no time -- G64 should not smooth over this point )
G00 Z0.05906 ( retract )

G00 X2.91800 Y-2.17576 ( rapid move to begin. )
F3.93701
G01 Z-0.00157
G04 P0 ( dwell for no time -- G64 should not smooth over this point )
F7.87402
X2.91800 Y-2.17576
X2.91900 Y-2.27376
X2.91800 Y-2.36876
X2.91600 Y-2.36876
X2.82400 Y-2.27676
X2.82400 Y-2.26776
X2.81900 Y-2.26776
X2.81800 Y-1.96676
X2.91800 Y-1.96676
X2.91800 Y-2.17576
G04 P0 ( dwell for no time -- G64 should not smooth over this point )
G00 Z0.05906 ( retract )

G00 X3.01800 Y-2.17576 ( rapid move to begin. )
F3.93701
G01 Z-0.00157
G04 P0 ( dwell for no time -- G64 should not smooth over this point )
F7.87402
X3.01800 Y-2.17576
X3.01900 Y-2.23376
X3.01800 Y-2.41176
X3.01000 Y-2.41176
X3.00600 Y-2.41676
X2.99800 Y-2.41776
X2.99600 Y-2.41976
X2.98600 Y-2.41976
X2.97800 Y-2.42876
X2.97600 Y-2.42876
X2.91800 Y-2.37076
X2.91800 Y-1.96676
X3.01800 Y-1.96676
X3.01900 Y-2.13476
X3.01800 Y-2.17576
G04 P0 ( dwell for no time -- G64 should not smooth over this point )
G00 Z0.05906 ( retract )

G00 X2.84300 Y-2.29576 ( rapid move to begin. )
F3.93701
G01 Z-0.00157
G04 P0 ( dwell for no time -- G64 should not smooth over this point )
F7.87402
X2.84300 Y-2.29576
X2.91600 Y-2.36876
X2.91800 Y-2.36876
X2.91800 Y-2.37076
X2.97700 Y-2.42876
X2.97700 Y-2.48676
X2.96600 Y-2.49776
X2.95700 Y-2.49776
X2.95300 Y-2.50076
X2.94700 Y-2.50076
X2.94200 Y-2.50576
X2.89500 Y-2.50576
X2.89100 Y-2.51076
X2.88500 Y-2.51076
X2.88100 Y-2.51376
X2.87100 Y-2.51376
X2.86200 Y-2.52376
X2.80200 Y-2.52376
X2.79800 Y-2.52876
X2.79000 Y-2.52976
X2.78800 Y-2.53176
X2.77800 Y-2.53176
X2.75800 Y-2.55276
X2.66700 Y-2.55276
X2.66300 Y-2.55776
X2.65500 Y-2.55876
X2.65300 Y-2.56076
X2.64300 Y-2.56076
X2.61700 Y-2.58776
X2.50400 Y-2.58776
X2.50000 Y-2.58276
X2.49400 Y-2.58276
X2.49000 Y-2.57976
X2.48000 Y-2.57976
X2.46300 Y-2.56276
X2.46300 Y-2.55976
X2.47600 Y-2.54776
X2.47600 Y-2.53876
X2.48600 Y-2.52676
X2.49600 Y-2.50576
X2.50500 Y-2.47376
X2.50700 Y-2.44376
X2.50900 Y-2.44376
X2.69200 Y-2.25976
X2.69800 Y-2.25976
X2.69900 Y-2.26176
X2.70800 Y-2.26576
X2.72300 Y-2.26476
X2.72700 Y-2.25976
X2.73200 Y-2.25976
X2.73500 Y-2.26376
X2.79600 Y-2.26376
X2.80000 Y-2.26876
X2.80700 Y-2.26876
X2.80900 Y-2.26576
X2.81400 Y-2.26576
X2.81600 Y-2.26776
X2.82400 Y-2.26776
X2.82400 Y-2.27676
X2.84300 Y-2.29576
G04 P0 ( dwell for no time -- G64 should not smooth over this point )
G00 Z0.05906 ( retract )

G00 X3.27400 Y-2.17576 ( rapid move to begin. )
F3.93701
G01 Z-0.00157
G04 P0 ( dwell for no time -- G64 should not smooth over this point )
F7.87402
X3.27400 Y-2.17576
X3.27400 Y-2.38176
X3.27000 Y-2.38476
X3.26900 Y-2.39676
X3.26600 Y-2.40676
X3.25200 Y-2.40776
X3.24900 Y-2.41176
X3.01800 Y-2.41176
X3.01900 Y-2.27376
X3.01800 Y-1.96676
X3.31400 Y-1.96676
X3.31400 Y-1.96876
X3.28300 Y-1.99876
X3.28300 Y-2.00876
X3.28700 Y-2.01176
X3.28700 Y-2.01476
X3.28500 Y-2.01576
X3.28000 Y-2.02676
X3.27800 Y-2.04176
X3.27400 Y-2.04476
X3.27400 Y-2.17576
G04 P0 ( dwell for no time -- G64 should not smooth over this point )
G00 Z0.05906 ( retract )

G00 X3.52800 Y-2.19576 ( rapid move to begin. )
F3.93701
G01 Z-0.00157
G04 P0 ( dwell for no time -- G64 should not smooth over this point )
F7.87402
X3.52800 Y-2.19576
X3.52700 Y-2.32776
X3.40600 Y-2.32776
X3.40200 Y-2.33276
X3.39200 Y-2.33276
X3.39000 Y-2.32976
X3.37500 Y-2.32976
X3.29100 Y-2.41476
X3.28400 Y-2.41376
X3.27600 Y-2.40776
X3.26600 Y-2.40776
X3.26600 Y-2.40376
X3.26900 Y-2.39676
X3.27000 Y-2.38476
X3.27400 Y-2.38176
X3.27400 Y-2.04476
X3.27800 Y-2.04176
X3.28000 Y-2.02676
X3.28500 Y-2.01576
X3.28700 Y-2.01476
X3.28700 Y-2.01176
X3.28300 Y-2.00876
X3.28300 Y-1.99876
X3.31400 Y-1.96876
X3.31400 Y-1.96676
X3.52700 Y-1.96676
X3.52800 Y-2.19576
G04 P0 ( dwell for no time -- G64 should not smooth over this point )
G00 Z0.05906 ( retract )

G00 X3.73400 Y-2.19576 ( rapid move to begin. )
F3.93701
G01 Z-0.00157
G04 P0 ( dwell for no time -- G64 should not smooth over this point )
F7.87402
X3.73400 Y-2.19576
X3.73400 Y-2.38576
X3.73100 Y-2.39176
X3.72800 Y-2.39376
X3.72800 Y-2.40376
X3.69100 Y-2.44076
X3.68800 Y-2.44076
X3.58400 Y-2.33576
X3.57500 Y-2.33576
X3.57100 Y-2.33276
X3.56500 Y-2.33276
X3.56000 Y-2.32776
X3.52700 Y-2.32776
X3.52700 Y-1.96676
X3.73400 Y-1.96676
X3.73400 Y-2.19576
G04 P0 ( dwell for no time -- G64 should not smooth over this point )
G00 Z0.05906 ( retract )

G00 X3.94100 Y-2.19576 ( rapid move to begin. )
F3.93701
G01 Z-0.00157
G04 P0 ( dwell for no time -- G64 should not smooth over this point )
F7.87402
X3.94100 Y-2.19576
X3.94100 Y-2.32776
X3.81900 Y-2.32776
X3.81500 Y-2.33276
X3.80500 Y-2.33276
X3.80300 Y-2.32976
X3.78800 Y-2.32976
X3.73600 Y-2.38276
X3.73400 Y-2.38276
X3.73400 Y-1.96676
X3.94100 Y-1.96676
X3.94100 Y-2.19576
G04 P0 ( dwell for no time -- G64 should not smooth over this point )
G00 Z0.05906 ( retract )

G00 X4.06400 Y-2.40376 ( rapid move to begin. )
F3.93701
G01 Z-0.00157
G04 P0 ( dwell for no time -- G64 should not smooth over this point )
F7.87402
X4.06400 Y-2.40376
X4.08000 Y-2.41876
X4.07900 Y-2.43076
X4.07400 Y-2.43476
X4.07400 Y-2.51876
X4.04300 Y-2.54976
X4.03400 Y-2.54976
X4.03100 Y-2.55276
X4.02200 Y-2.55376
X4.01900 Y-2.55776
X3.87000 Y-2.55776
X3.86700 Y-2.56176
X3.80400 Y-2.56176
X3.80100 Y-2.55776
X3.77300 Y-2.55776
X3.77000 Y-2.55376
X3.76200 Y-2.55276
X3.75900 Y-2.54976
X3.74900 Y-2.54976
X3.69000 Y-2.49076
X3.69000 Y-2.44076
X3.72800 Y-2.40376
X3.72800 Y-2.39376
X3.73100 Y-2.39176
X3.73400 Y-2.38276
X3.73600 Y-2.38276
X3.78800 Y-2.32976
X3.80300 Y-2.32976
X3.80500 Y-2.33276
X3.81500 Y-2.33276
X3.81900 Y-2.32776
X3.97300 Y-2.32776
X3.97800 Y-2.33276
X3.98400 Y-2.33276
X3.98800 Y-2.33576
X3.99700 Y-2.33576
X4.06400 Y-2.40376
G04 P0 ( dwell for no time -- G64 should not smooth over this point )
G00 Z0.05906 ( retract )

G00 X4.20600 Y-2.19576 ( rapid move to begin. )
F3.93701
G01 Z-0.00157
G04 P0 ( dwell for no time -- G64 should not smooth over this point )
F7.87402
X4.20600 Y-2.19576
X4.18900 Y-2.21276
X4.18900 Y-2.22376
X4.18600 Y-2.22676
X4.18500 Y-2.23376
X4.18100 Y-2.23676
X4.18100 Y-2.38576
X4.17600 Y-2.38976
X4.17600 Y-2.39976
X4.17400 Y-2.40576
X4.15600 Y-2.40776
X4.15200 Y-2.41276
X4.09700 Y-2.41276
X4.09400 Y-2.41676
X4.07900 Y-2.41876
X3.99700 Y-2.33576
X3.98800 Y-2.33576
X3.98400 Y-2.33276
X3.97800 Y-2.33276
X3.97300 Y-2.32776
X3.94100 Y-2.32776
X3.94100 Y-1.96676
X4.31500 Y-1.96676
X4.31500 Y-2.08776
X4.20600 Y-2.19576
G04 P0 ( dwell for no time -- G64 should not smooth over this point )
G00 Z0.05906 ( retract )

G00 X4.50800 Y-2.38376 ( rapid move to begin. )
F3.93701
G01 Z-0.00157
G04 P0 ( dwell for no time -- G64 should not smooth over this point )
F7.87402
X4.50800 Y-2.38376
X4.51100 Y-2.39276
X4.51600 Y-2.40076
X4.51600 Y-2.40376
X4.51800 Y-2.40476
X4.52300 Y-2.41476
X4.52700 Y-2.41776
X4.52800 Y-2.42176
X4.46300 Y-2.48676
X4.45400 Y-2.48676
X4.45100 Y-2.48976
X4.44200 Y-2.49076
X4.43900 Y-2.49476
X4.27900 Y-2.49476
X4.27600 Y-2.49076
X4.26800 Y-2.48976
X4.26500 Y-2.48676
X4.25500 Y-2.48676
X4.17400 Y-2.40576
X4.17600 Y-2.39976
X4.17600 Y-2.38976
X4.18100 Y-2.38576
X4.18100 Y-2.23676
X4.18500 Y-2.23376
X4.18600 Y-2.22676
X4.18900 Y-2.22376
X4.18900 Y-2.21276
X4.31400 Y-2.08776
X4.31600 Y-2.08776
X4.48500 Y-2.25676
X4.48500 Y-2.26676
X4.48900 Y-2.27276
X4.48900 Y-2.27776
X4.49300 Y-2.28076
X4.49300 Y-2.32276
X4.49800 Y-2.32676
X4.50000 Y-2.35576
X4.50800 Y-2.38376
G04 P0 ( dwell for no time -- G64 should not smooth over this point )
G00 Z0.05906 ( retract )

G00 X4.38500 Y-2.57376 ( rapid move to begin. )
F3.93701
G01 Z-0.00157
G04 P0 ( dwell for no time -- G64 should not smooth over this point )
F7.87402
X4.38500 Y-2.57376
X4.38400 Y-2.88476
X4.37100 Y-2.89776
X4.36800 Y-2.89776
X4.33400 Y-2.86376
X4.33500 Y-2.63676
X4.33400 Y-2.49476
X4.38400 Y-2.49476
X4.38500 Y-2.57376
G04 P0 ( dwell for no time -- G64 should not smooth over this point )
G00 Z0.05906 ( retract )

G00 X4.33500 Y-2.57376 ( rapid move to begin. )
F3.93701
G01 Z-0.00157
G04 P0 ( dwell for no time -- G64 should not smooth over this point )
F7.87402
X4.33500 Y-2.57376
X4.33400 Y-2.86176
X4.33200 Y-2.86176
X4.28400 Y-2.81376
X4.28500 Y-2.63676
X4.28400 Y-2.49476
X4.33400 Y-2.49476
X4.33500 Y-2.57376
G04 P0 ( dwell for no time -- G64 should not smooth over this point )
G00 Z0.05906 ( retract )

G00 X4.28500 Y-2.57376 ( rapid move to begin. )
F3.93701
G01 Z-0.00157
G04 P0 ( dwell for no time -- G64 should not smooth over this point )
F7.87402
X4.28500 Y-2.57376
X4.28400 Y-2.81176
X4.28200 Y-2.81176
X4.23100 Y-2.75976
X4.22200 Y-2.75976
X4.22000 Y-2.75776
X4.21100 Y-2.75676
X4.20700 Y-2.75176
X4.13900 Y-2.75176
X4.13300 Y-2.74576
X4.13300 Y-2.73676
X4.12800 Y-2.72876
X4.12600 Y-2.71476
X4.12200 Y-2.71176
X4.12200 Y-2.58176
X4.11800 Y-2.57876
X4.11700 Y-2.57176
X4.11400 Y-2.56876
X4.11400 Y-2.55776
X4.07400 Y-2.51876
X4.07400 Y-2.43476
X4.07900 Y-2.43076
X4.08000 Y-2.41876
X4.09400 Y-2.41676
X4.09700 Y-2.41276
X4.15200 Y-2.41276
X4.15600 Y-2.40776
X4.17500 Y-2.40576
X4.25500 Y-2.48676
X4.26500 Y-2.48676
X4.26800 Y-2.48976
X4.27600 Y-2.49076
X4.27900 Y-2.49476
X4.28400 Y-2.49476
X4.28500 Y-2.57376
G04 P0 ( dwell for no time -- G64 should not smooth over this point )
G00 Z0.05906 ( retract )

G00 X4.12200 Y-2.67976 ( rapid move to begin. )
F3.93701
G01 Z-0.00157
G04 P0 ( dwell for no time -- G64 should not smooth over this point )
F7.87402
X4.12200 Y-2.67976
X4.12200 Y-2.71176
X4.12600 Y-2.71476
X4.12800 Y-2.72876
X4.13300 Y-2.73676
X4.13300 Y-2.74576
X4.13900 Y-2.75076
X4.13900 Y-2.75376
X4.10300 Y-2.78976
X4.09400 Y-2.78976
X4.09100 Y-2.79276
X4.08200 Y-2.79376
X4.07900 Y-2.79776
X3.98900 Y-2.79776
X3.98500 Y-2.80276
X3.97100 Y-2.80576
X3.93500 Y-2.76976
X3.93500 Y-2.76676
X3.93800 Y-2.76376
X3.93900 Y-2.75576
X3.94100 Y-2.75476
X3.94100 Y-2.74876
X3.93900 Y-2.74076
X3.93500 Y-2.73776
X3.93500 Y-2.66276
X3.93100 Y-2.65976
X3.93000 Y-2.65276
X3.92700 Y-2.64976
X3.92700 Y-2.64576
X3.93100 Y-2.64276
X3.93200 Y-2.63576
X3.93500 Y-2.63276
X3.93500 Y-2.63076
X3.86700 Y-2.56376
X3.86700 Y-2.56076
X3.87000 Y-2.55776
X4.01900 Y-2.55776
X4.02200 Y-2.55376
X4.03100 Y-2.55276
X4.03400 Y-2.54976
X4.04300 Y-2.54976
X4.07300 Y-2.51876
X4.07500 Y-2.51876
X4.11400 Y-2.55776
X4.11400 Y-2.56876
X4.11700 Y-2.57176
X4.11800 Y-2.57876
X4.12200 Y-2.58176
X4.12200 Y-2.67976
G04 P0 ( dwell for no time -- G64 should not smooth over this point )
G00 Z0.05906 ( retract )

G00 X3.93500 Y-2.68776 ( rapid move to begin. )
F3.93701
G01 Z-0.00157
G04 P0 ( dwell for no time -- G64 should not smooth over this point )
F7.87402
X3.93500 Y-2.68776
X3.93500 Y-2.73776
X3.93900 Y-2.74076
X3.94100 Y-2.74876
X3.94100 Y-2.75476
X3.93900 Y-2.75576
X3.93800 Y-2.76376
X3.93500 Y-2.76676
X3.93500 Y-2.76976
X3.97100 Y-2.80476
X3.97100 Y-2.80776
X3.90000 Y-2.87976
X3.89800 Y-2.87976
X3.88700 Y-2.86776
X3.87800 Y-2.86776
X3.87600 Y-2.86576
X3.86700 Y-2.86476
X3.86300 Y-2.85976
X3.73700 Y-2.85976
X3.73500 Y-2.85776
X3.73500 Y-2.85476
X3.77900 Y-2.81176
X3.77900 Y-2.80976
X3.77600 Y-2.80676
X3.77500 Y-2.79876
X3.77300 Y-2.79776
X3.77500 Y-2.78276
X3.77900 Y-2.77976
X3.77900 Y-2.61976
X3.78300 Y-2.61676
X3.78400 Y-2.60976
X3.78700 Y-2.60676
X3.78700 Y-2.60376
X3.78300 Y-2.60076
X3.78200 Y-2.59376
X3.77900 Y-2.59076
X3.77900 Y-2.58776
X3.80400 Y-2.56376
X3.80400 Y-2.56176
X3.86700 Y-2.56176
X3.86700 Y-2.56376
X3.93500 Y-2.63076
X3.93500 Y-2.63276
X3.93200 Y-2.63576
X3.93100 Y-2.64276
X3.92700 Y-2.64576
X3.92700 Y-2.64976
X3.93000 Y-2.65276
X3.93100 Y-2.65976
X3.93500 Y-2.66276
X3.93500 Y-2.68776
G04 P0 ( dwell for no time -- G64 should not smooth over this point )
G00 Z0.05906 ( retract )

G00 X3.77900 Y-2.67976 ( rapid move to begin. )
F3.93701
G01 Z-0.00157
G04 P0 ( dwell for no time -- G64 should not smooth over this point )
F7.87402
X3.77900 Y-2.67976
X3.77900 Y-2.77976
X3.77500 Y-2.78276
X3.77300 Y-2.79076
X3.77300 Y-2.79776
X3.77500 Y-2.79876
X3.77600 Y-2.80676
X3.77900 Y-2.80976
X3.77900 Y-2.81176
X3.73500 Y-2.85576
X3.64200 Y-2.85576
X3.58900 Y-2.80276
X3.58900 Y-2.79276
X3.58600 Y-2.78976
X3.58500 Y-2.78176
X3.58100 Y-2.77876
X3.58100 Y-2.77076
X3.57700 Y-2.76776
X3.57600 Y-2.76076
X3.57300 Y-2.75776
X3.57300 Y-2.74676
X3.46300 Y-2.63776
X3.46300 Y-2.63576
X3.53300 Y-2.56576
X3.54300 Y-2.56576
X3.54500 Y-2.56376
X3.55300 Y-2.56276
X3.55700 Y-2.55776
X3.60600 Y-2.55776
X3.60900 Y-2.55376
X3.61800 Y-2.55276
X3.62100 Y-2.54976
X3.63000 Y-2.54976
X3.68800 Y-2.49076
X3.69100 Y-2.49076
X3.74900 Y-2.54976
X3.75900 Y-2.54976
X3.76200 Y-2.55276
X3.77000 Y-2.55376
X3.77300 Y-2.55776
X3.80100 Y-2.55776
X3.80400 Y-2.56076
X3.80400 Y-2.56376
X3.77900 Y-2.58776
X3.77900 Y-2.59076
X3.78200 Y-2.59376
X3.78300 Y-2.60076
X3.78700 Y-2.60376
X3.78700 Y-2.60676
X3.78400 Y-2.60976
X3.78300 Y-2.61676
X3.77900 Y-2.61976
X3.77900 Y-2.67976
G04 P0 ( dwell for no time -- G64 should not smooth over this point )
G00 Z0.05906 ( retract )

G00 X3.62300 Y-2.83676 ( rapid move to begin. )
F3.93701
G01 Z-0.00157
G04 P0 ( dwell for no time -- G64 should not smooth over this point )
F7.87402
X3.62300 Y-2.83676
X3.64200 Y-2.85476
X3.64200 Y-2.85776
X3.61100 Y-2.88776
X3.61100 Y-2.89876
X3.60800 Y-2.90276
X3.60800 Y-2.90776
X3.60300 Y-2.91176
X3.60200 Y-2.95876
X3.60000 Y-2.95876
X3.54100 Y-2.89876
X3.53600 Y-2.89876
X3.53200 Y-2.90176
X3.52200 Y-2.89976
X3.51900 Y-2.90376
X3.51400 Y-2.90376
X3.50900 Y-2.89876
X3.45300 Y-2.89876
X3.44900 Y-2.89376
X3.44400 Y-2.89376
X3.44000 Y-2.89876
X3.43400 Y-2.89776
X3.43400 Y-2.63676
X3.46300 Y-2.63676
X3.57300 Y-2.74676
X3.57300 Y-2.75776
X3.57600 Y-2.76076
X3.57700 Y-2.76776
X3.58100 Y-2.77076
X3.58100 Y-2.77876
X3.58500 Y-2.78176
X3.58600 Y-2.78976
X3.58900 Y-2.79276
X3.58900 Y-2.80276
X3.62300 Y-2.83676
G04 P0 ( dwell for no time -- G64 should not smooth over this point )
G00 Z0.05906 ( retract )

G00 X3.56900 Y-2.92776 ( rapid move to begin. )
F3.93701
G01 Z-0.00157
G04 P0 ( dwell for no time -- G64 should not smooth over this point )
F7.87402
X3.56900 Y-2.92776
X3.60100 Y-2.95876
X3.60100 Y-3.05076
X3.59700 Y-3.05376
X3.59700 Y-3.05976
X3.59300 Y-3.06576
X3.59300 Y-3.07476
X3.54400 Y-3.07576
X3.54000 Y-3.08076
X3.53200 Y-3.08176
X3.53000 Y-3.08376
X3.52000 Y-3.08376
X3.41000 Y-3.19476
X3.40800 Y-3.19476
X3.32600 Y-3.11276
X3.32600 Y-3.10276
X3.32300 Y-3.09876
X3.32300 Y-3.09276
X3.31800 Y-3.08876
X3.31800 Y-3.01376
X3.42400 Y-2.90876
X3.42500 Y-2.90276
X3.43200 Y-2.90076
X3.43300 Y-2.89776
X3.44000 Y-2.89876
X3.44400 Y-2.89376
X3.44900 Y-2.89376
X3.45300 Y-2.89876
X3.50900 Y-2.89876
X3.51400 Y-2.90376
X3.51900 Y-2.90376
X3.52200 Y-2.89976
X3.53200 Y-2.90176
X3.53600 Y-2.89876
X3.54100 Y-2.89876
X3.56900 Y-2.92776
G04 P0 ( dwell for no time -- G64 should not smooth over this point )
G00 Z0.05906 ( retract )

G00 X3.43400 Y-2.83676 ( rapid move to begin. )
F3.93701
G01 Z-0.00157
G04 P0 ( dwell for no time -- G64 should not smooth over this point )
F7.87402
X3.43400 Y-2.83676
X3.43400 Y-2.89776
X3.43200 Y-2.89876
X3.43200 Y-2.90076
X3.42400 Y-2.90376
X3.42400 Y-2.90876
X3.31900 Y-3.01376
X3.31000 Y-3.01376
X3.30600 Y-3.01076
X3.30000 Y-3.01076
X3.29500 Y-3.00576
X3.24700 Y-3.00576
X3.24700 Y-2.74476
X3.25300 Y-2.73876
X3.26300 Y-2.73876
X3.26700 Y-2.73576
X3.27300 Y-2.73576
X3.27700 Y-2.73076
X3.29700 Y-2.73076
X3.30200 Y-2.72576
X3.30800 Y-2.72576
X3.31200 Y-2.72276
X3.32100 Y-2.72276
X3.40600 Y-2.63676
X3.43400 Y-2.63676
X3.43400 Y-2.83676
G04 P0 ( dwell for no time -- G64 should not smooth over this point )
G00 Z0.05906 ( retract )

G00 X3.24700 Y-2.83676 ( rapid move to begin. )
F3.93701
G01 Z-0.00157
G04 P0 ( dwell for no time -- G64 should not smooth over this point )
F7.87402
X3.24700 Y-2.83676
X3.24700 Y-3.00576
X3.02100 Y-3.00576
X3.01700 Y-3.01076
X3.01100 Y-3.01076
X3.00700 Y-3.01376
X2.99700 Y-3.01376
X2.93000 Y-3.08176
X2.92800 Y-3.08176
X2.91500 Y-3.06876
X2.91500 Y-3.05876
X2.91600 Y-3.05476
X2.92000 Y-3.05176
X2.92000 Y-3.04876
X2.91700 Y-3.04576
X2.91600 Y-3.03776
X2.91200 Y-3.03476
X2.91200 Y-2.99076
X2.99300 Y-2.91076
X2.99300 Y-2.90076
X2.99600 Y-2.89776
X2.99700 Y-2.88976
X3.00100 Y-2.88676
X3.00100 Y-2.84376
X3.04200 Y-2.80276
X3.04900 Y-2.80276
X3.05200 Y-2.79576
X3.05700 Y-2.79476
X3.05800 Y-2.78676
X3.06500 Y-2.78676
X3.07400 Y-2.77776
X3.07400 Y-2.77576
X3.13500 Y-2.77576
X3.13800 Y-2.77176
X3.14700 Y-2.77076
X3.15000 Y-2.76776
X3.15900 Y-2.76776
X3.19500 Y-2.73076
X3.21600 Y-2.73076
X3.22100 Y-2.73576
X3.22700 Y-2.73576
X3.23100 Y-2.73876
X3.24000 Y-2.73876
X3.24500 Y-2.74476
X3.24700 Y-2.74476
X3.24700 Y-2.83676
G04 P0 ( dwell for no time -- G64 should not smooth over this point )
G00 Z0.05906 ( retract )

G00 X3.14700 Y-2.68276 ( rapid move to begin. )
F3.93701
G01 Z-0.00157
G04 P0 ( dwell for no time -- G64 should not smooth over this point )
F7.87402
X3.14700 Y-2.68276
X3.19500 Y-2.72976
X3.19500 Y-2.73176
X3.15900 Y-2.76776
X3.15000 Y-2.76776
X3.14700 Y-2.77076
X3.13800 Y-2.77176
X3.13500 Y-2.77576
X3.07400 Y-2.77576
X3.04300 Y-2.74476
X3.04300 Y-2.73476
X3.04000 Y-2.73076
X3.04000 Y-2.72476
X3.03500 Y-2.72076
X3.03500 Y-2.71376
X3.03100 Y-2.71076
X3.03100 Y-2.70576
X3.02700 Y-2.69976
X3.02700 Y-2.68976
X2.86200 Y-2.52576
X2.86200 Y-2.52276
X2.87100 Y-2.51376
X2.88100 Y-2.51376
X2.88500 Y-2.51076
X2.89100 Y-2.51076
X2.89500 Y-2.50576
X2.94200 Y-2.50576
X2.94700 Y-2.50076
X2.95300 Y-2.50076
X2.95700 Y-2.49776
X2.96600 Y-2.49776
X2.97600 Y-2.48676
X2.97800 Y-2.48676
X3.12300 Y-2.63176
X3.12300 Y-2.64176
X3.12700 Y-2.64776
X3.12700 Y-2.65276
X3.13600 Y-2.65476
X3.13600 Y-2.66076
X3.13900 Y-2.66476
X3.13900 Y-2.67476
X3.14700 Y-2.68276
G04 P0 ( dwell for no time -- G64 should not smooth over this point )
G00 Z0.05906 ( retract )

G00 X3.03500 Y-2.71976 ( rapid move to begin. )
F3.93701
G01 Z-0.00157
G04 P0 ( dwell for no time -- G64 should not smooth over this point )
F7.87402
X3.03500 Y-2.71976
X3.04000 Y-2.72476
X3.04000 Y-2.73076
X3.04300 Y-2.73476
X3.04300 Y-2.74476
X3.07400 Y-2.77476
X3.07400 Y-2.77776
X3.06500 Y-2.78676
X3.05800 Y-2.78676
X3.05700 Y-2.79476
X3.05200 Y-2.79576
X3.04900 Y-2.80276
X3.04200 Y-2.80276
X3.00200 Y-2.84376
X2.99900 Y-2.84376
X2.95300 Y-2.79776
X2.95300 Y-2.78776
X2.95000 Y-2.78476
X2.94900 Y-2.77676
X2.94500 Y-2.77376
X2.94500 Y-2.75676
X2.94100 Y-2.75376
X2.94000 Y-2.74676
X2.93700 Y-2.74376
X2.93700 Y-2.73276
X2.75800 Y-2.55476
X2.75800 Y-2.55176
X2.77800 Y-2.53176
X2.78800 Y-2.53176
X2.79000 Y-2.52976
X2.79800 Y-2.52876
X2.80200 Y-2.52376
X2.86200 Y-2.52376
X2.86200 Y-2.52576
X3.02700 Y-2.68976
X3.02700 Y-2.69976
X3.03100 Y-2.70576
X3.03100 Y-2.71076
X3.03500 Y-2.71376
X3.03500 Y-2.71976
G04 P0 ( dwell for no time -- G64 should not smooth over this point )
G00 Z0.05906 ( retract )

G00 X2.94900 Y-2.77776 ( rapid move to begin. )
F3.93701
G01 Z-0.00157
G04 P0 ( dwell for no time -- G64 should not smooth over this point )
F7.87402
X2.94900 Y-2.77776
X2.95000 Y-2.78476
X2.95300 Y-2.78776
X2.95300 Y-2.79776
X2.99900 Y-2.84376
X3.00100 Y-2.84376
X3.00100 Y-2.88676
X2.99700 Y-2.88976
X2.99600 Y-2.89776
X2.99300 Y-2.90076
X2.99300 Y-2.91076
X2.91300 Y-2.99076
X2.91100 Y-2.99076
X2.81100 Y-2.89076
X2.81100 Y-2.88076
X2.80800 Y-2.87676
X2.80800 Y-2.87076
X2.80300 Y-2.86676
X2.80300 Y-2.78976
X2.79900 Y-2.78676
X2.79900 Y-2.78176
X2.79500 Y-2.77576
X2.79500 Y-2.76576
X2.61700 Y-2.58876
X2.61700 Y-2.58676
X2.64300 Y-2.56076
X2.65300 Y-2.56076
X2.65500 Y-2.55876
X2.66300 Y-2.55776
X2.66700 Y-2.55276
X2.75800 Y-2.55276
X2.75800 Y-2.55476
X2.93700 Y-2.73276
X2.93700 Y-2.74376
X2.94000 Y-2.74676
X2.94100 Y-2.75376
X2.94500 Y-2.75676
X2.94500 Y-2.77376
X2.94900 Y-2.77776
G04 P0 ( dwell for no time -- G64 should not smooth over this point )
G00 Z0.05906 ( retract )

G00 X2.80300 Y-2.84676 ( rapid move to begin. )
F3.93701
G01 Z-0.00157
G04 P0 ( dwell for no time -- G64 should not smooth over this point )
F7.87402
X2.80300 Y-2.84676
X2.80300 Y-2.86676
X2.80800 Y-2.87076
X2.80800 Y-2.87676
X2.81100 Y-2.88076
X2.81100 Y-2.89076
X2.91200 Y-2.99076
X2.91200 Y-3.03476
X2.91600 Y-3.03776
X2.91700 Y-3.04576
X2.92000 Y-3.04876
X2.92000 Y-3.05176
X2.91600 Y-3.05476
X2.91500 Y-3.06876
X2.92900 Y-3.08176
X2.92900 Y-3.09276
X2.92700 Y-3.09476
X2.85400 Y-3.09476
X2.72900 Y-2.96876
X2.72600 Y-2.96876
X2.67800 Y-2.92076
X2.67900 Y-2.90776
X2.68300 Y-2.90476
X2.68300 Y-2.90076
X2.68000 Y-2.89676
X2.68000 Y-2.89076
X2.67500 Y-2.88676
X2.67500 Y-2.84876
X2.67100 Y-2.84576
X2.67100 Y-2.84076
X2.66700 Y-2.83476
X2.66700 Y-2.83076
X2.67200 Y-2.82676
X2.67300 Y-2.81476
X2.42500 Y-2.56776
X2.42500 Y-2.56476
X2.42900 Y-2.56076
X2.46300 Y-2.56076
X2.46300 Y-2.56276
X2.48000 Y-2.57976
X2.49000 Y-2.57976
X2.49400 Y-2.58276
X2.50000 Y-2.58276
X2.50400 Y-2.58776
X2.61700 Y-2.58776
X2.79500 Y-2.76576
X2.79500 Y-2.77576
X2.79900 Y-2.78176
X2.79900 Y-2.78676
X2.80300 Y-2.78976
X2.80300 Y-2.84676
G04 P0 ( dwell for no time -- G64 should not smooth over this point )
G00 Z0.05906 ( retract )

G00 X2.67500 Y-2.85676 ( rapid move to begin. )
F3.93701
G01 Z-0.00157
G04 P0 ( dwell for no time -- G64 should not smooth over this point )
F7.87402
X2.67500 Y-2.85676
X2.67500 Y-2.88676
X2.68000 Y-2.89076
X2.68000 Y-2.89676
X2.68300 Y-2.90076
X2.68300 Y-2.90476
X2.67900 Y-2.90776
X2.67800 Y-2.92076
X2.72600 Y-2.96776
X2.72600 Y-2.96976
X2.72200 Y-2.97376
X2.71500 Y-2.97376
X2.71300 Y-2.97176
X2.70400 Y-2.97076
X2.70000 Y-2.96576
X2.55800 Y-2.96576
X2.55500 Y-2.96176
X2.54700 Y-2.96076
X2.54400 Y-2.95776
X2.53800 Y-2.95776
X2.53400 Y-2.96276
X2.52800 Y-2.96276
X2.45600 Y-2.89076
X2.45600 Y-2.78376
X2.45200 Y-2.78076
X2.44900 Y-2.76276
X2.44600 Y-2.75876
X2.44600 Y-2.75576
X2.44200 Y-2.75176
X2.44200 Y-2.74176
X2.29800 Y-2.59876
X2.29800 Y-2.59676
X2.32100 Y-2.57376
X2.33100 Y-2.57376
X2.33300 Y-2.57176
X2.34100 Y-2.57076
X2.34500 Y-2.56576
X2.42500 Y-2.56576
X2.42500 Y-2.56776
X2.67300 Y-2.81476
X2.67200 Y-2.82676
X2.66700 Y-2.83076
X2.66700 Y-2.83476
X2.67100 Y-2.84076
X2.67100 Y-2.84576
X2.67500 Y-2.84876
X2.67500 Y-2.85676
G04 P0 ( dwell for no time -- G64 should not smooth over this point )
G00 Z0.05906 ( retract )

G00 X2.80200 Y-3.04276 ( rapid move to begin. )
F3.93701
G01 Z-0.00157
G04 P0 ( dwell for no time -- G64 should not smooth over this point )
F7.87402
X2.80200 Y-3.04276
X2.85400 Y-3.09376
X2.85400 Y-3.09576
X2.76500 Y-3.18476
X2.75600 Y-3.18476
X2.75200 Y-3.18776
X2.74600 Y-3.18776
X2.74100 Y-3.19276
X2.59700 Y-3.19276
X2.59300 Y-3.19776
X2.58700 Y-3.19776
X2.58300 Y-3.20076
X2.57300 Y-3.20076
X2.51300 Y-3.26176
X2.47800 Y-3.26176
X2.45700 Y-3.24076
X2.45700 Y-3.23076
X2.45400 Y-3.22676
X2.45400 Y-3.22076
X2.44900 Y-3.21676
X2.45000 Y-2.90076
X2.45400 Y-2.89776
X2.45500 Y-2.89076
X2.45700 Y-2.89076
X2.52800 Y-2.96276
X2.53400 Y-2.96276
X2.53800 Y-2.95776
X2.54400 Y-2.95776
X2.54700 Y-2.96076
X2.55500 Y-2.96176
X2.55800 Y-2.96576
X2.70000 Y-2.96576
X2.70400 Y-2.97076
X2.71300 Y-2.97176
X2.71500 Y-2.97376
X2.72200 Y-2.97376
X2.72600 Y-2.96876
X2.72900 Y-2.96876
X2.80200 Y-3.04276
G04 P0 ( dwell for no time -- G64 should not smooth over this point )
G00 Z0.05906 ( retract )

G00 X2.77400 Y-3.30976 ( rapid move to begin. )
F3.93701
G01 Z-0.00157
G04 P0 ( dwell for no time -- G64 should not smooth over this point )
F7.87402
X2.77400 Y-3.30976
X2.77400 Y-3.37376
X2.77000 Y-3.37376
X2.76800 Y-3.38176
X2.76300 Y-3.38176
X2.76300 Y-3.38476
X2.76000 Y-3.38876
X2.75700 Y-3.38876
X2.75200 Y-3.39276
X2.74200 Y-3.39276
X2.70000 Y-3.43576
X2.69700 Y-3.43576
X2.69400 Y-3.43176
X2.62400 Y-3.43176
X2.62100 Y-3.42776
X2.61300 Y-3.42676
X2.61000 Y-3.42376
X2.60000 Y-3.42376
X2.56900 Y-3.39176
X2.56700 Y-3.39176
X2.56700 Y-3.33176
X2.56300 Y-3.32876
X2.56300 Y-3.32376
X2.55900 Y-3.31776
X2.55900 Y-3.30776
X2.51300 Y-3.26276
X2.51300 Y-3.26076
X2.57300 Y-3.20076
X2.58300 Y-3.20076
X2.58700 Y-3.19776
X2.59300 Y-3.19776
X2.59700 Y-3.19276
X2.74100 Y-3.19276
X2.74600 Y-3.18776
X2.75200 Y-3.18776
X2.75600 Y-3.18476
X2.76500 Y-3.18476
X2.77200 Y-3.17676
X2.77400 Y-3.17676
X2.77400 Y-3.30976
G04 P0 ( dwell for no time -- G64 should not smooth over this point )
G00 Z0.05906 ( retract )

G00 X2.91300 Y-3.42076 ( rapid move to begin. )
F3.93701
G01 Z-0.00157
G04 P0 ( dwell for no time -- G64 should not smooth over this point )
F7.87402
X2.91300 Y-3.42076
X2.91200 Y-3.56576
X2.81400 Y-3.56576
X2.81000 Y-3.57076
X2.80200 Y-3.57176
X2.80000 Y-3.57376
X2.79000 Y-3.57376
X2.78000 Y-3.58476
X2.77800 Y-3.58476
X2.73900 Y-3.54576
X2.73900 Y-3.53576
X2.73600 Y-3.53376
X2.73300 Y-3.52276
X2.72900 Y-3.52076
X2.72800 Y-3.51776
X2.72000 Y-3.51476
X2.71900 Y-3.50276
X2.70800 Y-3.49176
X2.70600 Y-3.49176
X2.70600 Y-3.45076
X2.70200 Y-3.44776
X2.70200 Y-3.44276
X2.69900 Y-3.43876
X2.69900 Y-3.43576
X2.74200 Y-3.39276
X2.75200 Y-3.39276
X2.75300 Y-3.39076
X2.76000 Y-3.38876
X2.76300 Y-3.38476
X2.76300 Y-3.38176
X2.76800 Y-3.38176
X2.77000 Y-3.37376
X2.77900 Y-3.37376
X2.78300 Y-3.37676
X2.78900 Y-3.37676
X2.79300 Y-3.38176
X2.85600 Y-3.38176
X2.85900 Y-3.38576
X2.87000 Y-3.38676
X2.88000 Y-3.39076
X2.88100 Y-3.39276
X2.88500 Y-3.39276
X2.88800 Y-3.38876
X2.89900 Y-3.38776
X2.91100 Y-3.40076
X2.91300 Y-3.40076
X2.91300 Y-3.42076
G04 P0 ( dwell for no time -- G64 should not smooth over this point )
G00 Z0.05906 ( retract )

G00 X2.96000 Y-3.30976 ( rapid move to begin. )
F3.93701
G01 Z-0.00157
G04 P0 ( dwell for no time -- G64 should not smooth over this point )
F7.87402
X2.96000 Y-3.30976
X2.92900 Y-3.34076
X2.92900 Y-3.35076
X2.92600 Y-3.35276
X2.92600 Y-3.35576
X2.92400 Y-3.35776
X2.92200 Y-3.36376
X2.92200 Y-3.37176
X2.91700 Y-3.37576
X2.91700 Y-3.39476
X2.91300 Y-3.39776
X2.91300 Y-3.40076
X2.91100 Y-3.40076
X2.89900 Y-3.38776
X2.88800 Y-3.38876
X2.88500 Y-3.39276
X2.88100 Y-3.39276
X2.88000 Y-3.39076
X2.87000 Y-3.38676
X2.85900 Y-3.38576
X2.85600 Y-3.38176
X2.79300 Y-3.38176
X2.78900 Y-3.37676
X2.78300 Y-3.37676
X2.77900 Y-3.37376
X2.77400 Y-3.37376
X2.77400 Y-3.17476
X2.85400 Y-3.09476
X2.92700 Y-3.09476
X2.98700 Y-3.15476
X2.98700 Y-3.16476
X2.99100 Y-3.17076
X2.99100 Y-3.17576
X2.99500 Y-3.17876
X2.99500 Y-3.27576
X2.96000 Y-3.30976
G04 P0 ( dwell for no time -- G64 should not smooth over this point )
G00 Z0.05906 ( retract )

G00 X3.11700 Y-3.42076 ( rapid move to begin. )
F3.93701
G01 Z-0.00157
G04 P0 ( dwell for no time -- G64 should not smooth over this point )
F7.87402
X3.11700 Y-3.42076
X3.09000 Y-3.44776
X3.09000 Y-3.45876
X3.08700 Y-3.46276
X3.08700 Y-3.46776
X3.08200 Y-3.47176
X3.08200 Y-3.49476
X3.07800 Y-3.49776
X3.07600 Y-3.51276
X3.07300 Y-3.51876
X3.07000 Y-3.52076
X3.07000 Y-3.53076
X3.02700 Y-3.57376
X3.01900 Y-3.57076
X3.01400 Y-3.57076
X3.01000 Y-3.56576
X2.91200 Y-3.56576
X2.91300 Y-3.39776
X2.91700 Y-3.39476
X2.91700 Y-3.37576
X2.92200 Y-3.37176
X2.92200 Y-3.36376
X2.92400 Y-3.35776
X2.92600 Y-3.35576
X2.92600 Y-3.35276
X2.92900 Y-3.35076
X2.92900 Y-3.34076
X2.99400 Y-3.27576
X2.99700 Y-3.27576
X3.05900 Y-3.33876
X3.06900 Y-3.33876
X3.07200 Y-3.34176
X3.08000 Y-3.34276
X3.08600 Y-3.35176
X3.09900 Y-3.35276
X3.10100 Y-3.35476
X3.10400 Y-3.35476
X3.10800 Y-3.35876
X3.11800 Y-3.35876
X3.14800 Y-3.38876
X3.14800 Y-3.39076
X3.11700 Y-3.42076
G04 P0 ( dwell for no time -- G64 should not smooth over this point )
G00 Z0.05906 ( retract )

G00 X3.24600 Y-3.50576 ( rapid move to begin. )
F3.93701
G01 Z-0.00157
G04 P0 ( dwell for no time -- G64 should not smooth over this point )
F7.87402
X3.24600 Y-3.50576
X3.24600 Y-3.58576
X3.25100 Y-3.58976
X3.25100 Y-3.59576
X3.25400 Y-3.59976
X3.25400 Y-3.60976
X3.51500 Y-3.86976
X3.51500 Y-3.87376
X3.51100 Y-3.87676
X3.51100 Y-3.88276
X3.50700 Y-3.88876
X3.50700 Y-3.89776
X3.49400 Y-3.91076
X3.30000 Y-3.91076
X3.03800 Y-3.64876
X3.03800 Y-3.63876
X3.03500 Y-3.63576
X3.03400 Y-3.62776
X3.03000 Y-3.62476
X3.03000 Y-3.57776
X3.02700 Y-3.57576
X3.02700 Y-3.57276
X3.07000 Y-3.53076
X3.07000 Y-3.52076
X3.07300 Y-3.51876
X3.07600 Y-3.51276
X3.07800 Y-3.49776
X3.08200 Y-3.49476
X3.08200 Y-3.47176
X3.08700 Y-3.46776
X3.08700 Y-3.46276
X3.09000 Y-3.45876
X3.09000 Y-3.44776
X3.14800 Y-3.38976
X3.21300 Y-3.38976
X3.23800 Y-3.41476
X3.23800 Y-3.42476
X3.24200 Y-3.43076
X3.24200 Y-3.43576
X3.24600 Y-3.43876
X3.24600 Y-3.50576
G04 P0 ( dwell for no time -- G64 should not smooth over this point )
G00 Z0.05906 ( retract )

G00 X3.05300 Y-3.66376 ( rapid move to begin. )
F3.93701
G01 Z-0.00157
G04 P0 ( dwell for no time -- G64 should not smooth over this point )
F7.87402
X3.05300 Y-3.66376
X3.30000 Y-3.90976
X3.30000 Y-3.91176
X3.23000 Y-3.98176
X3.22100 Y-3.98176
X3.21700 Y-3.98476
X3.21100 Y-3.98476
X3.20600 Y-3.98976
X3.13500 Y-3.98976
X2.87700 Y-3.73176
X2.87700 Y-3.72176
X2.87500 Y-3.71976
X2.86900 Y-3.71876
X2.86800 Y-3.71476
X2.86100 Y-3.71376
X2.86100 Y-3.70276
X2.77900 Y-3.62176
X2.77900 Y-3.58476
X2.79000 Y-3.57376
X2.80000 Y-3.57376
X2.80200 Y-3.57176
X2.81000 Y-3.57076
X2.81400 Y-3.56576
X3.01000 Y-3.56576
X3.01400 Y-3.57076
X3.02300 Y-3.57176
X3.02700 Y-3.57376
X3.02700 Y-3.57576
X3.03000 Y-3.57776
X3.03000 Y-3.62476
X3.03400 Y-3.62776
X3.03500 Y-3.63576
X3.03800 Y-3.63876
X3.03800 Y-3.64876
X3.05300 Y-3.66376
G04 P0 ( dwell for no time -- G64 should not smooth over this point )
G00 Z0.05906 ( retract )

G00 X2.88300 Y-3.73776 ( rapid move to begin. )
F3.93701
G01 Z-0.00157
G04 P0 ( dwell for no time -- G64 should not smooth over this point )
F7.87402
X2.88300 Y-3.73776
X3.13500 Y-3.98876
X3.13500 Y-3.99076
X3.10700 Y-4.01876
X3.09800 Y-4.01876
X3.09400 Y-4.02176
X3.08800 Y-4.02176
X3.08300 Y-4.02676
X2.83200 Y-4.02676
X2.83000 Y-4.02976
X2.56500 Y-4.02976
X2.56200 Y-4.02576
X2.55400 Y-4.02476
X2.55100 Y-4.02176
X2.54100 Y-4.02176
X2.47000 Y-3.95076
X2.47000 Y-3.94876
X2.72800 Y-3.69176
X2.72800 Y-3.68276
X2.73200 Y-3.67476
X2.74100 Y-3.67276
X2.74400 Y-3.66676
X2.74400 Y-3.65576
X2.77800 Y-3.62176
X2.78000 Y-3.62176
X2.86100 Y-3.70276
X2.86100 Y-3.71376
X2.86800 Y-3.71476
X2.86900 Y-3.71876
X2.87500 Y-3.71976
X2.87700 Y-3.72176
X2.87700 Y-3.73176
X2.88300 Y-3.73776
G04 P0 ( dwell for no time -- G64 should not smooth over this point )
G00 Z0.05906 ( retract )

G00 X2.77000 Y-3.57676 ( rapid move to begin. )
F3.93701
G01 Z-0.00157
G04 P0 ( dwell for no time -- G64 should not smooth over this point )
F7.87402
X2.77000 Y-3.57676
X2.77900 Y-3.58476
X2.77900 Y-3.62176
X2.74400 Y-3.65576
X2.74400 Y-3.66676
X2.74100 Y-3.67276
X2.73200 Y-3.67476
X2.72800 Y-3.68276
X2.72800 Y-3.69176
X2.47000 Y-3.94976
X2.30500 Y-3.94976
X2.30100 Y-3.94476
X2.29500 Y-3.94476
X2.29100 Y-3.94176
X2.28100 Y-3.94176
X2.26300 Y-3.92376
X2.26300 Y-3.92076
X2.61000 Y-3.57376
X2.62200 Y-3.57276
X2.62900 Y-3.55876
X2.64000 Y-3.55776
X2.70500 Y-3.49176
X2.70800 Y-3.49176
X2.71900 Y-3.50276
X2.72000 Y-3.51476
X2.72800 Y-3.51776
X2.72800 Y-3.51976
X2.73300 Y-3.52276
X2.73600 Y-3.53376
X2.73900 Y-3.53576
X2.73900 Y-3.54576
X2.77000 Y-3.57676
G04 P0 ( dwell for no time -- G64 should not smooth over this point )
G00 Z0.05906 ( retract )

G00 X2.67500 Y-3.52176 ( rapid move to begin. )
F3.93701
G01 Z-0.00157
G04 P0 ( dwell for no time -- G64 should not smooth over this point )
F7.87402
X2.67500 Y-3.52176
X2.64000 Y-3.55776
X2.62900 Y-3.55876
X2.62200 Y-3.57276
X2.61000 Y-3.57376
X2.26300 Y-3.92176
X2.23500 Y-3.92176
X2.23200 Y-3.91776
X2.22400 Y-3.91676
X2.22100 Y-3.91376
X2.21100 Y-3.91376
X2.18400 Y-3.88676
X2.18400 Y-3.88376
X2.50400 Y-3.56476
X2.50400 Y-3.55576
X2.50800 Y-3.54976
X2.50800 Y-3.54376
X2.51200 Y-3.54076
X2.51200 Y-3.46176
X2.51700 Y-3.45776
X2.51700 Y-3.45276
X2.52000 Y-3.44876
X2.52000 Y-3.43776
X2.56600 Y-3.39176
X2.56900 Y-3.39176
X2.60000 Y-3.42376
X2.61000 Y-3.42376
X2.61300 Y-3.42676
X2.62100 Y-3.42776
X2.62400 Y-3.43176
X2.69400 Y-3.43176
X2.69700 Y-3.43576
X2.69900 Y-3.43576
X2.69900 Y-3.43876
X2.70200 Y-3.44276
X2.70200 Y-3.44776
X2.70600 Y-3.45076
X2.70600 Y-3.49176
X2.67500 Y-3.52176
G04 P0 ( dwell for no time -- G64 should not smooth over this point )
G00 Z0.05906 ( retract )

G00 X2.52000 Y-3.44776 ( rapid move to begin. )
F3.93701
G01 Z-0.00157
G04 P0 ( dwell for no time -- G64 should not smooth over this point )
F7.87402
X2.52000 Y-3.44776
X2.51700 Y-3.45276
X2.51700 Y-3.45776
X2.51200 Y-3.46176
X2.51200 Y-3.54076
X2.50800 Y-3.54376
X2.50800 Y-3.54976
X2.50400 Y-3.55576
X2.50400 Y-3.56476
X2.18400 Y-3.88476
X2.11100 Y-3.88476
X2.10700 Y-3.88976
X2.09100 Y-3.89176
X2.08200 Y-3.89576
X2.07900 Y-3.89876
X2.06900 Y-3.89876
X2.05200 Y-3.91676
X1.98300 Y-3.91676
X1.97900 Y-3.91176
X1.97300 Y-3.91176
X1.96700 Y-3.90876
X1.96700 Y-3.61176
X1.96900 Y-3.61176
X2.26000 Y-3.31976
X2.27000 Y-3.31976
X2.27200 Y-3.31776
X2.28000 Y-3.31676
X2.28400 Y-3.31176
X2.40100 Y-3.31176
X2.40400 Y-3.30776
X2.41300 Y-3.30776
X2.42100 Y-3.30576
X2.43000 Y-3.30176
X2.43400 Y-3.29776
X2.44300 Y-3.29776
X2.47800 Y-3.26176
X2.51300 Y-3.26176
X2.55900 Y-3.30776
X2.55900 Y-3.31776
X2.56300 Y-3.32376
X2.56300 Y-3.32876
X2.56700 Y-3.33176
X2.56700 Y-3.39176
X2.52000 Y-3.43776
X2.52000 Y-3.44776
G04 P0 ( dwell for no time -- G64 should not smooth over this point )
G00 Z0.05906 ( retract )

G00 X2.44900 Y-3.11976 ( rapid move to begin. )
F3.93701
G01 Z-0.00157
G04 P0 ( dwell for no time -- G64 should not smooth over this point )
F7.87402
X2.44900 Y-3.11976
X2.44900 Y-3.21676
X2.45400 Y-3.22076
X2.45400 Y-3.22676
X2.45700 Y-3.23076
X2.45700 Y-3.24076
X2.47800 Y-3.26076
X2.47800 Y-3.26276
X2.44300 Y-3.29776
X2.43400 Y-3.29776
X2.43300 Y-3.29976
X2.42400 Y-3.30476
X2.41300 Y-3.30776
X2.40400 Y-3.30776
X2.40100 Y-3.31176
X2.28400 Y-3.31176
X2.28000 Y-3.31676
X2.27200 Y-3.31776
X2.27000 Y-3.31976
X2.26000 Y-3.31976
X2.21600 Y-3.36476
X2.21400 Y-3.36476
X2.21500 Y-3.09876
X2.44900 Y-3.09776
X2.44900 Y-3.11976
G04 P0 ( dwell for no time -- G64 should not smooth over this point )
G00 Z0.05906 ( retract )

G00 X2.45000 Y-3.01976 ( rapid move to begin. )
F3.93701
G01 Z-0.00157
G04 P0 ( dwell for no time -- G64 should not smooth over this point )
F7.87402
X2.45000 Y-3.01976
X2.45000 Y-3.09776
X2.21500 Y-3.09876
X2.21500 Y-2.99876
X2.45000 Y-2.99776
X2.45000 Y-3.01976
G04 P0 ( dwell for no time -- G64 should not smooth over this point )
G00 Z0.05906 ( retract )

G00 X2.45000 Y-2.91976 ( rapid move to begin. )
F3.93701
G01 Z-0.00157
G04 P0 ( dwell for no time -- G64 should not smooth over this point )
F7.87402
X2.45000 Y-2.91976
X2.45000 Y-2.99776
X2.21500 Y-2.99876
X2.21400 Y-2.59776
X2.29800 Y-2.59776
X2.44200 Y-2.74176
X2.44200 Y-2.75176
X2.44600 Y-2.75576
X2.44600 Y-2.75876
X2.44900 Y-2.76276
X2.45200 Y-2.78076
X2.45600 Y-2.78376
X2.45600 Y-2.89076
X2.45400 Y-2.89776
X2.45000 Y-2.90076
X2.45000 Y-2.91976
G04 P0 ( dwell for no time -- G64 should not smooth over this point )
G00 Z0.05906 ( retract )

G00 X2.21400 Y-2.91976 ( rapid move to begin. )
F3.93701
G01 Z-0.00157
G04 P0 ( dwell for no time -- G64 should not smooth over this point )
F7.87402
X2.21400 Y-2.91976
X2.21500 Y-2.99876
X1.96700 Y-2.99776
X1.96700 Y-2.59776
X2.21400 Y-2.59776
X2.21400 Y-2.91976
G04 P0 ( dwell for no time -- G64 should not smooth over this point )
G00 Z0.05906 ( retract )

G00 X2.21400 Y-3.01976 ( rapid move to begin. )
F3.93701
G01 Z-0.00157
G04 P0 ( dwell for no time -- G64 should not smooth over this point )
F7.87402
X2.21400 Y-3.01976
X2.21500 Y-3.09876
X1.96700 Y-3.09776
X1.96700 Y-2.99776
X2.21500 Y-2.99876
X2.21400 Y-3.01976
G04 P0 ( dwell for no time -- G64 should not smooth over this point )
G00 Z0.05906 ( retract )

G00 X2.21400 Y-3.11976 ( rapid move to begin. )
F3.93701
G01 Z-0.00157
G04 P0 ( dwell for no time -- G64 should not smooth over this point )
F7.87402
X2.21400 Y-3.11976
X2.21400 Y-3.36676
X1.96900 Y-3.61176
X1.96700 Y-3.61176
X1.96700 Y-3.09776
X2.21500 Y-3.09876
X2.21400 Y-3.11976
G04 P0 ( dwell for no time -- G64 should not smooth over this point )
G00 Z0.05906 ( retract )

G00 X3.35500 Y-3.14176 ( rapid move to begin. )
F3.93701
G01 Z-0.00157
G04 P0 ( dwell for no time -- G64 should not smooth over this point )
F7.87402
X3.35500 Y-3.14176
X3.39500 Y-3.18076
X3.39500 Y-3.18276
X2.99500 Y-3.18276
X2.99500 Y-3.17876
X2.99100 Y-3.17576
X2.99100 Y-3.17076
X2.98700 Y-3.16476
X2.98700 Y-3.15476
X2.92700 Y-3.09576
X2.92700 Y-3.09376
X2.92900 Y-3.09276
X2.92900 Y-3.08176
X2.99700 Y-3.01376
X3.00700 Y-3.01376
X3.01100 Y-3.01076
X3.01700 Y-3.01076
X3.02100 Y-3.00576
X3.29500 Y-3.00576
X3.30000 Y-3.01076
X3.30600 Y-3.01076
X3.31000 Y-3.01376
X3.31800 Y-3.01376
X3.31800 Y-3.08876
X3.32300 Y-3.09276
X3.32300 Y-3.09876
X3.32600 Y-3.10276
X3.32600 Y-3.11276
X3.35500 Y-3.14176
G04 P0 ( dwell for no time -- G64 should not smooth over this point )
G00 Z0.05906 ( retract )

G00 X3.40500 Y-3.19176 ( rapid move to begin. )
F3.93701
G01 Z-0.00157
G04 P0 ( dwell for no time -- G64 should not smooth over this point )
F7.87402
X3.40500 Y-3.19176
X3.40900 Y-3.19476
X3.40900 Y-3.23276
X2.99500 Y-3.23276
X2.99500 Y-3.18276
X3.39700 Y-3.18276
X3.40500 Y-3.19176
G04 P0 ( dwell for no time -- G64 should not smooth over this point )
G00 Z0.05906 ( retract )

G00 X3.40900 Y-3.24076 ( rapid move to begin. )
F3.93701
G01 Z-0.00157
G04 P0 ( dwell for no time -- G64 should not smooth over this point )
F7.87402
X3.40900 Y-3.24076
X3.40900 Y-3.25276
X3.29000 Y-3.37176
X3.28100 Y-3.37176
X3.27800 Y-3.37476
X3.26900 Y-3.37576
X3.26600 Y-3.37976
X3.23800 Y-3.37976
X3.23400 Y-3.38476
X3.22600 Y-3.38576
X3.22400 Y-3.38776
X3.21400 Y-3.38776
X3.21300 Y-3.38976
X3.14800 Y-3.38976
X3.11800 Y-3.35876
X3.10800 Y-3.35876
X3.10700 Y-3.35676
X3.09900 Y-3.35276
X3.08600 Y-3.35176
X3.08000 Y-3.34276
X3.07200 Y-3.34176
X3.06900 Y-3.33876
X3.05900 Y-3.33876
X2.99700 Y-3.27576
X2.99500 Y-3.27576
X2.99500 Y-3.23276
X3.40900 Y-3.23276
X3.40900 Y-3.24076
G04 P0 ( dwell for no time -- G64 should not smooth over this point )
G00 Z0.05906 ( retract )

G00 X3.62300 Y-3.48676 ( rapid move to begin. )
F3.93701
G01 Z-0.00157
G04 P0 ( dwell for no time -- G64 should not smooth over this point )
F7.87402
X3.62300 Y-3.48676
X3.76400 Y-3.62676
X3.76400 Y-3.62976
X3.62600 Y-3.76776
X3.61800 Y-3.76776
X3.61700 Y-3.77476
X3.61100 Y-3.77676
X3.61000 Y-3.78376
X3.60100 Y-3.78376
X3.51600 Y-3.86976
X3.51400 Y-3.86976
X3.25400 Y-3.60976
X3.25400 Y-3.59976
X3.25100 Y-3.59576
X3.25100 Y-3.58976
X3.24600 Y-3.58576
X3.24600 Y-3.43876
X3.24200 Y-3.43576
X3.24200 Y-3.43076
X3.23800 Y-3.42476
X3.23800 Y-3.41476
X3.21300 Y-3.39076
X3.21300 Y-3.38876
X3.22400 Y-3.38776
X3.22600 Y-3.38576
X3.23400 Y-3.38476
X3.23800 Y-3.37976
X3.26600 Y-3.37976
X3.26900 Y-3.37576
X3.27800 Y-3.37476
X3.28100 Y-3.37176
X3.29000 Y-3.37176
X3.40800 Y-3.25276
X3.41000 Y-3.25276
X3.49400 Y-3.33676
X3.49400 Y-3.34676
X3.49800 Y-3.35476
X3.50700 Y-3.35676
X3.50700 Y-3.35976
X3.51000 Y-3.36376
X3.51000 Y-3.37376
X3.62300 Y-3.48676
G04 P0 ( dwell for no time -- G64 should not smooth over this point )
G00 Z0.05906 ( retract )

G00 X3.79100 Y-3.19176 ( rapid move to begin. )
F3.93701
G01 Z-0.00157
G04 P0 ( dwell for no time -- G64 should not smooth over this point )
F7.87402
X3.79100 Y-3.19176
X3.79100 Y-3.24876
X3.79500 Y-3.25176
X3.79600 Y-3.25976
X3.79900 Y-3.26276
X3.79900 Y-3.27276
X3.93200 Y-3.40576
X3.93400 Y-3.40576
X3.93400 Y-3.46576
X3.93000 Y-3.46876
X3.92900 Y-3.47676
X3.92600 Y-3.47976
X3.92600 Y-3.48976
X3.78800 Y-3.62776
X3.76400 Y-3.62776
X3.51000 Y-3.37376
X3.51000 Y-3.36376
X3.50700 Y-3.35976
X3.50700 Y-3.35676
X3.49800 Y-3.35476
X3.49400 Y-3.34676
X3.49400 Y-3.33676
X3.40900 Y-3.25276
X3.40900 Y-3.19476
X3.52000 Y-3.08376
X3.53000 Y-3.08376
X3.53200 Y-3.08176
X3.54000 Y-3.08076
X3.54400 Y-3.07576
X3.59200 Y-3.07576
X3.59200 Y-3.07776
X3.61800 Y-3.10376
X3.62800 Y-3.10376
X3.63100 Y-3.10676
X3.63900 Y-3.10776
X3.64200 Y-3.11176
X3.74000 Y-3.11176
X3.74400 Y-3.11676
X3.75300 Y-3.11776
X3.75500 Y-3.11976
X3.76400 Y-3.11976
X3.79100 Y-3.14676
X3.79100 Y-3.19176
G04 P0 ( dwell for no time -- G64 should not smooth over this point )
G00 Z0.05906 ( retract )

G00 X3.94400 Y-3.11676 ( rapid move to begin. )
F3.93701
G01 Z-0.00157
G04 P0 ( dwell for no time -- G64 should not smooth over this point )
F7.87402
X3.94400 Y-3.11676
X3.94400 Y-3.11876
X3.94800 Y-3.12176
X3.94800 Y-3.13976
X3.95300 Y-3.14376
X3.95300 Y-3.14876
X3.94900 Y-3.15176
X3.95200 Y-3.16076
X3.94800 Y-3.16676
X3.94800 Y-3.17176
X4.06700 Y-3.29076
X4.06900 Y-3.29076
X4.06900 Y-3.29576
X4.05400 Y-3.31076
X4.04500 Y-3.31076
X4.04100 Y-3.31576
X4.03500 Y-3.31576
X4.03100 Y-3.31876
X4.02100 Y-3.31876
X3.93500 Y-3.40576
X3.93200 Y-3.40576
X3.79900 Y-3.27276
X3.79900 Y-3.26276
X3.79600 Y-3.25976
X3.79500 Y-3.25176
X3.79100 Y-3.24876
X3.79100 Y-3.14676
X3.81500 Y-3.12376
X3.81500 Y-3.11376
X3.81800 Y-3.11076
X3.81900 Y-3.10276
X3.82300 Y-3.09976
X3.82300 Y-3.04876
X3.82700 Y-3.04576
X3.82800 Y-3.03876
X3.83100 Y-3.03576
X3.83100 Y-3.02476
X3.85600 Y-2.99976
X3.85800 Y-2.99976
X3.94800 Y-3.08976
X3.94800 Y-3.09676
X3.94500 Y-3.10076
X3.94700 Y-3.10776
X3.94400 Y-3.10976
X3.94400 Y-3.11676
G04 P0 ( dwell for no time -- G64 should not smooth over this point )
G00 Z0.05906 ( retract )

G00 X3.85600 Y-2.99976 ( rapid move to begin. )
F3.93701
G01 Z-0.00157
G04 P0 ( dwell for no time -- G64 should not smooth over this point )
F7.87402
X3.85600 Y-2.99976
X3.83100 Y-3.02476
X3.83100 Y-3.03576
X3.82800 Y-3.03876
X3.82700 Y-3.04576
X3.82300 Y-3.04876
X3.82300 Y-3.09976
X3.81900 Y-3.10276
X3.81800 Y-3.11076
X3.81500 Y-3.11376
X3.81500 Y-3.12376
X3.79200 Y-3.14676
X3.79000 Y-3.14676
X3.76400 Y-3.11976
X3.75500 Y-3.11976
X3.75300 Y-3.11776
X3.74400 Y-3.11676
X3.74000 Y-3.11176
X3.64200 Y-3.11176
X3.63900 Y-3.10776
X3.63100 Y-3.10676
X3.62800 Y-3.10376
X3.61800 Y-3.10376
X3.59200 Y-3.07776
X3.59300 Y-3.06576
X3.59700 Y-3.05976
X3.59700 Y-3.05376
X3.60100 Y-3.05076
X3.60100 Y-2.95876
X3.60300 Y-2.95776
X3.60300 Y-2.91176
X3.60800 Y-2.90776
X3.60800 Y-2.90276
X3.61100 Y-2.89876
X3.61100 Y-2.88776
X3.64200 Y-2.85776
X3.64200 Y-2.85576
X3.73500 Y-2.85576
X3.73700 Y-2.85976
X3.86300 Y-2.85976
X3.86700 Y-2.86476
X3.87600 Y-2.86576
X3.87800 Y-2.86776
X3.88700 Y-2.86776
X3.89900 Y-2.87976
X3.89900 Y-2.95376
X3.85700 Y-2.99476
X3.85600 Y-2.99976
G04 P0 ( dwell for no time -- G64 should not smooth over this point )
G00 Z0.05906 ( retract )

G00 X4.13300 Y-3.11276 ( rapid move to begin. )
F3.93701
G01 Z-0.00157
G04 P0 ( dwell for no time -- G64 should not smooth over this point )
F7.87402
X4.13300 Y-3.11276
X4.13300 Y-3.11576
X4.13100 Y-3.11576
X4.11100 Y-3.13576
X4.11100 Y-3.14676
X4.10800 Y-3.15076
X4.10800 Y-3.15576
X4.10300 Y-3.15976
X4.10300 Y-3.24176
X4.09900 Y-3.24476
X4.09900 Y-3.25076
X4.09500 Y-3.25676
X4.09500 Y-3.26576
X4.07000 Y-3.29076
X4.06700 Y-3.29076
X3.94800 Y-3.17176
X3.94800 Y-3.16676
X3.95200 Y-3.16076
X3.94900 Y-3.15176
X3.95300 Y-3.14876
X3.95300 Y-3.14376
X3.94800 Y-3.13976
X3.94800 Y-3.12176
X3.94400 Y-3.11876
X3.94400 Y-3.10976
X3.94700 Y-3.10776
X3.94500 Y-3.10076
X3.94800 Y-3.09676
X3.94800 Y-3.08976
X3.85700 Y-2.99976
X3.85700 Y-2.99476
X3.89800 Y-2.95376
X3.90000 Y-2.95376
X3.95200 Y-3.00676
X3.96200 Y-3.00676
X3.96600 Y-3.00976
X3.97200 Y-3.00976
X3.97600 Y-3.01476
X4.07400 Y-3.01476
X4.07900 Y-3.01976
X4.08500 Y-3.01976
X4.08900 Y-3.02276
X4.09800 Y-3.02276
X4.13900 Y-3.06476
X4.14100 Y-3.06476
X4.14100 Y-3.07176
X4.13800 Y-3.07476
X4.13700 Y-3.08176
X4.13300 Y-3.08476
X4.13300 Y-3.11276
G04 P0 ( dwell for no time -- G64 should not smooth over this point )
G00 Z0.05906 ( retract )

G00 X4.26800 Y-3.25576 ( rapid move to begin. )
F3.93701
G01 Z-0.00157
G04 P0 ( dwell for no time -- G64 should not smooth over this point )
F7.87402
X4.26800 Y-3.25576
X4.26800 Y-3.26476
X4.30600 Y-3.30176
X4.30600 Y-3.30476
X4.29300 Y-3.31776
X4.28400 Y-3.31776
X4.28000 Y-3.32076
X4.27400 Y-3.32076
X4.26900 Y-3.32576
X4.25600 Y-3.32576
X4.25200 Y-3.33076
X4.24600 Y-3.33076
X4.24200 Y-3.33376
X4.23200 Y-3.33376
X4.18700 Y-3.37976
X4.13800 Y-3.37976
X4.13500 Y-3.37576
X4.12700 Y-3.37476
X4.12400 Y-3.37176
X4.11400 Y-3.37176
X4.05400 Y-3.31176
X4.05400 Y-3.30976
X4.06900 Y-3.29576
X4.06900 Y-3.29076
X4.09500 Y-3.26576
X4.09500 Y-3.25676
X4.09900 Y-3.25076
X4.09900 Y-3.24476
X4.10300 Y-3.24176
X4.10300 Y-3.15976
X4.10800 Y-3.15576
X4.10800 Y-3.15076
X4.11100 Y-3.14676
X4.11100 Y-3.13576
X4.13100 Y-3.11576
X4.13400 Y-3.11576
X4.25200 Y-3.23376
X4.25300 Y-3.24576
X4.26700 Y-3.25276
X4.26800 Y-3.25576
G04 P0 ( dwell for no time -- G64 should not smooth over this point )
G00 Z0.05906 ( retract )

G00 X4.47300 Y-3.21076 ( rapid move to begin. )
F3.93701
G01 Z-0.00157
G04 P0 ( dwell for no time -- G64 should not smooth over this point )
F7.87402
X4.47300 Y-3.21076
X4.47300 Y-3.21376
X4.47100 Y-3.21376
X4.38300 Y-3.30276
X4.37700 Y-3.30276
X4.37500 Y-3.30076
X4.36300 Y-3.30276
X4.36000 Y-3.29876
X4.35400 Y-3.29876
X4.35100 Y-3.30276
X4.30600 Y-3.30276
X4.26800 Y-3.26476
X4.26700 Y-3.25276
X4.25300 Y-3.24576
X4.25200 Y-3.23376
X4.13300 Y-3.11576
X4.13300 Y-3.08476
X4.13700 Y-3.08176
X4.13800 Y-3.07476
X4.14100 Y-3.07176
X4.14100 Y-3.06476
X4.22300 Y-3.06376
X4.22800 Y-3.05876
X4.23400 Y-3.05876
X4.23800 Y-3.05576
X4.24700 Y-3.05576
X4.36800 Y-2.93376
X4.37100 Y-2.93376
X4.46900 Y-3.03176
X4.46900 Y-3.04276
X4.47200 Y-3.04576
X4.47300 Y-3.05276
X4.47700 Y-3.05576
X4.47700 Y-3.11576
X4.47300 Y-3.11876
X4.47300 Y-3.21076
G04 P0 ( dwell for no time -- G64 should not smooth over this point )
G00 Z0.05906 ( retract )

G00 X4.47400 Y-3.36276 ( rapid move to begin. )
F3.93701
G01 Z-0.00157
G04 P0 ( dwell for no time -- G64 should not smooth over this point )
F7.87402
X4.47400 Y-3.36276
X4.47400 Y-3.54476
X4.47100 Y-3.54476
X4.38300 Y-3.45576
X4.37800 Y-3.45576
X4.37400 Y-3.45876
X4.36400 Y-3.45676
X4.36100 Y-3.46076
X4.35600 Y-3.46076
X4.35100 Y-3.45576
X4.28300 Y-3.45576
X4.27000 Y-3.44176
X4.26100 Y-3.44176
X4.25700 Y-3.43876
X4.25100 Y-3.43876
X4.25000 Y-3.42876
X4.24500 Y-3.42876
X4.24100 Y-3.42576
X4.23100 Y-3.42576
X4.18700 Y-3.38176
X4.18700 Y-3.37876
X4.23200 Y-3.33376
X4.24200 Y-3.33376
X4.24600 Y-3.33076
X4.25200 Y-3.33076
X4.25600 Y-3.32576
X4.26900 Y-3.32576
X4.27400 Y-3.32076
X4.28000 Y-3.32076
X4.28400 Y-3.31776
X4.29300 Y-3.31776
X4.30600 Y-3.30476
X4.30600 Y-3.30276
X4.35100 Y-3.30276
X4.35400 Y-3.29876
X4.36000 Y-3.29876
X4.36300 Y-3.30276
X4.36900 Y-3.30276
X4.37100 Y-3.30076
X4.38300 Y-3.30276
X4.47100 Y-3.21376
X4.47400 Y-3.21376
X4.47400 Y-3.36276
G04 P0 ( dwell for no time -- G64 should not smooth over this point )
G00 Z0.05906 ( retract )

G00 X4.44200 Y-3.51576 ( rapid move to begin. )
F3.93701
G01 Z-0.00157
G04 P0 ( dwell for no time -- G64 should not smooth over this point )
F7.87402
X4.44200 Y-3.51576
X4.47100 Y-3.54476
X4.47300 Y-3.54476
X4.47300 Y-3.69876
X4.46900 Y-3.70176
X4.46800 Y-3.70976
X4.46500 Y-3.71276
X4.46500 Y-3.72276
X4.44400 Y-3.74376
X4.44200 Y-3.74376
X4.30300 Y-3.60376
X4.29400 Y-3.60376
X4.29200 Y-3.60176
X4.28300 Y-3.60076
X4.27900 Y-3.59576
X4.24100 Y-3.59576
X4.23800 Y-3.59176
X4.23000 Y-3.59076
X4.22700 Y-3.58776
X4.21700 Y-3.58776
X4.20500 Y-3.57576
X4.20500 Y-3.57276
X4.24100 Y-3.53776
X4.24100 Y-3.52776
X4.24400 Y-3.52476
X4.24500 Y-3.51676
X4.24900 Y-3.51376
X4.24900 Y-3.50576
X4.25300 Y-3.50276
X4.25400 Y-3.49576
X4.25700 Y-3.49276
X4.25700 Y-3.48176
X4.28300 Y-3.45576
X4.35100 Y-3.45576
X4.35600 Y-3.46076
X4.36100 Y-3.46076
X4.36400 Y-3.45676
X4.37400 Y-3.45876
X4.37800 Y-3.45576
X4.38300 Y-3.45576
X4.44200 Y-3.51576
G04 P0 ( dwell for no time -- G64 should not smooth over this point )
G00 Z0.05906 ( retract )

G00 X4.34200 Y-3.64376 ( rapid move to begin. )
F3.93701
G01 Z-0.00157
G04 P0 ( dwell for no time -- G64 should not smooth over this point )
F7.87402
X4.34200 Y-3.64376
X4.44300 Y-3.74376
X4.44300 Y-3.77876
X4.44700 Y-3.78176
X4.45000 Y-3.80076
X4.44600 Y-3.80376
X4.44600 Y-3.81276
X4.44400 Y-3.81276
X4.42300 Y-3.83476
X4.41400 Y-3.83476
X4.41100 Y-3.83776
X4.40600 Y-3.83776
X4.29200 Y-3.72276
X4.28600 Y-3.72276
X4.28300 Y-3.72676
X4.27700 Y-3.72676
X4.27500 Y-3.72476
X4.26600 Y-3.72376
X4.26200 Y-3.71876
X4.18700 Y-3.71876
X4.18400 Y-3.71476
X4.17600 Y-3.71376
X4.17300 Y-3.71076
X4.16800 Y-3.71076
X4.16400 Y-3.71576
X4.15700 Y-3.71676
X4.08100 Y-3.64076
X4.08100 Y-3.63776
X4.13700 Y-3.58176
X4.14700 Y-3.58176
X4.14900 Y-3.57976
X4.15700 Y-3.57876
X4.16100 Y-3.57376
X4.20500 Y-3.57376
X4.20500 Y-3.57576
X4.21700 Y-3.58776
X4.22700 Y-3.58776
X4.23000 Y-3.59076
X4.23800 Y-3.59176
X4.24100 Y-3.59576
X4.27900 Y-3.59576
X4.28300 Y-3.60076
X4.29200 Y-3.60176
X4.29400 Y-3.60376
X4.30300 Y-3.60376
X4.34200 Y-3.64376
G04 P0 ( dwell for no time -- G64 should not smooth over this point )
G00 Z0.05906 ( retract )

G00 X4.33000 Y-3.76176 ( rapid move to begin. )
F3.93701
G01 Z-0.00157
G04 P0 ( dwell for no time -- G64 should not smooth over this point )
F7.87402
X4.33000 Y-3.76176
X4.40600 Y-3.83676
X4.40600 Y-3.83976
X4.35200 Y-3.89376
X4.34300 Y-3.89376
X4.34000 Y-3.89676
X4.33100 Y-3.89776
X4.32800 Y-3.90176
X4.14200 Y-3.90176
X4.13800 Y-3.90676
X4.13000 Y-3.90776
X4.12800 Y-3.90976
X4.11800 Y-3.90976
X4.10400 Y-3.92476
X4.08800 Y-3.92476
X4.08400 Y-3.91976
X4.07800 Y-3.91976
X4.07400 Y-3.91676
X4.06400 Y-3.91676
X4.05200 Y-3.90376
X4.05000 Y-3.90376
X4.05000 Y-3.89476
X4.04600 Y-3.89176
X4.04600 Y-3.88676
X4.04200 Y-3.88076
X4.04200 Y-3.87076
X3.93500 Y-3.76476
X3.93500 Y-3.76176
X4.06000 Y-3.63676
X4.06600 Y-3.63676
X4.06900 Y-3.64076
X4.07600 Y-3.64076
X4.07800 Y-3.63876
X4.08100 Y-3.63876
X4.08100 Y-3.64076
X4.15700 Y-3.71676
X4.16400 Y-3.71576
X4.16800 Y-3.71076
X4.17300 Y-3.71076
X4.17600 Y-3.71376
X4.18400 Y-3.71476
X4.18700 Y-3.71876
X4.26200 Y-3.71876
X4.26600 Y-3.72376
X4.27500 Y-3.72476
X4.27700 Y-3.72676
X4.28300 Y-3.72676
X4.28600 Y-3.72276
X4.29200 Y-3.72276
X4.33000 Y-3.76176
G04 P0 ( dwell for no time -- G64 should not smooth over this point )
G00 Z0.05906 ( retract )

G00 X4.44100 Y-4.00976 ( rapid move to begin. )
F3.93701
G01 Z-0.00157
G04 P0 ( dwell for no time -- G64 should not smooth over this point )
F7.87402
X4.44100 Y-4.00976
X4.44100 Y-4.13976
X4.41100 Y-4.16976
X4.40200 Y-4.16976
X4.39900 Y-4.17276
X4.39000 Y-4.17376
X4.38800 Y-4.17576
X4.38800 Y-4.18076
X4.38600 Y-4.18276
X4.37800 Y-4.18376
X4.37600 Y-4.18576
X4.36600 Y-4.18576
X4.34200 Y-4.21076
X4.26700 Y-4.21076
X4.17400 Y-4.11776
X4.17400 Y-4.10776
X4.17100 Y-4.10376
X4.17100 Y-4.09776
X4.16600 Y-4.09376
X4.16600 Y-4.00276
X4.16200 Y-3.99976
X4.16200 Y-3.99476
X4.15800 Y-3.98876
X4.15800 Y-3.97876
X4.10400 Y-3.92576
X4.10400 Y-3.92376
X4.11800 Y-3.90976
X4.12800 Y-3.90976
X4.13000 Y-3.90776
X4.13800 Y-3.90676
X4.14200 Y-3.90176
X4.32800 Y-3.90176
X4.33100 Y-3.89776
X4.34000 Y-3.89676
X4.34300 Y-3.89376
X4.35200 Y-3.89376
X4.40600 Y-3.83976
X4.40600 Y-3.83776
X4.41100 Y-3.83776
X4.41400 Y-3.83476
X4.42300 Y-3.83476
X4.44400 Y-3.81276
X4.44700 Y-3.81276
X4.44600 Y-3.81676
X4.44300 Y-3.81876
X4.44300 Y-3.82176
X4.44000 Y-3.82576
X4.44000 Y-3.83176
X4.44200 Y-3.83376
X4.44200 Y-3.84276
X4.44600 Y-3.84576
X4.44500 Y-3.85176
X4.44100 Y-3.85476
X4.44100 Y-4.00976
G04 P0 ( dwell for no time -- G64 should not smooth over this point )
G00 Z0.05906 ( retract )

G00 X4.69400 Y-4.00276 ( rapid move to begin. )
F3.93701
G01 Z-0.00157
G04 P0 ( dwell for no time -- G64 should not smooth over this point )
F7.87402
X4.69400 Y-4.00276
X4.69500 Y-4.08176
X4.44100 Y-4.08076
X4.44100 Y-3.85476
X4.44500 Y-3.85176
X4.44600 Y-3.84576
X4.44200 Y-3.84276
X4.44200 Y-3.83376
X4.44000 Y-3.83176
X4.44000 Y-3.82576
X4.44300 Y-3.82176
X4.44300 Y-3.81876
X4.44700 Y-3.81476
X4.44600 Y-3.80376
X4.45000 Y-3.79976
X4.45400 Y-3.79976
X4.46200 Y-3.80076
X4.46600 Y-3.80576
X4.69400 Y-3.80576
X4.69500 Y-3.96176
X4.69400 Y-4.00276
G04 P0 ( dwell for no time -- G64 should not smooth over this point )
G00 Z0.05906 ( retract )

G00 X4.69400 Y-4.10276 ( rapid move to begin. )
F3.93701
G01 Z-0.00157
G04 P0 ( dwell for no time -- G64 should not smooth over this point )
F7.87402
X4.69400 Y-4.10276
X4.69500 Y-4.18176
X4.48200 Y-4.18076
X4.44100 Y-4.13976
X4.44100 Y-4.08076
X4.69500 Y-4.08176
X4.69400 Y-4.10276
G04 P0 ( dwell for no time -- G64 should not smooth over this point )
G00 Z0.05906 ( retract )

G00 X4.69400 Y-4.20276 ( rapid move to begin. )
F3.93701
G01 Z-0.00157
G04 P0 ( dwell for no time -- G64 should not smooth over this point )
F7.87402
X4.69400 Y-4.20276
X4.69500 Y-4.28176
X4.57900 Y-4.28176
X4.57800 Y-4.27776
X4.57100 Y-4.27676
X4.57100 Y-4.26876
X4.48400 Y-4.18276
X4.48400 Y-4.18076
X4.69500 Y-4.18176
X4.69400 Y-4.20276
G04 P0 ( dwell for no time -- G64 should not smooth over this point )
G00 Z0.05906 ( retract )

G00 X4.69400 Y-4.30276 ( rapid move to begin. )
F3.93701
G01 Z-0.00157
G04 P0 ( dwell for no time -- G64 should not smooth over this point )
F7.87402
X4.69400 Y-4.30276
X4.69500 Y-4.36076
X4.69400 Y-4.48576
X4.57300 Y-4.48576
X4.54500 Y-4.45776
X4.54500 Y-4.44876
X4.54200 Y-4.44576
X4.53900 Y-4.43776
X4.57800 Y-4.39976
X4.57600 Y-4.38576
X4.57900 Y-4.38276
X4.57900 Y-4.37576
X4.57500 Y-4.37276
X4.57500 Y-4.36976
X4.57900 Y-4.36676
X4.57900 Y-4.28176
X4.69500 Y-4.28176
X4.69400 Y-4.30276
G04 P0 ( dwell for no time -- G64 should not smooth over this point )
G00 Z0.05906 ( retract )

G00 X4.57900 Y-4.31376 ( rapid move to begin. )
F3.93701
G01 Z-0.00157
G04 P0 ( dwell for no time -- G64 should not smooth over this point )
F7.87402
X4.57900 Y-4.31376
X4.57900 Y-4.36676
X4.57500 Y-4.36976
X4.57500 Y-4.37276
X4.57900 Y-4.37576
X4.57900 Y-4.38276
X4.57600 Y-4.38576
X4.57800 Y-4.39976
X4.54000 Y-4.43776
X4.53800 Y-4.43776
X4.48600 Y-4.38576
X4.48600 Y-4.37576
X4.48300 Y-4.36976
X4.47300 Y-4.36676
X4.47000 Y-4.36076
X4.47000 Y-4.35076
X4.42000 Y-4.30076
X4.41800 Y-4.30076
X4.41800 Y-4.29776
X4.41500 Y-4.29476
X4.41500 Y-4.28476
X4.34200 Y-4.21276
X4.34200 Y-4.20976
X4.36600 Y-4.18576
X4.37600 Y-4.18576
X4.37800 Y-4.18376
X4.38600 Y-4.18276
X4.38800 Y-4.18076
X4.38800 Y-4.17576
X4.39000 Y-4.17376
X4.39900 Y-4.17276
X4.40200 Y-4.16976
X4.41100 Y-4.16976
X4.44000 Y-4.13976
X4.44200 Y-4.13976
X4.57100 Y-4.26876
X4.57100 Y-4.27676
X4.57800 Y-4.27776
X4.57900 Y-4.27976
X4.57900 Y-4.31376
G04 P0 ( dwell for no time -- G64 should not smooth over this point )
G00 Z0.05906 ( retract )

G00 X4.49100 Y-4.39076 ( rapid move to begin. )
F3.93701
G01 Z-0.00157
G04 P0 ( dwell for no time -- G64 should not smooth over this point )
F7.87402
X4.49100 Y-4.39076
X4.53900 Y-4.43776
X4.54200 Y-4.44576
X4.54500 Y-4.44876
X4.54500 Y-4.45776
X4.57300 Y-4.48476
X4.57300 Y-4.48776
X4.56500 Y-4.49476
X4.56500 Y-4.50476
X4.55900 Y-4.51076
X4.55700 Y-4.51576
X4.54900 Y-4.51676
X4.54900 Y-4.51876
X4.54600 Y-4.52176
X4.54000 Y-4.52376
X4.53800 Y-4.52976
X4.52400 Y-4.53376
X4.51100 Y-4.54076
X4.50800 Y-4.54076
X4.50700 Y-4.54276
X4.49700 Y-4.54776
X4.49100 Y-4.55376
X4.48100 Y-4.55376
X4.43900 Y-4.59676
X4.43600 Y-4.59676
X4.37900 Y-4.53876
X4.36900 Y-4.53876
X4.36400 Y-4.53376
X4.35300 Y-4.52876
X4.34100 Y-4.52576
X4.32900 Y-4.52576
X4.32900 Y-4.52176
X4.37600 Y-4.47576
X4.37500 Y-4.46176
X4.37700 Y-4.45876
X4.37700 Y-4.45276
X4.37400 Y-4.45076
X4.37400 Y-4.44076
X4.37800 Y-4.43776
X4.37800 Y-4.36976
X4.38300 Y-4.36576
X4.38300 Y-4.36076
X4.38600 Y-4.35676
X4.38600 Y-4.35376
X4.38200 Y-4.35076
X4.38100 Y-4.33676
X4.41700 Y-4.30076
X4.42000 Y-4.30076
X4.47000 Y-4.35076
X4.47000 Y-4.36076
X4.47300 Y-4.36676
X4.48300 Y-4.36976
X4.48600 Y-4.37576
X4.48600 Y-4.38576
X4.49100 Y-4.39076
G04 P0 ( dwell for no time -- G64 should not smooth over this point )
G00 Z0.05906 ( retract )

G00 X4.37800 Y-4.37976 ( rapid move to begin. )
F3.93701
G01 Z-0.00157
G04 P0 ( dwell for no time -- G64 should not smooth over this point )
F7.87402
X4.37800 Y-4.37976
X4.37800 Y-4.43776
X4.37400 Y-4.44076
X4.37400 Y-4.45076
X4.37700 Y-4.45276
X4.37700 Y-4.45876
X4.37500 Y-4.46176
X4.37600 Y-4.47576
X4.33000 Y-4.52176
X4.32800 Y-4.52176
X4.32700 Y-4.51976
X4.22100 Y-4.51976
X4.21800 Y-4.51576
X4.20400 Y-4.51276
X4.20100 Y-4.50976
X4.19100 Y-4.50976
X4.03600 Y-4.35476
X4.03600 Y-4.35176
X4.14400 Y-4.24376
X4.15400 Y-4.24376
X4.15700 Y-4.24076
X4.17100 Y-4.23776
X4.17400 Y-4.23376
X4.23000 Y-4.23376
X4.23500 Y-4.22876
X4.24100 Y-4.22876
X4.24500 Y-4.22576
X4.25400 Y-4.22576
X4.26700 Y-4.21276
X4.26700 Y-4.21076
X4.34200 Y-4.21076
X4.34200 Y-4.21276
X4.41500 Y-4.28476
X4.41500 Y-4.29476
X4.41800 Y-4.29776
X4.41800 Y-4.30076
X4.38100 Y-4.33676
X4.38200 Y-4.35076
X4.38600 Y-4.35376
X4.38600 Y-4.35676
X4.38300 Y-4.36076
X4.38300 Y-4.36576
X4.37800 Y-4.36976
X4.37800 Y-4.37976
G04 P0 ( dwell for no time -- G64 should not smooth over this point )
G00 Z0.05906 ( retract )

G00 X4.43700 Y-4.61876 ( rapid move to begin. )
F3.93701
G01 Z-0.00157
G04 P0 ( dwell for no time -- G64 should not smooth over this point )
F7.87402
X4.43700 Y-4.61876
X4.43700 Y-4.82876
X4.43300 Y-4.83176
X4.43200 Y-4.84676
X4.42900 Y-4.85376
X4.42900 Y-4.85776
X4.42500 Y-4.86376
X4.42500 Y-4.86676
X4.41900 Y-4.87276
X4.41900 Y-4.87676
X4.42400 Y-4.88076
X4.42400 Y-4.88776
X4.39200 Y-4.91876
X4.39200 Y-4.92076
X4.12700 Y-4.92076
X4.12800 Y-4.78076
X4.12700 Y-4.44676
X4.12900 Y-4.44676
X4.19100 Y-4.50976
X4.20100 Y-4.50976
X4.20400 Y-4.51276
X4.21800 Y-4.51576
X4.22100 Y-4.51976
X4.32700 Y-4.51976
X4.32900 Y-4.52176
X4.32900 Y-4.52576
X4.34100 Y-4.52576
X4.35300 Y-4.52876
X4.36400 Y-4.53376
X4.36900 Y-4.53876
X4.37900 Y-4.53876
X4.43700 Y-4.59676
X4.43700 Y-4.61876
G04 P0 ( dwell for no time -- G64 should not smooth over this point )
G00 Z0.05906 ( retract )

G00 X4.12800 Y-4.61876 ( rapid move to begin. )
F3.93701
G01 Z-0.00157
G04 P0 ( dwell for no time -- G64 should not smooth over this point )
F7.87402
X4.12800 Y-4.61876
X4.12700 Y-4.92076
X3.92700 Y-4.92076
X3.92700 Y-4.35276
X4.03600 Y-4.35276
X4.03600 Y-4.35476
X4.12700 Y-4.44476
X4.12800 Y-4.61876
G04 P0 ( dwell for no time -- G64 should not smooth over this point )
G00 Z0.05906 ( retract )

G00 X3.92800 Y-4.61876 ( rapid move to begin. )
F3.93701
G01 Z-0.00157
G04 P0 ( dwell for no time -- G64 should not smooth over this point )
F7.87402
X3.92800 Y-4.61876
X3.92700 Y-4.92076
X3.72700 Y-4.92076
X3.72800 Y-4.78076
X3.72700 Y-4.34176
X3.79000 Y-4.34176
X3.79200 Y-4.34476
X3.80200 Y-4.34476
X3.80500 Y-4.34776
X3.81300 Y-4.34876
X3.81600 Y-4.35276
X3.92700 Y-4.35276
X3.92800 Y-4.61876
G04 P0 ( dwell for no time -- G64 should not smooth over this point )
G00 Z0.05906 ( retract )

G00 X3.72800 Y-4.61876 ( rapid move to begin. )
F3.93701
G01 Z-0.00157
G04 P0 ( dwell for no time -- G64 should not smooth over this point )
F7.87402
X3.72800 Y-4.61876
X3.72700 Y-4.92076
X3.65400 Y-4.92076
X3.65400 Y-4.91876
X3.52600 Y-4.79176
X3.52600 Y-4.78176
X3.52100 Y-4.77676
X3.51600 Y-4.76576
X3.51300 Y-4.75276
X3.51300 Y-4.74176
X3.50800 Y-4.73776
X3.50900 Y-4.56976
X3.51300 Y-4.56676
X3.51400 Y-4.55276
X3.51700 Y-4.54576
X3.51700 Y-4.54176
X3.52100 Y-4.53576
X3.52100 Y-4.53276
X3.52600 Y-4.52776
X3.52600 Y-4.51976
X3.52200 Y-4.51676
X3.52200 Y-4.51276
X3.69300 Y-4.34176
X3.72700 Y-4.34176
X3.72800 Y-4.61876
G04 P0 ( dwell for no time -- G64 should not smooth over this point )
G00 Z0.05906 ( retract )

G00 X3.50900 Y-4.60576 ( rapid move to begin. )
F3.93701
G01 Z-0.00157
G04 P0 ( dwell for no time -- G64 should not smooth over this point )
F7.87402
X3.50900 Y-4.60576
X3.50900 Y-4.66076
X3.45600 Y-4.66176
X3.30900 Y-4.66076
X3.25800 Y-4.60876
X3.25600 Y-4.60876
X3.25600 Y-4.51676
X3.25200 Y-4.51376
X3.25100 Y-4.50376
X3.24800 Y-4.49776
X3.24600 Y-4.49676
X3.24600 Y-4.48476
X3.25100 Y-4.47976
X3.26100 Y-4.47976
X3.26300 Y-4.47776
X3.27100 Y-4.47676
X3.27500 Y-4.47176
X3.32200 Y-4.47176
X3.32500 Y-4.46776
X3.48800 Y-4.46776
X3.49100 Y-4.46376
X3.50200 Y-4.46276
X3.50800 Y-4.45976
X3.50900 Y-4.45776
X3.51800 Y-4.45776
X3.63900 Y-4.33676
X3.63900 Y-4.33476
X3.68000 Y-4.33476
X3.68400 Y-4.33976
X3.69300 Y-4.34076
X3.69300 Y-4.34276
X3.52200 Y-4.51276
X3.52200 Y-4.51676
X3.52600 Y-4.51976
X3.52600 Y-4.52776
X3.52100 Y-4.53276
X3.52100 Y-4.53576
X3.51700 Y-4.54176
X3.51700 Y-4.54576
X3.51400 Y-4.55276
X3.51300 Y-4.56676
X3.50900 Y-4.56976
X3.50900 Y-4.60576
G04 P0 ( dwell for no time -- G64 should not smooth over this point )
G00 Z0.05906 ( retract )

G00 X3.50800 Y-4.68376 ( rapid move to begin. )
F3.93701
G01 Z-0.00157
G04 P0 ( dwell for no time -- G64 should not smooth over this point )
F7.87402
X3.50800 Y-4.68376
X3.50800 Y-4.73776
X3.51300 Y-4.74176
X3.51300 Y-4.75276
X3.51600 Y-4.76576
X3.52100 Y-4.77676
X3.52600 Y-4.78176
X3.52600 Y-4.79176
X3.65400 Y-4.91876
X3.65400 Y-4.92076
X3.45200 Y-4.92076
X3.45200 Y-4.91876
X3.32900 Y-4.79676
X3.32900 Y-4.78676
X3.32600 Y-4.78376
X3.32500 Y-4.77576
X3.32100 Y-4.77276
X3.32100 Y-4.69276
X3.31600 Y-4.68876
X3.31500 Y-4.67776
X3.31200 Y-4.67176
X3.31000 Y-4.67076
X3.31000 Y-4.66076
X3.36300 Y-4.66176
X3.50800 Y-4.66076
X3.50800 Y-4.68376
G04 P0 ( dwell for no time -- G64 should not smooth over this point )
G00 Z0.05906 ( retract )

G00 X3.32100 Y-4.74376 ( rapid move to begin. )
F3.93701
G01 Z-0.00157
G04 P0 ( dwell for no time -- G64 should not smooth over this point )
F7.87402
X3.32100 Y-4.74376
X3.32100 Y-4.77276
X3.32500 Y-4.77576
X3.32600 Y-4.78376
X3.32900 Y-4.78676
X3.32900 Y-4.79676
X3.45200 Y-4.91876
X3.45200 Y-4.92076
X3.15200 Y-4.92076
X3.15300 Y-4.71876
X3.15600 Y-4.71476
X3.16300 Y-4.71276
X3.16300 Y-4.70876
X3.16500 Y-4.70576
X3.17100 Y-4.70476
X3.17200 Y-4.70076
X3.17400 Y-4.69976
X3.17400 Y-4.68976
X3.25500 Y-4.60876
X3.25800 Y-4.60876
X3.31000 Y-4.66076
X3.31000 Y-4.67076
X3.31200 Y-4.67176
X3.31500 Y-4.67776
X3.31600 Y-4.68876
X3.32100 Y-4.69276
X3.32100 Y-4.74376
G04 P0 ( dwell for no time -- G64 should not smooth over this point )
G00 Z0.05906 ( retract )

G00 X3.23000 Y-4.63376 ( rapid move to begin. )
F3.93701
G01 Z-0.00157
G04 P0 ( dwell for no time -- G64 should not smooth over this point )
F7.87402
X3.23000 Y-4.63376
X3.17400 Y-4.68976
X3.17400 Y-4.69976
X3.17200 Y-4.70076
X3.17100 Y-4.70476
X3.16700 Y-4.70476
X3.16400 Y-4.70676
X3.16300 Y-4.71276
X3.15500 Y-4.71576
X3.15500 Y-4.71776
X3.15300 Y-4.71876
X3.15300 Y-4.72676
X3.15100 Y-4.72676
X3.14500 Y-4.71976
X3.13500 Y-4.71976
X3.13400 Y-4.71776
X3.12800 Y-4.71476
X3.11600 Y-4.71376
X3.11200 Y-4.70876
X3.06400 Y-4.70876
X3.06100 Y-4.70476
X3.04800 Y-4.70276
X3.04700 Y-4.69476
X3.04300 Y-4.69176
X3.04300 Y-4.62676
X3.03900 Y-4.62376
X3.03800 Y-4.61676
X3.03500 Y-4.61376
X3.03500 Y-4.60776
X3.03900 Y-4.60476
X3.04000 Y-4.59576
X2.96100 Y-4.51776
X2.96200 Y-4.51076
X2.96500 Y-4.50776
X2.96500 Y-4.49776
X2.97600 Y-4.48776
X2.97600 Y-4.48576
X3.24600 Y-4.48576
X3.24600 Y-4.49676
X3.24800 Y-4.49776
X3.25100 Y-4.50376
X3.25200 Y-4.51376
X3.25600 Y-4.51676
X3.25600 Y-4.60876
X3.23000 Y-4.63376
G04 P0 ( dwell for no time -- G64 should not smooth over this point )
G00 Z0.05906 ( retract )

G00 X3.15300 Y-4.74376 ( rapid move to begin. )
F3.93701
G01 Z-0.00157
G04 P0 ( dwell for no time -- G64 should not smooth over this point )
F7.87402
X3.15300 Y-4.74376
X3.15200 Y-4.92076
X2.87000 Y-4.92076
X2.87000 Y-4.86976
X2.93100 Y-4.80976
X2.93100 Y-4.80376
X2.93300 Y-4.80376
X3.01300 Y-4.72276
X3.02300 Y-4.72276
X3.02400 Y-4.72076
X3.02800 Y-4.71976
X3.03100 Y-4.71276
X3.03700 Y-4.71076
X3.03800 Y-4.70376
X3.05100 Y-4.70276
X3.05500 Y-4.70476
X3.06100 Y-4.70476
X3.06400 Y-4.70876
X3.11200 Y-4.70876
X3.11600 Y-4.71376
X3.12800 Y-4.71476
X3.13400 Y-4.71776
X3.13500 Y-4.71976
X3.14500 Y-4.71976
X3.15100 Y-4.72676
X3.15300 Y-4.72676
X3.15300 Y-4.74376
G04 P0 ( dwell for no time -- G64 should not smooth over this point )
G00 Z0.05906 ( retract )

G00 X3.04300 Y-4.64776 ( rapid move to begin. )
F3.93701
G01 Z-0.00157
G04 P0 ( dwell for no time -- G64 should not smooth over this point )
F7.87402
X3.04300 Y-4.64776
X3.04300 Y-4.69176
X3.04700 Y-4.69476
X3.04800 Y-4.70276
X3.03800 Y-4.70376
X3.03700 Y-4.71076
X3.03200 Y-4.71176
X3.02900 Y-4.71876
X3.02400 Y-4.72076
X3.02300 Y-4.72276
X3.01300 Y-4.72276
X2.93300 Y-4.80376
X2.93000 Y-4.80376
X2.89800 Y-4.77176
X2.89800 Y-4.76776
X2.90000 Y-4.76676
X2.90300 Y-4.76076
X2.90200 Y-4.74476
X2.89800 Y-4.74176
X2.89800 Y-4.73676
X2.90200 Y-4.73376
X2.90200 Y-4.59076
X2.90600 Y-4.58776
X2.90700 Y-4.58076
X2.91000 Y-4.57776
X2.91000 Y-4.56676
X2.95900 Y-4.51776
X2.96200 Y-4.51776
X3.04000 Y-4.59576
X3.04000 Y-4.60176
X3.03900 Y-4.60476
X3.03500 Y-4.60776
X3.03500 Y-4.61376
X3.03800 Y-4.61676
X3.03900 Y-4.62376
X3.04300 Y-4.62676
X3.04300 Y-4.64776
G04 P0 ( dwell for no time -- G64 should not smooth over this point )
G00 Z0.05906 ( retract )

G00 X2.92600 Y-4.55076 ( rapid move to begin. )
F3.93701
G01 Z-0.00157
G04 P0 ( dwell for no time -- G64 should not smooth over this point )
F7.87402
X2.92600 Y-4.55076
X2.91000 Y-4.56676
X2.91000 Y-4.57776
X2.90700 Y-4.58076
X2.90600 Y-4.58776
X2.90200 Y-4.59076
X2.90200 Y-4.73376
X2.89800 Y-4.73676
X2.89800 Y-4.74176
X2.90200 Y-4.74476
X2.90300 Y-4.76076
X2.90000 Y-4.76676
X2.89800 Y-4.76776
X2.89800 Y-4.77176
X2.93100 Y-4.80376
X2.93100 Y-4.80976
X2.87100 Y-4.86976
X2.86900 Y-4.86976
X2.74500 Y-4.74576
X2.74500 Y-4.73676
X2.74300 Y-4.73576
X2.74000 Y-4.72976
X2.73700 Y-4.71376
X2.73300 Y-4.71076
X2.73300 Y-4.70576
X2.72800 Y-4.70076
X2.72800 Y-4.69376
X2.72600 Y-4.68776
X2.72300 Y-4.68176
X2.72100 Y-4.68076
X2.72100 Y-4.67076
X2.68800 Y-4.63876
X2.68800 Y-4.63676
X2.72600 Y-4.59976
X2.72600 Y-4.59076
X2.72800 Y-4.58976
X2.73200 Y-4.58176
X2.73400 Y-4.57476
X2.73400 Y-4.56676
X2.73800 Y-4.56376
X2.73800 Y-4.52976
X2.74300 Y-4.52576
X2.74400 Y-4.51576
X2.74700 Y-4.50776
X2.75000 Y-4.50476
X2.75000 Y-4.49476
X2.79600 Y-4.44876
X2.81900 Y-4.44876
X2.82200 Y-4.44476
X2.83800 Y-4.44276
X2.84800 Y-4.43876
X2.85200 Y-4.43476
X2.86100 Y-4.43476
X2.90200 Y-4.39276
X2.90400 Y-4.39276
X2.93400 Y-4.42276
X2.93500 Y-4.43476
X2.94400 Y-4.43776
X2.94600 Y-4.44676
X2.95300 Y-4.44976
X2.95600 Y-4.45676
X2.95900 Y-4.45876
X2.95900 Y-4.46876
X2.97600 Y-4.48476
X2.97600 Y-4.48776
X2.96500 Y-4.49776
X2.96500 Y-4.50776
X2.96200 Y-4.51076
X2.96100 Y-4.51776
X2.95900 Y-4.51776
X2.92600 Y-4.55076
G04 P0 ( dwell for no time -- G64 should not smooth over this point )
G00 Z0.05906 ( retract )

G00 X2.75000 Y-4.49576 ( rapid move to begin. )
F3.93701
G01 Z-0.00157
G04 P0 ( dwell for no time -- G64 should not smooth over this point )
F7.87402
X2.75000 Y-4.49576
X2.75000 Y-4.50476
X2.74600 Y-4.50976
X2.74300 Y-4.51976
X2.74300 Y-4.52576
X2.73800 Y-4.52976
X2.73800 Y-4.56376
X2.73400 Y-4.56676
X2.73400 Y-4.57476
X2.73200 Y-4.58176
X2.72800 Y-4.58976
X2.72600 Y-4.59076
X2.72600 Y-4.59976
X2.68800 Y-4.63776
X2.47900 Y-4.63776
X2.47600 Y-4.64176
X2.46600 Y-4.64376
X2.46000 Y-4.64376
X2.45800 Y-4.64076
X2.45200 Y-4.64176
X2.44900 Y-4.64476
X2.44000 Y-4.64176
X2.43000 Y-4.64176
X2.41300 Y-4.65976
X2.41100 Y-4.65976
X2.41100 Y-4.65576
X2.40700 Y-4.65276
X2.40700 Y-4.55076
X2.40300 Y-4.54776
X2.40100 Y-4.52376
X2.43100 Y-4.49476
X2.43100 Y-4.48476
X2.43400 Y-4.48176
X2.43500 Y-4.47376
X2.43900 Y-4.47076
X2.43900 Y-4.44676
X2.45300 Y-4.43276
X2.46300 Y-4.43276
X2.46600 Y-4.42976
X2.47400 Y-4.42676
X2.48500 Y-4.42576
X2.48900 Y-4.42076
X2.74500 Y-4.42076
X2.74900 Y-4.42576
X2.76100 Y-4.42676
X2.76900 Y-4.42976
X2.77200 Y-4.43276
X2.78100 Y-4.43276
X2.79600 Y-4.44776
X2.79600 Y-4.44976
X2.75000 Y-4.49576
G04 P0 ( dwell for no time -- G64 should not smooth over this point )
G00 Z0.05906 ( retract )

G00 X2.66600 Y-4.28976 ( rapid move to begin. )
F3.93701
G01 Z-0.00157
G04 P0 ( dwell for no time -- G64 should not smooth over this point )
F7.87402
X2.66600 Y-4.28976
X2.66600 Y-4.42076
X2.56600 Y-4.42076
X2.56700 Y-4.38776
X2.56600 Y-4.02976
X2.66600 Y-4.02976
X2.66600 Y-4.28976
G04 P0 ( dwell for no time -- G64 should not smooth over this point )
G00 Z0.05906 ( retract )

G00 X2.56600 Y-4.28976 ( rapid move to begin. )
F3.93701
G01 Z-0.00157
G04 P0 ( dwell for no time -- G64 should not smooth over this point )
F7.87402
X2.56600 Y-4.28976
X2.56700 Y-4.34776
X2.56600 Y-4.42076
X2.48900 Y-4.42076
X2.48500 Y-4.42576
X2.47400 Y-4.42676
X2.46600 Y-4.42976
X2.46300 Y-4.43276
X2.45300 Y-4.43276
X2.44000 Y-4.44676
X2.43700 Y-4.44676
X2.42600 Y-4.43576
X2.42600 Y-4.42676
X2.42300 Y-4.42376
X2.41900 Y-4.41476
X2.41700 Y-4.40676
X2.41700 Y-4.39776
X2.41200 Y-4.39376
X2.41200 Y-4.29276
X2.40800 Y-4.28976
X2.40800 Y-4.28476
X2.40400 Y-4.27876
X2.40400 Y-4.26876
X2.05200 Y-3.91776
X2.05200 Y-3.91576
X2.06900 Y-3.89876
X2.07900 Y-3.89876
X2.08200 Y-3.89576
X2.09100 Y-3.89176
X2.10700 Y-3.88976
X2.11100 Y-3.88476
X2.18400 Y-3.88476
X2.18400 Y-3.88676
X2.21100 Y-3.91376
X2.22100 Y-3.91376
X2.22400 Y-3.91676
X2.23200 Y-3.91776
X2.23500 Y-3.92176
X2.26300 Y-3.92176
X2.26300 Y-3.92376
X2.28100 Y-3.94176
X2.29100 Y-3.94176
X2.29500 Y-3.94476
X2.30100 Y-3.94476
X2.30500 Y-3.94976
X2.47000 Y-3.94976
X2.54100 Y-4.02176
X2.55100 Y-4.02176
X2.55400 Y-4.02476
X2.56200 Y-4.02576
X2.56600 Y-4.02976
X2.56700 Y-4.24876
X2.56600 Y-4.28976
G04 P0 ( dwell for no time -- G64 should not smooth over this point )
G00 Z0.05906 ( retract )

G00 X2.41200 Y-4.35276 ( rapid move to begin. )
F3.93701
G01 Z-0.00157
G04 P0 ( dwell for no time -- G64 should not smooth over this point )
F7.87402
X2.41200 Y-4.35276
X2.41200 Y-4.39376
X2.41700 Y-4.39776
X2.41700 Y-4.40676
X2.42000 Y-4.41776
X2.42600 Y-4.42676
X2.42600 Y-4.43576
X2.43700 Y-4.44676
X2.43900 Y-4.44676
X2.43900 Y-4.47076
X2.43500 Y-4.47376
X2.43400 Y-4.48176
X2.43100 Y-4.48476
X2.43100 Y-4.49476
X2.40200 Y-4.52376
X2.39900 Y-4.52376
X2.39800 Y-4.52176
X2.39500 Y-4.52176
X2.38200 Y-4.51476
X2.35900 Y-4.50776
X2.33500 Y-4.50376
X2.32100 Y-4.50376
X2.31700 Y-4.49876
X2.20600 Y-4.49876
X2.20300 Y-4.49476
X2.19500 Y-4.49376
X2.19200 Y-4.49076
X2.18200 Y-4.49076
X1.96900 Y-4.27676
X1.96700 Y-4.27676
X1.96700 Y-3.90876
X1.97300 Y-3.91176
X1.97900 Y-3.91176
X1.98300 Y-3.91676
X2.05200 Y-3.91676
X2.40400 Y-4.26876
X2.40400 Y-4.27876
X2.40800 Y-4.28476
X2.40800 Y-4.28976
X2.41200 Y-4.29276
X2.41200 Y-4.35276
G04 P0 ( dwell for no time -- G64 should not smooth over this point )
G00 Z0.05906 ( retract )

G00 X2.40700 Y-4.61276 ( rapid move to begin. )
F3.93701
G01 Z-0.00157
G04 P0 ( dwell for no time -- G64 should not smooth over this point )
F7.87402
X2.40700 Y-4.61276
X2.40700 Y-4.65276
X2.41100 Y-4.65576
X2.41200 Y-4.65976
X2.41200 Y-4.82276
X2.40800 Y-4.82576
X2.40600 Y-4.85476
X2.39700 Y-4.88676
X2.39000 Y-4.89976
X2.39000 Y-4.90276
X2.38800 Y-4.90376
X2.38300 Y-4.91376
X2.37900 Y-4.91676
X2.37800 Y-4.92076
X1.96900 Y-4.92076
X1.96700 Y-4.91876
X1.96700 Y-4.27676
X1.96900 Y-4.27676
X2.18200 Y-4.49076
X2.19200 Y-4.49076
X2.19500 Y-4.49376
X2.20300 Y-4.49476
X2.20600 Y-4.49876
X2.31700 Y-4.49876
X2.32100 Y-4.50376
X2.34300 Y-4.50476
X2.36700 Y-4.50976
X2.38700 Y-4.51676
X2.40100 Y-4.52376
X2.40300 Y-4.54776
X2.40700 Y-4.55076
X2.40700 Y-4.61276
G04 P0 ( dwell for no time -- G64 should not smooth over this point )
G00 Z0.05906 ( retract )

G00 X2.74100 Y-4.73176 ( rapid move to begin. )
F3.93701
G01 Z-0.00157
G04 P0 ( dwell for no time -- G64 should not smooth over this point )
F7.87402
X2.74100 Y-4.73176
X2.74500 Y-4.73676
X2.74500 Y-4.74576
X2.87000 Y-4.86976
X2.87000 Y-4.92076
X2.37800 Y-4.92076
X2.37900 Y-4.91676
X2.38300 Y-4.91376
X2.38800 Y-4.90376
X2.39000 Y-4.90276
X2.39000 Y-4.89976
X2.39700 Y-4.88676
X2.40600 Y-4.85476
X2.40800 Y-4.82576
X2.41200 Y-4.82276
X2.41200 Y-4.65976
X2.43000 Y-4.64176
X2.44000 Y-4.64176
X2.44900 Y-4.64476
X2.45200 Y-4.64176
X2.45600 Y-4.64076
X2.45800 Y-4.64076
X2.46000 Y-4.64376
X2.47200 Y-4.64276
X2.47600 Y-4.64176
X2.47900 Y-4.63776
X2.68800 Y-4.63776
X2.72100 Y-4.67076
X2.72100 Y-4.68076
X2.72300 Y-4.68176
X2.72600 Y-4.68776
X2.72800 Y-4.69376
X2.72800 Y-4.70076
X2.73300 Y-4.70576
X2.73300 Y-4.71076
X2.73700 Y-4.71376
X2.73800 Y-4.72376
X2.74100 Y-4.73176
G04 P0 ( dwell for no time -- G64 should not smooth over this point )
G00 Z0.05906 ( retract )

G00 X2.90300 Y-4.28976 ( rapid move to begin. )
F3.93701
G01 Z-0.00157
G04 P0 ( dwell for no time -- G64 should not smooth over this point )
F7.87402
X2.90300 Y-4.28976
X2.90300 Y-4.39276
X2.86100 Y-4.43476
X2.85200 Y-4.43476
X2.84800 Y-4.43876
X2.84300 Y-4.43976
X2.84100 Y-4.44176
X2.82200 Y-4.44476
X2.81900 Y-4.44876
X2.79600 Y-4.44876
X2.78100 Y-4.43276
X2.77200 Y-4.43276
X2.76900 Y-4.42976
X2.76100 Y-4.42676
X2.74900 Y-4.42576
X2.74500 Y-4.42076
X2.66600 Y-4.42076
X2.66600 Y-4.02976
X2.83000 Y-4.02976
X2.83000 Y-4.03176
X2.90200 Y-4.10276
X2.90200 Y-4.10576
X2.89900 Y-4.10876
X2.89500 Y-4.11976
X2.89600 Y-4.12276
X2.89900 Y-4.12476
X2.89900 Y-4.13076
X2.90100 Y-4.13276
X2.90200 Y-4.13876
X2.90200 Y-4.14076
X2.89800 Y-4.14376
X2.89800 Y-4.15276
X2.89900 Y-4.15576
X2.90300 Y-4.15876
X2.90300 Y-4.28976
G04 P0 ( dwell for no time -- G64 should not smooth over this point )
G00 Z0.05906 ( retract )

G00 X3.13900 Y-4.28276 ( rapid move to begin. )
F3.93701
G01 Z-0.00157
G04 P0 ( dwell for no time -- G64 should not smooth over this point )
F7.87402
X3.13900 Y-4.28276
X3.13800 Y-4.48576
X2.97600 Y-4.48576
X2.95900 Y-4.46876
X2.95900 Y-4.45876
X2.95600 Y-4.45676
X2.95300 Y-4.44976
X2.94600 Y-4.44676
X2.94400 Y-4.43776
X2.93500 Y-4.43476
X2.93400 Y-4.42276
X2.90300 Y-4.39276
X2.90300 Y-4.15876
X2.89900 Y-4.15576
X2.89800 Y-4.15276
X2.89800 Y-4.14376
X2.90200 Y-4.14076
X2.90200 Y-4.13876
X2.90100 Y-4.13276
X2.89900 Y-4.13076
X2.89900 Y-4.12476
X2.89600 Y-4.12276
X2.89500 Y-4.11976
X2.89600 Y-4.11476
X2.90000 Y-4.10676
X2.90200 Y-4.10576
X2.90200 Y-4.10276
X2.83000 Y-4.03176
X2.83000 Y-4.02876
X2.83200 Y-4.02676
X3.08300 Y-4.02676
X3.08800 Y-4.02176
X3.09400 Y-4.02176
X3.09800 Y-4.01876
X3.10700 Y-4.01876
X3.13500 Y-3.98976
X3.13800 Y-3.98976
X3.13900 Y-4.28276
G04 P0 ( dwell for no time -- G64 should not smooth over this point )
G00 Z0.05906 ( retract )

G00 X3.27200 Y-4.28276 ( rapid move to begin. )
F3.93701
G01 Z-0.00157
G04 P0 ( dwell for no time -- G64 should not smooth over this point )
F7.87402
X3.27200 Y-4.28276
X3.27200 Y-4.37876
X3.27600 Y-4.39676
X3.27100 Y-4.40576
X3.27100 Y-4.41376
X3.32500 Y-4.46676
X3.32500 Y-4.46876
X3.32200 Y-4.47176
X3.27500 Y-4.47176
X3.27100 Y-4.47676
X3.26300 Y-4.47776
X3.26100 Y-4.47976
X3.25100 Y-4.47976
X3.24600 Y-4.48576
X3.13800 Y-4.48576
X3.13800 Y-3.98976
X3.20600 Y-3.98976
X3.21100 Y-3.98476
X3.21700 Y-3.98476
X3.22100 Y-3.98176
X3.23000 Y-3.98176
X3.30000 Y-3.91076
X3.49400 Y-3.91076
X3.52600 Y-3.94276
X3.52600 Y-3.95176
X3.26800 Y-4.20876
X3.27600 Y-4.22376
X3.27200 Y-4.24176
X3.27200 Y-4.28276
G04 P0 ( dwell for no time -- G64 should not smooth over this point )
G00 Z0.05906 ( retract )

G00 X3.61700 Y-4.28976 ( rapid move to begin. )
F3.93701
G01 Z-0.00157
G04 P0 ( dwell for no time -- G64 should not smooth over this point )
F7.87402
X3.61700 Y-4.28976
X3.61700 Y-4.29676
X3.62200 Y-4.30076
X3.62200 Y-4.30676
X3.62500 Y-4.31076
X3.62500 Y-4.32076
X3.63900 Y-4.33376
X3.63900 Y-4.33676
X3.51800 Y-4.45776
X3.50900 Y-4.45776
X3.50800 Y-4.45976
X3.50200 Y-4.46276
X3.49100 Y-4.46376
X3.48800 Y-4.46776
X3.32500 Y-4.46776
X3.27100 Y-4.41376
X3.27100 Y-4.40576
X3.27600 Y-4.39676
X3.27200 Y-4.37876
X3.27200 Y-4.24176
X3.27600 Y-4.22376
X3.26800 Y-4.20876
X3.52500 Y-3.95176
X3.52800 Y-3.95176
X3.60700 Y-4.03076
X3.60700 Y-4.04076
X3.60900 Y-4.04176
X3.61200 Y-4.04776
X3.61300 Y-4.05776
X3.61700 Y-4.06076
X3.61700 Y-4.28976
G04 P0 ( dwell for no time -- G64 should not smooth over this point )
G00 Z0.05906 ( retract )

G00 X3.98300 Y-4.03176 ( rapid move to begin. )
F3.93701
G01 Z-0.00157
G04 P0 ( dwell for no time -- G64 should not smooth over this point )
F7.87402
X3.98300 Y-4.03176
X3.98300 Y-4.13276
X3.97900 Y-4.13576
X3.97800 Y-4.14376
X3.97500 Y-4.14676
X3.97500 Y-4.15676
X3.79000 Y-4.34176
X3.69300 Y-4.34176
X3.68900 Y-4.33976
X3.68400 Y-4.33976
X3.68000 Y-4.33476
X3.63900 Y-4.33476
X3.62500 Y-4.32076
X3.62500 Y-4.31076
X3.62200 Y-4.30676
X3.62200 Y-4.30076
X3.61700 Y-4.29676
X3.61700 Y-4.06076
X3.61300 Y-4.05776
X3.61200 Y-4.04776
X3.60900 Y-4.04176
X3.60700 Y-4.04076
X3.60700 Y-4.03076
X3.52800 Y-3.95176
X3.52600 Y-3.95176
X3.52600 Y-3.94276
X3.49400 Y-3.91176
X3.49400 Y-3.90976
X3.50700 Y-3.89776
X3.50700 Y-3.88876
X3.51100 Y-3.88276
X3.51100 Y-3.87676
X3.51500 Y-3.87376
X3.51500 Y-3.86976
X3.60100 Y-3.78376
X3.61000 Y-3.78376
X3.61100 Y-3.77676
X3.61700 Y-3.77476
X3.61800 Y-3.76776
X3.62600 Y-3.76776
X3.76400 Y-3.62976
X3.76400 Y-3.62776
X3.78800 Y-3.62776
X3.78800 Y-3.62976
X3.91800 Y-3.75976
X3.92800 Y-3.75976
X3.93100 Y-3.76276
X3.93500 Y-3.76276
X3.93500 Y-3.76476
X4.04200 Y-3.87076
X4.04200 Y-3.88076
X4.04600 Y-3.88676
X4.04600 Y-3.89176
X4.05000 Y-3.89476
X4.05000 Y-3.90376
X3.99100 Y-3.96176
X3.99100 Y-3.97276
X3.98800 Y-3.97576
X3.98700 Y-3.98276
X3.98300 Y-3.98576
X3.98300 Y-4.03176
G04 P0 ( dwell for no time -- G64 should not smooth over this point )
G00 Z0.05906 ( retract )

G00 X4.16600 Y-4.05476 ( rapid move to begin. )
F3.93701
G01 Z-0.00157
G04 P0 ( dwell for no time -- G64 should not smooth over this point )
F7.87402
X4.16600 Y-4.05476
X4.16600 Y-4.09376
X4.17100 Y-4.09776
X4.17100 Y-4.10376
X4.17400 Y-4.10776
X4.17400 Y-4.11776
X4.26700 Y-4.20976
X4.26700 Y-4.21276
X4.25400 Y-4.22576
X4.24500 Y-4.22576
X4.24100 Y-4.22876
X4.23500 Y-4.22876
X4.23000 Y-4.23376
X4.17400 Y-4.23376
X4.17100 Y-4.23776
X4.15700 Y-4.24076
X4.15400 Y-4.24376
X4.14400 Y-4.24376
X4.03600 Y-4.35276
X3.81600 Y-4.35276
X3.81300 Y-4.34876
X3.80500 Y-4.34776
X3.80200 Y-4.34476
X3.79200 Y-4.34476
X3.79000 Y-4.34276
X3.79000 Y-4.34076
X3.97500 Y-4.15676
X3.97500 Y-4.14676
X3.97800 Y-4.14376
X3.97900 Y-4.13576
X3.98300 Y-4.13276
X3.98300 Y-3.98576
X3.98700 Y-3.98276
X3.98800 Y-3.97576
X3.99100 Y-3.97276
X3.99100 Y-3.96176
X4.04900 Y-3.90376
X4.05200 Y-3.90376
X4.06400 Y-3.91676
X4.07400 Y-3.91676
X4.07800 Y-3.91976
X4.08400 Y-3.91976
X4.08800 Y-3.92476
X4.10400 Y-3.92476
X4.15800 Y-3.97876
X4.15800 Y-3.98876
X4.16200 Y-3.99476
X4.16200 Y-3.99976
X4.16600 Y-4.00276
X4.16600 Y-4.05476
G04 P0 ( dwell for no time -- G64 should not smooth over this point )
G00 Z0.05906 ( retract )

G00 X4.26700 Y-3.47176 ( rapid move to begin. )
F3.93701
G01 Z-0.00157
G04 P0 ( dwell for no time -- G64 should not smooth over this point )
F7.87402
X4.26700 Y-3.47176
X4.25700 Y-3.48176
X4.25700 Y-3.49276
X4.25400 Y-3.49576
X4.25300 Y-3.50276
X4.24900 Y-3.50576
X4.24900 Y-3.51376
X4.24500 Y-3.51676
X4.24400 Y-3.52476
X4.24100 Y-3.52776
X4.24100 Y-3.53776
X4.20500 Y-3.57376
X4.16100 Y-3.57376
X4.15700 Y-3.57876
X4.14900 Y-3.57976
X4.14700 Y-3.58176
X4.13700 Y-3.58176
X4.08100 Y-3.63876
X4.07800 Y-3.63876
X4.07600 Y-3.64076
X4.06900 Y-3.64076
X4.06600 Y-3.63676
X4.06000 Y-3.63676
X3.93500 Y-3.76276
X3.93100 Y-3.76276
X3.92800 Y-3.75976
X3.91800 Y-3.75976
X3.78800 Y-3.62976
X3.78800 Y-3.62676
X3.92600 Y-3.48976
X3.92600 Y-3.47976
X3.92900 Y-3.47676
X3.93000 Y-3.46876
X3.93400 Y-3.46576
X3.93400 Y-3.40576
X4.02100 Y-3.31876
X4.03100 Y-3.31876
X4.03500 Y-3.31576
X4.04100 Y-3.31576
X4.04500 Y-3.31076
X4.05400 Y-3.31076
X4.11400 Y-3.37176
X4.12400 Y-3.37176
X4.12700 Y-3.37476
X4.13500 Y-3.37576
X4.13800 Y-3.37976
X4.18700 Y-3.37976
X4.18700 Y-3.38176
X4.23100 Y-3.42576
X4.24100 Y-3.42576
X4.24500 Y-3.42876
X4.25000 Y-3.42876
X4.25100 Y-3.43876
X4.25700 Y-3.43876
X4.26100 Y-3.44176
X4.27000 Y-3.44176
X4.28300 Y-3.45476
X4.28300 Y-3.45676
X4.26700 Y-3.47176
G04 P0 ( dwell for no time -- G64 should not smooth over this point )
G00 Z0.05906 ( retract )

G00 X4.35400 Y-2.88376 ( rapid move to begin. )
F3.93701
G01 Z-0.00157
G04 P0 ( dwell for no time -- G64 should not smooth over this point )
F7.87402
X4.35400 Y-2.88376
X4.36800 Y-2.89776
X4.37000 Y-2.89776
X4.37000 Y-2.93376
X4.36800 Y-2.93376
X4.24700 Y-3.05576
X4.23800 Y-3.05576
X4.23400 Y-3.05876
X4.22800 Y-3.05876
X4.22300 Y-3.06376
X4.13900 Y-3.06476
X4.09800 Y-3.02276
X4.08900 Y-3.02276
X4.08500 Y-3.01976
X4.07900 Y-3.01976
X4.07400 Y-3.01476
X3.97600 Y-3.01476
X3.97200 Y-3.00976
X3.96600 Y-3.00976
X3.96200 Y-3.00676
X3.95200 Y-3.00676
X3.89900 Y-2.95376
X3.89900 Y-2.87976
X3.96900 Y-2.81076
X3.97100 Y-2.80576
X3.98500 Y-2.80276
X3.98900 Y-2.79776
X4.07900 Y-2.79776
X4.08200 Y-2.79376
X4.09100 Y-2.79276
X4.09400 Y-2.78976
X4.10300 Y-2.78976
X4.13900 Y-2.75376
X4.13900 Y-2.75176
X4.20700 Y-2.75176
X4.21100 Y-2.75676
X4.22000 Y-2.75776
X4.22200 Y-2.75976
X4.23100 Y-2.75976
X4.28200 Y-2.81176
X4.28400 Y-2.81176
X4.28400 Y-2.81376
X4.33200 Y-2.86176
X4.33400 Y-2.86176
X4.33400 Y-2.86376
X4.35400 Y-2.88376
G04 P0 ( dwell for no time -- G64 should not smooth over this point )
G00 Z0.05906 ( retract )

G00 X4.73000 Y-2.57376 ( rapid move to begin. )
F3.93701
G01 Z-0.00157
G04 P0 ( dwell for no time -- G64 should not smooth over this point )
F7.87402
X4.73000 Y-2.57376
X4.85000 Y-2.69276
X4.85000 Y-2.69576
X4.69100 Y-2.85476
X4.68200 Y-2.85476
X4.67800 Y-2.85876
X4.67500 Y-2.85876
X4.67300 Y-2.86076
X4.65900 Y-2.86276
X4.65600 Y-2.86676
X4.41700 Y-2.86676
X4.41300 Y-2.87176
X4.40700 Y-2.87176
X4.40300 Y-2.87476
X4.39300 Y-2.87476
X4.38600 Y-2.88276
X4.38400 Y-2.88276
X4.38400 Y-2.49476
X4.43900 Y-2.49476
X4.44200 Y-2.49076
X4.45100 Y-2.48976
X4.45400 Y-2.48676
X4.46300 Y-2.48676
X4.52800 Y-2.42076
X4.53000 Y-2.42076
X4.53300 Y-2.42476
X4.55900 Y-2.42476
X4.56200 Y-2.42876
X4.57600 Y-2.43076
X4.58400 Y-2.43576
X4.59300 Y-2.43576
X4.73000 Y-2.57376
G04 P0 ( dwell for no time -- G64 should not smooth over this point )
G00 Z0.05906 ( retract )

G00 X4.92100 Y-2.13276 ( rapid move to begin. )
F3.93701
G01 Z-0.00157
G04 P0 ( dwell for no time -- G64 should not smooth over this point )
F7.87402
X4.92100 Y-2.13276
X4.92100 Y-2.69376
X4.85000 Y-2.69376
X4.59300 Y-2.43576
X4.58400 Y-2.43576
X4.57600 Y-2.43076
X4.56200 Y-2.42876
X4.55900 Y-2.42476
X4.53300 Y-2.42476
X4.52300 Y-2.41476
X4.51100 Y-2.39276
X4.50200 Y-2.36476
X4.49800 Y-2.34076
X4.49800 Y-2.32676
X4.49300 Y-2.32276
X4.49300 Y-2.28076
X4.48900 Y-2.27776
X4.48900 Y-2.27276
X4.48500 Y-2.26676
X4.48500 Y-2.25676
X4.31500 Y-2.08776
X4.31500 Y-1.96676
X4.91900 Y-1.96676
X4.92100 Y-1.96876
X4.92100 Y-2.13276
G04 P0 ( dwell for no time -- G64 should not smooth over this point )
G00 Z0.05906 ( retract )

G00 X4.85300 Y-3.11276 ( rapid move to begin. )
F3.93701
G01 Z-0.00157
G04 P0 ( dwell for no time -- G64 should not smooth over this point )
F7.87402
X4.85300 Y-3.11276
X4.76300 Y-3.20376
X4.75300 Y-3.20376
X4.74700 Y-3.20076
X4.73200 Y-3.20376
X4.58800 Y-3.20276
X4.58600 Y-3.20076
X4.58200 Y-3.20076
X4.57400 Y-3.20376
X4.57300 Y-3.20576
X4.56700 Y-3.20576
X4.47700 Y-3.11576
X4.47700 Y-3.05576
X4.47300 Y-3.05276
X4.47200 Y-3.04576
X4.46900 Y-3.04276
X4.46900 Y-3.03176
X4.37000 Y-2.93376
X4.37000 Y-2.89776
X4.39300 Y-2.87476
X4.40300 Y-2.87476
X4.40700 Y-2.87176
X4.41300 Y-2.87176
X4.41700 Y-2.86676
X4.65600 Y-2.86676
X4.65900 Y-2.86276
X4.67300 Y-2.86076
X4.67500 Y-2.85876
X4.67800 Y-2.85876
X4.68200 Y-2.85476
X4.69100 Y-2.85476
X4.85000 Y-2.69576
X4.85000 Y-2.69376
X4.92100 Y-2.69376
X4.92100 Y-3.04676
X4.91900 Y-3.04676
X4.85300 Y-3.11276
G04 P0 ( dwell for no time -- G64 should not smooth over this point )
G00 Z0.05906 ( retract )

G00 X4.92100 Y-3.26076 ( rapid move to begin. )
F3.93701
G01 Z-0.00157
G04 P0 ( dwell for no time -- G64 should not smooth over this point )
F7.87402
X4.92100 Y-3.26076
X4.92100 Y-3.33576
X4.47400 Y-3.33576
X4.47300 Y-3.11876
X4.47600 Y-3.11576
X4.47800 Y-3.11576
X4.56700 Y-3.20576
X4.57300 Y-3.20576
X4.57400 Y-3.20376
X4.58200 Y-3.20076
X4.58600 Y-3.20076
X4.58800 Y-3.20276
X4.73000 Y-3.20376
X4.74700 Y-3.20076
X4.75300 Y-3.20376
X4.76300 Y-3.20376
X4.91900 Y-3.04676
X4.92100 Y-3.04676
X4.92100 Y-3.26076
G04 P0 ( dwell for no time -- G64 should not smooth over this point )
G00 Z0.05906 ( retract )

G00 X4.92100 Y-3.35976 ( rapid move to begin. )
F3.93701
G01 Z-0.00157
G04 P0 ( dwell for no time -- G64 should not smooth over this point )
F7.87402
X4.92100 Y-3.35976
X4.92100 Y-3.43376
X4.47400 Y-3.43376
X4.47400 Y-3.33576
X4.92100 Y-3.33576
X4.92100 Y-3.35976
G04 P0 ( dwell for no time -- G64 should not smooth over this point )
G00 Z0.05906 ( retract )

G00 X4.92100 Y-3.45776 ( rapid move to begin. )
F3.93701
G01 Z-0.00157
G04 P0 ( dwell for no time -- G64 should not smooth over this point )
F7.87402
X4.92100 Y-3.45776
X4.92100 Y-3.53276
X4.47500 Y-3.53276
X4.47500 Y-3.43376
X4.92100 Y-3.43376
X4.92100 Y-3.45776
G04 P0 ( dwell for no time -- G64 should not smooth over this point )
G00 Z0.05906 ( retract )

G00 X4.92100 Y-3.55676 ( rapid move to begin. )
F3.93701
G01 Z-0.00157
G04 P0 ( dwell for no time -- G64 should not smooth over this point )
F7.87402
X4.92100 Y-3.55676
X4.92100 Y-3.77376
X4.91900 Y-3.77376
X4.90100 Y-3.79276
X4.89100 Y-3.79276
X4.88700 Y-3.79676
X4.87900 Y-3.79976
X4.86600 Y-3.80076
X4.86200 Y-3.80576
X4.46600 Y-3.80576
X4.46200 Y-3.80076
X4.45000 Y-3.79976
X4.44700 Y-3.78176
X4.44300 Y-3.77876
X4.44300 Y-3.74376
X4.46500 Y-3.72276
X4.46500 Y-3.71276
X4.46800 Y-3.70976
X4.46900 Y-3.70176
X4.47300 Y-3.69876
X4.47300 Y-3.54476
X4.47500 Y-3.54376
X4.47500 Y-3.53276
X4.92100 Y-3.53276
X4.92100 Y-3.55676
G04 P0 ( dwell for no time -- G64 should not smooth over this point )
G00 Z0.05906 ( retract )

G00 X4.92100 Y-4.00276 ( rapid move to begin. )
F3.93701
G01 Z-0.00157
G04 P0 ( dwell for no time -- G64 should not smooth over this point )
F7.87402
X4.92100 Y-4.00276
X4.92100 Y-4.08076
X4.69500 Y-4.08176
X4.69400 Y-3.80576
X4.86200 Y-3.80576
X4.86600 Y-3.80076
X4.87900 Y-3.79976
X4.88700 Y-3.79676
X4.89100 Y-3.79276
X4.90100 Y-3.79276
X4.91900 Y-3.77376
X4.92100 Y-3.77376
X4.92100 Y-4.00276
G04 P0 ( dwell for no time -- G64 should not smooth over this point )
G00 Z0.05906 ( retract )

G00 X4.92100 Y-4.10276 ( rapid move to begin. )
F3.93701
G01 Z-0.00157
G04 P0 ( dwell for no time -- G64 should not smooth over this point )
F7.87402
X4.92100 Y-4.10276
X4.92100 Y-4.18076
X4.69500 Y-4.18176
X4.69400 Y-4.16076
X4.69500 Y-4.08176
X4.92100 Y-4.08076
X4.92100 Y-4.10276
G04 P0 ( dwell for no time -- G64 should not smooth over this point )
G00 Z0.05906 ( retract )

G00 X4.92100 Y-4.20276 ( rapid move to begin. )
F3.93701
G01 Z-0.00157
G04 P0 ( dwell for no time -- G64 should not smooth over this point )
F7.87402
X4.92100 Y-4.20276
X4.92100 Y-4.28076
X4.69500 Y-4.28176
X4.69400 Y-4.26076
X4.69500 Y-4.18176
X4.92100 Y-4.18076
X4.92100 Y-4.20276
G04 P0 ( dwell for no time -- G64 should not smooth over this point )
G00 Z0.05906 ( retract )

G00 X4.92100 Y-4.30276 ( rapid move to begin. )
F3.93701
G01 Z-0.00157
G04 P0 ( dwell for no time -- G64 should not smooth over this point )
F7.87402
X4.92100 Y-4.30276
X4.92100 Y-4.51676
X4.91200 Y-4.51776
X4.90800 Y-4.51376
X4.89700 Y-4.51376
X4.89100 Y-4.50876
X4.88800 Y-4.50876
X4.88000 Y-4.50376
X4.85200 Y-4.49476
X4.82800 Y-4.49076
X4.81400 Y-4.49076
X4.81000 Y-4.48576
X4.69400 Y-4.48576
X4.69500 Y-4.28176
X4.92100 Y-4.28076
X4.92100 Y-4.30276
G04 P0 ( dwell for no time -- G64 should not smooth over this point )
G00 Z0.05906 ( retract )

G00 X4.92100 Y-4.61276 ( rapid move to begin. )
F3.93701
G01 Z-0.00157
G04 P0 ( dwell for no time -- G64 should not smooth over this point )
F7.87402
X4.92100 Y-4.61276
X4.92100 Y-4.91876
X4.91900 Y-4.92076
X4.39200 Y-4.92076
X4.39200 Y-4.91876
X4.42400 Y-4.88776
X4.42400 Y-4.88076
X4.41900 Y-4.87676
X4.41900 Y-4.87276
X4.42500 Y-4.86676
X4.42500 Y-4.86376
X4.42900 Y-4.85776
X4.42900 Y-4.85376
X4.43200 Y-4.84676
X4.43300 Y-4.83176
X4.43700 Y-4.82876
X4.43700 Y-4.59676
X4.43900 Y-4.59676
X4.48100 Y-4.55376
X4.49100 Y-4.55376
X4.49700 Y-4.54776
X4.50700 Y-4.54276
X4.50800 Y-4.54076
X4.51100 Y-4.54076
X4.52400 Y-4.53376
X4.53800 Y-4.52976
X4.54000 Y-4.52376
X4.54600 Y-4.52176
X4.54900 Y-4.51876
X4.54900 Y-4.51676
X4.55700 Y-4.51576
X4.55900 Y-4.51076
X4.56500 Y-4.50476
X4.56500 Y-4.49476
X4.57300 Y-4.48776
X4.57300 Y-4.48576
X4.81000 Y-4.48576
X4.81400 Y-4.49076
X4.82800 Y-4.49076
X4.85200 Y-4.49476
X4.88000 Y-4.50376
X4.88800 Y-4.50876
X4.89100 Y-4.50876
X4.89700 Y-4.51376
X4.90800 Y-4.51376
X4.91200 Y-4.51776
X4.92100 Y-4.51676
X4.92100 Y-4.61276
G04 P0 ( dwell for no time -- G64 should not smooth over this point )
G00 Z0.05906 ( retract )

G00 X3.65100 Y-2.40376 ( rapid move to begin. )
F3.93701
G01 Z-0.00157
G04 P0 ( dwell for no time -- G64 should not smooth over this point )
F7.87402
X3.65100 Y-2.40376
X3.68800 Y-2.44076
X3.69000 Y-2.44076
X3.69000 Y-2.49076
X3.68800 Y-2.49076
X3.63000 Y-2.54976
X3.62100 Y-2.54976
X3.61800 Y-2.55276
X3.60900 Y-2.55376
X3.60600 Y-2.55776
X3.55700 Y-2.55776
X3.55300 Y-2.56276
X3.54500 Y-2.56376
X3.54300 Y-2.56576
X3.53300 Y-2.56576
X3.46300 Y-2.63676
X3.40600 Y-2.63676
X3.34400 Y-2.57476
X3.34400 Y-2.56476
X3.34100 Y-2.56076
X3.34100 Y-2.55476
X3.33600 Y-2.55076
X3.33600 Y-2.47676
X3.33200 Y-2.47376
X3.33200 Y-2.46876
X3.32800 Y-2.46276
X3.32800 Y-2.45276
X3.29100 Y-2.41676
X3.29100 Y-2.41376
X3.37500 Y-2.32976
X3.39000 Y-2.32976
X3.39200 Y-2.33276
X3.40200 Y-2.33276
X3.40600 Y-2.32776
X3.56000 Y-2.32776
X3.56500 Y-2.33276
X3.57100 Y-2.33276
X3.57500 Y-2.33576
X3.58400 Y-2.33576
X3.65100 Y-2.40376
G04 P0 ( dwell for no time -- G64 should not smooth over this point )
G00 Z0.05906 ( retract )

G00 X3.36100 Y-2.59176 ( rapid move to begin. )
F3.93701
G01 Z-0.00157
G04 P0 ( dwell for no time -- G64 should not smooth over this point )
F7.87402
X3.36100 Y-2.59176
X3.40600 Y-2.63576
X3.40600 Y-2.63776
X3.32100 Y-2.72276
X3.31200 Y-2.72276
X3.30800 Y-2.72576
X3.30200 Y-2.72576
X3.29700 Y-2.73076
X3.27700 Y-2.73076
X3.27300 Y-2.73576
X3.26700 Y-2.73576
X3.26300 Y-2.73876
X3.25300 Y-2.73876
X3.24800 Y-2.74476
X3.24500 Y-2.74476
X3.24000 Y-2.73876
X3.23100 Y-2.73876
X3.22700 Y-2.73576
X3.22100 Y-2.73576
X3.21600 Y-2.73076
X3.19500 Y-2.73076
X3.13900 Y-2.67476
X3.13900 Y-2.66476
X3.13600 Y-2.66076
X3.13600 Y-2.65476
X3.12700 Y-2.65276
X3.12700 Y-2.64776
X3.12300 Y-2.64176
X3.12300 Y-2.63176
X2.97700 Y-2.48676
X2.97700 Y-2.42876
X2.98600 Y-2.41976
X2.99600 Y-2.41976
X2.99800 Y-2.41776
X3.00600 Y-2.41676
X3.01000 Y-2.41176
X3.24900 Y-2.41176
X3.25200 Y-2.40776
X3.27600 Y-2.40776
X3.28400 Y-2.41376
X3.29100 Y-2.41476
X3.29100 Y-2.41676
X3.32800 Y-2.45276
X3.32800 Y-2.46276
X3.33200 Y-2.46876
X3.33200 Y-2.47376
X3.33600 Y-2.47676
X3.33600 Y-2.55076
X3.34100 Y-2.55476
X3.34100 Y-2.56076
X3.34400 Y-2.56476
X3.34400 Y-2.57476
X3.36100 Y-2.59176

G04 P0 ( dwell for no time -- G64 should not smooth over this point )
G00 Z0.787 ( retract )

M5 ( Spindle off. )
M9 ( Coolant off. )
M2 ( Program end. )

