( pcb2gcode 1.3.2 )
( Software-independent Gcode )

G94 ( Millimeters per minute feed rate. )
G21 ( Units == Millimeters. )

G90 ( Absolute coordinates. )
S12000 ( RPM spindle speed. )
G64 P0.05080 ( set maximum deviation from commanded toolpath )
F200.00000 ( Feedrate. )

F200.00000 ( Feedrate. )
M3 ( Spindle on clockwise. )
G04 P0 ( dwell for no time -- G64 should not smooth over this point )
G00 Z1.50000 ( retract )

G00 X60.93460 Y68.66700 ( rapid move to begin. )
G01 Z-2.70000 F100.00000 ( plunge. )
G04 P0 ( dwell for no time -- G64 should not smooth over this point )
F200.00000
X60.93460 Y68.66700
X61.11240 Y68.56540
X61.16320 Y68.48920
X61.21400 Y68.48920
X61.79820 Y67.93040
X61.79820 Y67.87960
X61.95060 Y67.75260
X61.95060 Y67.70180
X62.25540 Y67.34620
X62.28080 Y67.24460
X62.33160 Y67.21920
X62.35700 Y67.11760
X62.48400 Y66.96520
X62.89040 Y66.00000
X63.01740 Y65.46660
X63.09360 Y64.90780
X63.09360 Y16.44460
X63.01740 Y15.86040
X62.89040 Y15.35240
X62.78880 Y15.14920
X62.68720 Y14.79360
X62.20460 Y13.93000
X61.97600 Y13.67600
X61.97600 Y13.62520
X61.87440 Y13.54900
X61.87440 Y13.49820
X61.62040 Y13.26960
X61.62040 Y13.21880
X61.54420 Y13.19340
X61.31560 Y12.93940
X61.26480 Y12.93940
X61.16320 Y12.81240
X61.03620 Y12.76160
X60.88380 Y12.60920
X59.96940 Y12.10120
X59.53760 Y11.97420
X59.48680 Y11.92340
X58.97880 Y11.79640
X58.01360 Y11.69480
X10.23620 Y11.69480
X9.27100 Y11.79640
X8.30580 Y12.10120
X7.49300 Y12.53300
X7.16280 Y12.81240
X7.11200 Y12.81240
X7.06120 Y12.88860
X7.01040 Y12.88860
X6.80720 Y13.11720
X6.75640 Y13.11720
X6.57860 Y13.29500
X6.57860 Y13.34580
X6.32460 Y13.57440
X6.27380 Y13.70140
X6.04520 Y13.95540
X5.81660 Y14.38720
X5.76580 Y14.41260
X5.71500 Y14.59040
X5.56260 Y14.84440
X5.25780 Y15.80960
X5.15620 Y16.77480
X5.15620 Y64.55220
X5.25780 Y65.51740
X5.38480 Y66.02540
X5.53720 Y66.35560
X5.56260 Y66.50800
X5.81660 Y67.01600
X5.86740 Y67.04140
X5.96900 Y67.27000
X6.01980 Y67.29540
X6.04520 Y67.39700
X6.19760 Y67.54940
X6.27380 Y67.70180
X6.40080 Y67.80340
X6.40080 Y67.85420
X6.65480 Y68.08280
X6.65480 Y68.13360
X6.73100 Y68.15900
X6.95960 Y68.41300
X7.01040 Y68.41300
X7.08660 Y68.51460
X7.13740 Y68.51460
X7.18820 Y68.59080
X7.34060 Y68.66700
X7.39140 Y68.74320
X8.25500 Y69.22580
X8.33120 Y69.22580
X8.38200 Y69.27660
X8.61060 Y69.32740
X8.81380 Y69.42900
X9.32180 Y69.55600
X9.88060 Y69.63220
X58.36920 Y69.63220
X59.05500 Y69.53060
X59.81700 Y69.30200
X60.42660 Y69.02260
X60.57900 Y68.89560
X60.80760 Y68.79400
X60.93460 Y68.66700
G04 P0 ( dwell for no time -- G64 should not smooth over this point )
G00 Z1.50000 ( retract )

G00 X112.09020 Y81.24000 ( rapid move to begin. )
G01 Z-2.70000 F100.00000 ( plunge. )
G04 P0 ( dwell for no time -- G64 should not smooth over this point )
F200.00000
X112.09020 Y81.24000
X112.36960 Y81.11300
X112.80140 Y80.68120
X113.05540 Y80.12240
X113.10620 Y79.74140
X113.89360 Y79.74140
X113.89360 Y77.78560
X113.10620 Y77.78560
X113.08080 Y77.50620
X112.97920 Y77.20140
X112.82680 Y76.89660
X112.47120 Y76.51560
X112.42040 Y76.51560
X112.34420 Y76.41400
X112.14100 Y76.33780
X112.06480 Y76.26160
X111.73460 Y76.16000
X111.42980 Y76.13460
X111.42980 Y75.34720
X109.47400 Y75.34720
X109.47400 Y76.13460
X109.16920 Y76.16000
X108.86440 Y76.26160
X108.71200 Y76.33780
X108.68660 Y76.38860
X108.58500 Y76.41400
X108.40720 Y76.59180
X108.35640 Y76.59180
X108.28020 Y76.66800
X108.28020 Y76.71880
X108.17860 Y76.79500
X108.17860 Y76.84580
X108.10240 Y76.89660
X108.07700 Y76.99820
X108.02620 Y77.02360
X107.95000 Y77.17600
X107.84840 Y77.48080
X107.82300 Y77.78560
X107.03560 Y77.78560
X107.03560 Y79.74140
X107.82300 Y79.74140
X107.84840 Y80.04620
X107.95000 Y80.37640
X108.02620 Y80.45260
X108.10240 Y80.65580
X108.20400 Y80.73200
X108.20400 Y80.78280
X108.58500 Y81.13840
X108.83900 Y81.24000
X108.86440 Y81.29080
X108.96600 Y81.29080
X109.19460 Y81.39240
X109.47400 Y81.41780
X109.47400 Y82.20520
X111.42980 Y82.20520
X111.42980 Y81.41780
X111.81080 Y81.36700
X112.09020 Y81.24000

G04 P0 ( dwell for no time -- G64 should not smooth over this point )
G00 Z20.000 ( retract )

M5 ( Spindle off. )
M9 ( Coolant off. )
M2 ( Program end. )

