( pcb2gcode 1.3.2 )
( Software-independent Gcode )

G94 ( Millimeters per minute feed rate. )
G21 ( Units == Millimeters. )

G90 ( Absolute coordinates. )
S12000 ( RPM spindle speed. )
G64 P0.05080 ( set maximum deviation from commanded toolpath )
F200.00000 ( Feedrate. )

F200.00000 ( Feedrate. )
M3 ( Spindle on clockwise. )
G04 P0 ( dwell for no time -- G64 should not smooth over this point )
G00 Z1.50000 ( retract )

G00 X53.92420 Y56.54040 ( rapid move to begin. )
G01 Z-2.70000 F100.00000 ( plunge. )
G04 P0 ( dwell for no time -- G64 should not smooth over this point )
F200.00000
X53.92420 Y56.54040
X54.15280 Y56.46420
X54.35600 Y56.31180
X54.45760 Y56.28640
X54.48300 Y56.23560
X54.58460 Y56.21020
X54.71160 Y56.08320
X54.76240 Y56.08320
X54.81320 Y56.00700
X54.86400 Y56.00700
X54.91480 Y55.93080
X54.96560 Y55.93080
X55.01640 Y55.85460
X55.06720 Y55.85460
X55.72760 Y55.19420
X55.72760 Y55.14340
X55.80380 Y55.09260
X55.80380 Y55.04180
X56.08320 Y54.71160
X56.10860 Y54.61000
X56.15940 Y54.58460
X56.18480 Y54.48300
X56.33720 Y54.27980
X56.33720 Y54.20360
X56.51500 Y53.89880
X56.61660 Y53.54320
X56.69280 Y53.41620
X56.76900 Y53.00980
X56.81980 Y52.93360
X56.92140 Y51.94300
X56.92140 Y5.20700
X56.81980 Y4.24180
X56.69280 Y3.73380
X56.64200 Y3.68300
X56.51500 Y3.25120
X56.00700 Y2.33680
X55.85460 Y2.18440
X55.80380 Y2.05740
X55.67680 Y1.95580
X55.67680 Y1.90500
X55.42280 Y1.67640
X55.42280 Y1.62560
X55.34660 Y1.60020
X55.11800 Y1.34620
X55.06720 Y1.34620
X54.99100 Y1.24460
X54.94020 Y1.24460
X54.88940 Y1.16840
X54.73700 Y1.09220
X54.68620 Y1.01600
X53.82260 Y0.53340
X52.95900 Y0.25400
X52.19700 Y0.12700
X4.69900 Y0.12700
X4.14020 Y0.20320
X3.63220 Y0.33020
X3.50520 Y0.40640
X3.14960 Y0.50800
X2.28600 Y0.96520
X2.03200 Y1.19380
X1.87960 Y1.27000
X1.75260 Y1.42240
X1.70180 Y1.42240
X1.11760 Y2.03200
X1.06680 Y2.15900
X0.83820 Y2.41300
X0.66040 Y2.76860
X0.60960 Y2.79400
X0.20320 Y3.75920
X0.07620 Y4.26720
X0.00000 Y4.82600
X0.00000 Y52.32400
X0.10160 Y52.98440
X0.20320 Y53.39080
X0.33020 Y53.67020
X0.35560 Y53.82260
X0.40640 Y53.87340
X0.40640 Y53.94960
X0.88900 Y54.81320
X1.04140 Y54.96560
X1.11760 Y55.11800
X1.21920 Y55.19420
X1.21920 Y55.24500
X1.47320 Y55.47360
X1.47320 Y55.52440
X1.54940 Y55.54980
X1.77800 Y55.80380
X1.82880 Y55.80380
X1.93040 Y55.93080
X1.98120 Y55.93080
X2.23520 Y56.15940
X2.33680 Y56.18480
X2.48920 Y56.31180
X2.59080 Y56.33720
X2.61620 Y56.38800
X3.12420 Y56.64200
X3.27660 Y56.66740
X3.60680 Y56.81980
X4.11480 Y56.94680
X5.08000 Y57.04840
X51.81600 Y57.04840
X52.80660 Y56.94680
X52.88280 Y56.89600
X53.36540 Y56.79440
X53.41620 Y56.74360
X53.77180 Y56.64200
X53.92420 Y56.54040

G04 P0 ( dwell for no time -- G64 should not smooth over this point )
G00 Z20.000 ( retract )

M5 ( Spindle off. )
M9 ( Coolant off. )
M2 ( Program end. )

